tools/resolve/luts/NIRO Grading/Taxodia 09.26/C0239_e+1.32_r+0.09_b-0.19.cube
TITLE "NIRO BALANCE C0239 e +1.32 R +0.09 B -0.19 (lineare Verstaerkung S-Log3)"
LUT_1D_SIZE 4096
0.000000 0.000000 0.000000
0.000000 0.000000 0.000000
0.000000 0.000000 0.000000
0.000000 0.000000 0.000000
0.000000 0.000000 0.000000
0.000000 0.000000 0.000000
0.000000 0.000000 0.000000
0.000000 0.000000 0.000000
0.000000 0.000000 0.000000
0.000000 0.000000 0.000000
0.000000 0.000000 0.000000
0.000000 0.000000 0.000000
0.000000 0.000000 0.000000
0.000000 0.000000 0.000000
0.000000 0.000000 0.000000
0.000000 0.000000 0.000000
0.000000 0.000000 0.000000
0.000000 0.000000 0.000000
0.000000 0.000000 0.000000
0.000000 0.000000 0.000000
0.000000 0.000000 0.000000
0.000000 0.000000 0.000000
0.000000 0.000000 0.000000
0.000000 0.000000 0.000000
0.000000 0.000000 0.000000
0.000000 0.000000 0.000000
0.000000 0.000000 0.000000
0.000000 0.000000 0.000000
0.000000 0.000000 0.000000
0.000000 0.000000 0.000000
0.000000 0.000000 0.000000
0.000000 0.000000 0.000000
0.000000 0.000000 0.000000
0.000000 0.000000 0.000000
0.000000 0.000000 0.000000
0.000000 0.000000 0.000000
0.000000 0.000000 0.000000
0.000000 0.000000 0.000000
0.000000 0.000000 0.000000
0.000000 0.000000 0.000000
0.000000 0.000000 0.000000
0.000000 0.000000 0.000000
0.000000 0.000000 0.000000
0.000000 0.000000 0.000000
0.000000 0.000000 0.000000
0.000000 0.000000 0.000000
0.000000 0.000000 0.000000
0.000000 0.000000 0.000000
0.000000 0.000000 0.000000
0.000000 0.000000 0.000000
0.000000 0.000000 0.000000
0.000000 0.000000 0.000000
0.000000 0.000000 0.000000
0.000000 0.000000 0.000000
0.000000 0.000000 0.000000
0.000000 0.000000 0.000000
0.000000 0.000000 0.000000
0.000000 0.000000 0.000000
0.000000 0.000000 0.000000
0.000000 0.000000 0.000000
0.000000 0.000000 0.000000
0.000000 0.000000 0.000000
0.000000 0.000000 0.000000
0.000000 0.000000 0.000000
0.000000 0.000000 0.000000
0.000000 0.000000 0.000000
0.000000 0.000000 0.000000
0.000000 0.000000 0.000000
0.000000 0.000000 0.000000
0.000000 0.000000 0.000000
0.000000 0.000000 0.000000
0.000000 0.000000 0.000000
0.000000 0.000000 0.000000
0.000000 0.000000 0.000000
0.000000 0.000000 0.000000
0.000000 0.000000 0.000000
0.000000 0.000000 0.000000
0.000000 0.000000 0.000000
0.000000 0.000000 0.000000
0.000000 0.000000 0.000000
0.000000 0.000000 0.000000
0.000000 0.000000 0.000000
0.000000 0.000000 0.000000
0.000000 0.000000 0.000000
0.000000 0.000000 0.000000
0.000000 0.000000 0.000000
0.000000 0.000000 0.000000
0.000000 0.000000 0.000000
0.000000 0.000000 0.000000
0.000000 0.000000 0.000000
0.000000 0.000000 0.000000
0.000000 0.000000 0.000000
0.000000 0.000000 0.000000
0.000000 0.000000 0.000000
0.000000 0.000000 0.000000
0.000000 0.000000 0.000000
0.000000 0.000000 0.000000
0.000000 0.000000 0.000000
0.000000 0.000000 0.000000
0.000000 0.000000 0.000000
0.000000 0.000000 0.000000
0.000000 0.000000 0.000000
0.000000 0.000000 0.000000
0.000000 0.000000 0.000000
0.000000 0.000000 0.000000
0.000000 0.000000 0.000000
0.000000 0.000000 0.000000
0.000000 0.000000 0.000000
0.000000 0.000000 0.000000
0.000000 0.000000 0.000000
0.000000 0.000000 0.000000
0.000000 0.000000 0.000000
0.000000 0.000000 0.000000
0.000000 0.000000 0.000000
0.000000 0.000000 0.000000
0.000000 0.000000 0.000000
0.000000 0.000000 0.000000
0.000000 0.000000 0.000000
0.000000 0.000000 0.000000
0.000000 0.000000 0.000000
0.000000 0.000000 0.000000
0.000000 0.000000 0.000000
0.000000 0.000000 0.000000
0.000000 0.000000 0.000000
0.000000 0.000000 0.000000
0.000000 0.000000 0.000000
0.000000 0.000000 0.000000
0.000000 0.000000 0.000000
0.000000 0.000000 0.000000
0.000000 0.000000 0.000000
0.000000 0.000000 0.000000
0.000000 0.000000 0.000000
0.000000 0.000000 0.000000
0.000000 0.000000 0.000000
0.000000 0.000000 0.000000
0.000000 0.000000 0.000000
0.000000 0.000000 0.000000
0.000000 0.000000 0.000000
0.000000 0.000000 0.000000
0.000000 0.000000 0.000000
0.000000 0.000000 0.000000
0.000000 0.000000 0.000000
0.000000 0.000000 0.000000
0.000000 0.000000 0.000000
0.000000 0.000000 0.000000
0.000000 0.000000 0.000000
0.000000 0.000000 0.000000
0.000000 0.000000 0.000000
0.000000 0.000000 0.000000
0.000000 0.000000 0.000000
0.000000 0.000000 0.000000
0.000000 0.000000 0.000000
0.000000 0.000000 0.000000
0.000000 0.000000 0.000000
0.000000 0.000000 0.000000
0.000000 0.000000 0.000000
0.000000 0.000000 0.000000
0.000000 0.000000 0.000000
0.000000 0.000000 0.000000
0.000000 0.000000 0.000000
0.000000 0.000000 0.000000
0.000000 0.000000 0.000000
0.000000 0.000000 0.000000
0.000000 0.000000 0.000000
0.000000 0.000000 0.000000
0.000000 0.000000 0.000000
0.000000 0.000000 0.000000
0.000000 0.000000 0.000000
0.000000 0.000000 0.000000
0.000000 0.000000 0.000000
0.000000 0.000000 0.000000
0.000000 0.000000 0.000000
0.000000 0.000000 0.000000
0.000000 0.000000 0.000000
0.000000 0.000000 0.000000
0.000000 0.000000 0.000000
0.000000 0.000000 0.000000
0.000000 0.000000 0.000000
0.000000 0.000000 0.000000
0.000000 0.000000 0.000000
0.000000 0.000000 0.000000
0.000000 0.000000 0.000000
0.000000 0.000000 0.000000
0.000000 0.000000 0.000000
0.000000 0.000000 0.000000
0.000000 0.000000 0.000000
0.000000 0.000000 0.000000
0.000000 0.000000 0.000000
0.000000 0.000000 0.000000
0.000000 0.000000 0.000000
0.000000 0.000000 0.000000
0.000000 0.000000 0.000000
0.000000 0.000000 0.000000
0.000000 0.000000 0.000000
0.000000 0.000000 0.000000
0.000000 0.000000 0.000000
0.000000 0.000000 0.000000
0.000000 0.000000 0.000000
0.000000 0.000000 0.000000
0.000000 0.000000 0.000000
0.000000 0.000000 0.000000
0.000000 0.000000 0.000000
0.000000 0.000000 0.000000
0.000000 0.000000 0.000000
0.000000 0.000000 0.000000
0.000000 0.000000 0.000000
0.000000 0.000000 0.000000
0.000000 0.000000 0.000000
0.000000 0.000000 0.000470
0.000000 0.000000 0.001006
0.000000 0.000000 0.001542
0.000000 0.000000 0.002078
0.000000 0.000000 0.002615
0.000000 0.000000 0.003151
0.000000 0.000000 0.003687
0.000000 0.000000 0.004224
0.000000 0.000000 0.004760
0.000000 0.000000 0.005296
0.000000 0.000000 0.005833
0.000000 0.000000 0.006369
0.000000 0.000000 0.006905
0.000000 0.000000 0.007442
0.000000 0.000000 0.007978
0.000000 0.000000 0.008514
0.000000 0.000000 0.009050
0.000000 0.000000 0.009587
0.000000 0.000000 0.010123
0.000000 0.000000 0.010659
0.000000 0.000000 0.011196
0.000000 0.000376 0.011732
0.000000 0.000987 0.012268
0.000000 0.001598 0.012805
0.000000 0.002210 0.013341
0.000000 0.002821 0.013877
0.000000 0.003433 0.014414
0.000000 0.004044 0.014950
0.000000 0.004655 0.015486
0.000000 0.005267 0.016023
0.000599 0.005878 0.016559
0.001248 0.006490 0.017095
0.001896 0.007101 0.017631
0.002545 0.007712 0.018168
0.003193 0.008324 0.018704
0.003842 0.008935 0.019240
0.004490 0.009546 0.019777
0.005139 0.010158 0.020313
0.005787 0.010769 0.020849
0.006435 0.011381 0.021386
0.007084 0.011992 0.021922
0.007732 0.012603 0.022458
0.008381 0.013215 0.022995
0.009029 0.013826 0.023531
0.009678 0.014437 0.024067
0.010326 0.015049 0.024603
0.010975 0.015660 0.025140
0.011623 0.016272 0.025676
0.012272 0.016883 0.026212
0.012920 0.017494 0.026749
0.013569 0.018106 0.027285
0.014217 0.018717 0.027821
0.014866 0.019328 0.028358
0.015514 0.019940 0.028894
0.016163 0.020551 0.029430
0.016811 0.021163 0.029967
0.017460 0.021774 0.030503
0.018108 0.022385 0.031039
0.018757 0.022997 0.031575
0.019405 0.023608 0.032112
0.020054 0.024219 0.032648
0.020702 0.024831 0.033184
0.021351 0.025442 0.033721
0.021999 0.026054 0.034257
0.022647 0.026665 0.034793
0.023296 0.027276 0.035330
0.023944 0.027888 0.035866
0.024593 0.028499 0.036402
0.025241 0.029110 0.036939
0.025890 0.029722 0.037475
0.026538 0.030333 0.038011
0.027187 0.030945 0.038547
0.027835 0.031556 0.039084
0.028484 0.032167 0.039620
0.029132 0.032779 0.040156
0.029781 0.033390 0.040693
0.030429 0.034002 0.041229
0.031078 0.034613 0.041765
0.031726 0.035224 0.042302
0.032375 0.035836 0.042838
0.033023 0.036447 0.043374
0.033672 0.037058 0.043911
0.034320 0.037670 0.044447
0.034969 0.038281 0.044983
0.035617 0.038893 0.045520
0.036266 0.039504 0.046056
0.036914 0.040115 0.046592
0.037563 0.040727 0.047128
0.038211 0.041338 0.047665
0.038860 0.041949 0.048201
0.039508 0.042561 0.048737
0.040156 0.043172 0.049274
0.040805 0.043784 0.049810
0.041453 0.044395 0.050346
0.042102 0.045006 0.050883
0.042750 0.045618 0.051419
0.043399 0.046229 0.051955
0.044047 0.046840 0.052492
0.044696 0.047452 0.053028
0.045344 0.048063 0.053564
0.045993 0.048675 0.054100
0.046641 0.049286 0.054637
0.047290 0.049897 0.055173
0.047938 0.050509 0.055709
0.048587 0.051120 0.056246
0.049235 0.051731 0.056782
0.049884 0.052343 0.057318
0.050532 0.052954 0.057855
0.051181 0.053566 0.058391
0.051829 0.054177 0.058927
0.052478 0.054788 0.059464
0.053126 0.055400 0.060000
0.053775 0.056011 0.060536
0.054423 0.056622 0.061072
0.055072 0.057234 0.061609
0.055720 0.057845 0.062145
0.056369 0.058457 0.062681
0.057017 0.059068 0.063218
0.057665 0.059679 0.063754
0.058314 0.060291 0.064290
0.058962 0.060902 0.064827
0.059611 0.061514 0.065363
0.060259 0.062125 0.065899
0.060908 0.062736 0.066436
0.061556 0.063348 0.066972
0.062205 0.063959 0.067508
0.062853 0.064570 0.068044
0.063502 0.065182 0.068581
0.064150 0.065793 0.069117
0.064799 0.066405 0.069653
0.065447 0.067016 0.070190
0.066096 0.067627 0.070726
0.066744 0.068239 0.071262
0.067393 0.068850 0.071799
0.068041 0.069461 0.072335
0.068690 0.070073 0.072871
0.069338 0.070684 0.073408
0.069987 0.071296 0.073944
0.070635 0.071907 0.074480
0.071284 0.072518 0.075017
0.071932 0.073130 0.075553
0.072581 0.073741 0.076089
0.073229 0.074352 0.076625
0.073878 0.074964 0.077162
0.074526 0.075575 0.077698
0.075174 0.076187 0.078234
0.075823 0.076798 0.078771
0.076471 0.077409 0.079307
0.077120 0.078021 0.079843
0.077768 0.078632 0.080380
0.078417 0.079243 0.080916
0.079065 0.079855 0.081452
0.079714 0.080466 0.081989
0.080362 0.081078 0.082525
0.081011 0.081689 0.083061
0.081659 0.082300 0.083597
0.082308 0.082912 0.084134
0.082956 0.083523 0.084670
0.083605 0.084135 0.085206
0.084253 0.084746 0.085743
0.084902 0.085357 0.086279
0.085550 0.085969 0.086815
0.086199 0.086580 0.087352
0.086847 0.087191 0.087888
0.087496 0.087803 0.088424
0.088144 0.088414 0.088961
0.088793 0.089026 0.089497
0.089441 0.089637 0.090033
0.090090 0.090248 0.090569
0.090738 0.090860 0.091106
0.091387 0.091471 0.091642
0.092035 0.092082 0.092178
0.092683 0.092694 0.092715
0.093332 0.093305 0.093251
0.093980 0.093917 0.093787
0.094629 0.094528 0.094324
0.095277 0.095139 0.094860
0.095926 0.095751 0.095396
0.096574 0.096362 0.095933
0.097223 0.096973 0.096469
0.097871 0.097585 0.097005
0.098520 0.098196 0.097541
0.099168 0.098808 0.098078
0.099817 0.099419 0.098614
0.100465 0.100030 0.099150
0.101114 0.100642 0.099687
0.101762 0.101253 0.100223
0.102411 0.101864 0.100759
0.103059 0.102476 0.101296
0.103708 0.103087 0.101832
0.104356 0.103699 0.102368
0.105005 0.104310 0.102905
0.105653 0.104921 0.103441
0.106302 0.105533 0.103977
0.106950 0.106144 0.104514
0.107599 0.106755 0.105050
0.108247 0.107367 0.105586
0.108895 0.107978 0.106122
0.109544 0.108590 0.106659
0.110192 0.109201 0.107195
0.110841 0.109812 0.107731
0.111489 0.110424 0.108268
0.112138 0.111035 0.108804
0.112786 0.111647 0.109340
0.113435 0.112258 0.109877
0.114083 0.112869 0.110413
0.114732 0.113481 0.110949
0.115380 0.114092 0.111486
0.116029 0.114703 0.112022
0.116677 0.115315 0.112558
0.117326 0.115926 0.113094
0.117974 0.116538 0.113631
0.118623 0.117149 0.114167
0.119271 0.117760 0.114703
0.119920 0.118372 0.115240
0.120568 0.118983 0.115776
0.121217 0.119594 0.116312
0.121865 0.120206 0.116849
0.122514 0.120817 0.117385
0.123162 0.121429 0.117921
0.123811 0.122040 0.118458
0.124459 0.122651 0.118994
0.125108 0.123263 0.119530
0.125756 0.123874 0.120066
0.126404 0.124485 0.120603
0.127053 0.125097 0.121139
0.127701 0.125708 0.121675
0.128350 0.126320 0.122212
0.128998 0.126931 0.122748
0.129647 0.127542 0.123284
0.130295 0.128154 0.123821
0.130944 0.128765 0.124357
0.131592 0.129376 0.124893
0.132241 0.129988 0.125430
0.132889 0.130599 0.125966
0.133538 0.131211 0.126502
0.134186 0.131822 0.127038
0.134835 0.132433 0.127575
0.135483 0.133045 0.128111
0.136132 0.133656 0.128647
0.136780 0.134268 0.129184
0.137429 0.134879 0.129720
0.138077 0.135490 0.130256
0.138726 0.136102 0.130793
0.139374 0.136713 0.131329
0.140023 0.137324 0.131865
0.140671 0.137936 0.132402
0.141320 0.138547 0.132938
0.141968 0.139159 0.133474
0.142617 0.139770 0.134011
0.143265 0.140381 0.134547
0.143913 0.140993 0.135083
0.144562 0.141604 0.135619
0.145210 0.142215 0.136156
0.145859 0.142827 0.136692
0.146507 0.143438 0.137228
0.147156 0.144050 0.137765
0.147804 0.144661 0.138301
0.148453 0.145272 0.138837
0.149101 0.145884 0.139374
0.149750 0.146495 0.139910
0.150398 0.147106 0.140446
0.151047 0.147718 0.140983
0.151695 0.148329 0.141519
0.152344 0.148941 0.142055
0.152992 0.149552 0.142591
0.153641 0.150163 0.143128
0.154289 0.150775 0.143664
0.154938 0.151386 0.144200
0.155586 0.151997 0.144737
0.156235 0.152609 0.145273
0.156883 0.153220 0.145809
0.157532 0.153832 0.146346
0.158180 0.154443 0.146882
0.158829 0.155054 0.147418
0.159477 0.155666 0.147955
0.160126 0.156277 0.148491
0.160774 0.156888 0.149027
0.161422 0.157500 0.149563
0.162071 0.158111 0.150100
0.162719 0.158723 0.150636
0.163368 0.159334 0.151172
0.164016 0.159945 0.151709
0.164665 0.160557 0.152245
0.165313 0.161168 0.152781
0.165962 0.161780 0.153318
0.166610 0.162391 0.153854
0.167259 0.163002 0.154390
0.167791 0.163614 0.154927
0.168300 0.164225 0.155463
0.168806 0.164836 0.155999
0.169310 0.165448 0.156535
0.169811 0.166059 0.157072
0.170310 0.166671 0.157608
0.170808 0.167282 0.158144
0.171302 0.167780 0.158681
0.171795 0.168260 0.159217
0.172286 0.168737 0.159753
0.172774 0.169212 0.160290
0.173260 0.169686 0.160826
0.173744 0.170157 0.161362
0.174226 0.170626 0.161899
0.174706 0.171094 0.162435
0.175184 0.171559 0.162971
0.175660 0.172023 0.163508
0.176133 0.172484 0.164044
0.176605 0.172944 0.164580
0.177075 0.173402 0.165116
0.177543 0.173857 0.165653
0.178008 0.174311 0.166189
0.178472 0.174764 0.166725
0.178934 0.175214 0.167262
0.179394 0.175662 0.167705
0.179852 0.176109 0.168126
0.180308 0.176554 0.168546
0.180763 0.176997 0.168963
0.181215 0.177438 0.169380
0.181666 0.177878 0.169794
0.182115 0.178316 0.170208
0.182562 0.178752 0.170619
0.183007 0.179186 0.171029
0.183451 0.179619 0.171438
0.183892 0.180050 0.171845
0.184332 0.180480 0.172251
0.184770 0.180907 0.172655
0.185207 0.181334 0.173057
0.185642 0.181758 0.173459
0.186075 0.182181 0.173858
0.186506 0.182602 0.174257
0.186936 0.183022 0.174654
0.187364 0.183440 0.175049
0.187790 0.183856 0.175443
0.188215 0.184271 0.175836
0.188638 0.184685 0.176227
0.189060 0.185097 0.176617
0.189480 0.185507 0.177006
0.189898 0.185916 0.177393
0.190315 0.186323 0.177779
0.190730 0.186729 0.178163
0.191144 0.187133 0.178547
0.191556 0.187536 0.178929
0.191967 0.187938 0.179309
0.192376 0.188338 0.179688
0.192784 0.188736 0.180066
0.193190 0.189133 0.180443
0.193594 0.189529 0.180819
0.193998 0.189924 0.181193
0.194399 0.190316 0.181566
0.194800 0.190708 0.181937
0.195199 0.191098 0.182308
0.195596 0.191487 0.182677
0.195992 0.191874 0.183045
0.196387 0.192260 0.183412
0.196780 0.192645 0.183777
0.197172 0.193029 0.184142
0.197562 0.193411 0.184505
0.197951 0.193792 0.184867
0.198339 0.194171 0.185228
0.198725 0.194549 0.185587
0.199110 0.194926 0.185946
0.199494 0.195302 0.186303
0.199876 0.195676 0.186659
0.200257 0.196049 0.187014
0.200637 0.196421 0.187368
0.201016 0.196792 0.187721
0.201393 0.197161 0.188072
0.201769 0.197529 0.188423
0.202143 0.197896 0.188772
0.202517 0.198262 0.189121
0.202889 0.198627 0.189468
0.203260 0.198990 0.189814
0.203629 0.199352 0.190159
0.203998 0.199713 0.190503
0.204365 0.200073 0.190846
0.204731 0.200432 0.191188
0.205096 0.200789 0.191529
0.205459 0.201145 0.191869
0.205822 0.201501 0.192208
0.206183 0.201855 0.192545
0.206543 0.202208 0.192882
0.206902 0.202559 0.193218
0.207259 0.202910 0.193553
0.207616 0.203260 0.193886
0.207971 0.203608 0.194219
0.208326 0.203956 0.194551
0.208679 0.204302 0.194881
0.209031 0.204647 0.195211
0.209382 0.204992 0.195540
0.209732 0.205335 0.195868
0.210080 0.205677 0.196194
0.210428 0.206018 0.196520
0.210775 0.206358 0.196845
0.211120 0.206697 0.197169
0.211465 0.207035 0.197492
0.211808 0.207372 0.197814
0.212150 0.207707 0.198135
0.212491 0.208042 0.198455
0.212832 0.208376 0.198775
0.213171 0.208709 0.199093
0.213509 0.209041 0.199411
0.213846 0.209372 0.199727
0.214182 0.209702 0.200043
0.214517 0.210030 0.200358
0.214851 0.210358 0.200671
0.215184 0.210685 0.200984
0.215516 0.211011 0.201296
0.215847 0.211336 0.201608
0.216177 0.211660 0.201918
0.216506 0.211984 0.202228
0.216834 0.212306 0.202536
0.217162 0.212627 0.202844
0.217488 0.212947 0.203151
0.217813 0.213267 0.203457
0.218137 0.213585 0.203762
0.218461 0.213903 0.204067
0.218783 0.214220 0.204370
0.219105 0.214536 0.204673
0.219425 0.214850 0.204975
0.219745 0.215164 0.205276
0.220063 0.215478 0.205576
0.220381 0.215790 0.205876
0.220698 0.216101 0.206174
0.221014 0.216412 0.206472
0.221329 0.216721 0.206769
0.221643 0.217030 0.207066
0.221957 0.217338 0.207361
0.222269 0.217645 0.207656
0.222581 0.217951 0.207950
0.222891 0.218257 0.208243
0.223201 0.218561 0.208535
0.223510 0.218865 0.208827
0.223818 0.219168 0.209118
0.224125 0.219470 0.209408
0.224432 0.219771 0.209697
0.224737 0.220072 0.209986
0.225042 0.220371 0.210274
0.225346 0.220670 0.210561
0.225649 0.220968 0.210847
0.225951 0.221265 0.211133
0.226253 0.221562 0.211418
0.226553 0.221857 0.211702
0.226853 0.222152 0.211985
0.227152 0.222446 0.212268
0.227450 0.222739 0.212550
0.227747 0.223032 0.212831
0.228044 0.223324 0.213112
0.228340 0.223615 0.213391
0.228635 0.223905 0.213671
0.228929 0.224194 0.213949
0.229222 0.224483 0.214227
0.229515 0.224771 0.214504
0.229807 0.225058 0.214780
0.230098 0.225345 0.215056
0.230388 0.225630 0.215331
0.230678 0.225915 0.215605
0.230967 0.226200 0.215879
0.231255 0.226483 0.216152
0.231542 0.226766 0.216424
0.231829 0.227048 0.216696
0.232115 0.227329 0.216967
0.232400 0.227610 0.217237
0.232684 0.227890 0.217507
0.232968 0.228169 0.217776
0.233251 0.228448 0.218044
0.233533 0.228726 0.218312
0.233815 0.229003 0.218579
0.234095 0.229279 0.218845
0.234376 0.229555 0.219111
0.234655 0.229830 0.219376
0.234934 0.230105 0.219641
0.235212 0.230378 0.219905
0.235489 0.230651 0.220168
0.235766 0.230924 0.220430
0.236041 0.231196 0.220692
0.236317 0.231467 0.220954
0.236591 0.231737 0.221215
0.236865 0.232007 0.221475
0.237138 0.232276 0.221734
0.237459 0.232592 0.222039
0.237804 0.232932 0.222367
0.238149 0.233272 0.222695
0.238494 0.233611 0.223022
0.238838 0.233950 0.223350
0.239182 0.234289 0.223677
0.239526 0.234628 0.224004
0.239869 0.234966 0.224330
0.240212 0.235304 0.224657
0.240555 0.235642 0.224983
0.240897 0.235979 0.225309
0.241239 0.236316 0.225634
0.241581 0.236653 0.225960
0.241923 0.236990 0.226285
0.242264 0.237326 0.226610
0.242605 0.237662 0.226935
0.242946 0.237998 0.227259
0.243286 0.238334 0.227583
0.243626 0.238669 0.227907
0.243966 0.239004 0.228231
0.244305 0.239339 0.228554
0.244644 0.239673 0.228878
0.244983 0.240007 0.229201
0.245322 0.240341 0.229524
0.245660 0.240675 0.229846
0.245998 0.241008 0.230169
0.246336 0.241341 0.230491
0.246673 0.241674 0.230813
0.247011 0.242006 0.231134
0.247348 0.242339 0.231456
0.247684 0.242671 0.231777
0.248021 0.243002 0.232098
0.248357 0.243334 0.232419
0.248692 0.243665 0.232740
0.249028 0.243996 0.233060
0.249363 0.244327 0.233380
0.249698 0.244657 0.233700
0.250033 0.244987 0.234020
0.250367 0.245317 0.234339
0.250701 0.245647 0.234659
0.251035 0.245977 0.234978
0.251369 0.246306 0.235297
0.251702 0.246635 0.235615
0.252035 0.246963 0.235934
0.252368 0.247292 0.236252
0.252700 0.247620 0.236570
0.253033 0.247948 0.236888
0.253365 0.248276 0.237205
0.253696 0.248603 0.237523
0.254028 0.248930 0.237840
0.254359 0.249257 0.238157
0.254690 0.249584 0.238473
0.255021 0.249910 0.238790
0.255351 0.250237 0.239106
0.255681 0.250563 0.239422
0.256011 0.250888 0.239738
0.256341 0.251214 0.240054
0.256671 0.251539 0.240370
0.257000 0.251864 0.240685
0.257329 0.252189 0.241000
0.257657 0.252513 0.241315
0.257986 0.252838 0.241630
0.258314 0.253162 0.241944
0.258642 0.253486 0.242258
0.258970 0.253809 0.242573
0.259297 0.254133 0.242886
0.259624 0.254456 0.243200
0.259951 0.254779 0.243514
0.260278 0.255102 0.243827
0.260604 0.255424 0.244140
0.260930 0.255746 0.244453
0.261256 0.256068 0.244766
0.261582 0.256390 0.245078
0.261908 0.256712 0.245391
0.262233 0.257033 0.245703
0.262558 0.257354 0.246015
0.262883 0.257675 0.246327
0.263207 0.257996 0.246638
0.263532 0.258316 0.246950
0.263856 0.258636 0.247261
0.264180 0.258956 0.247572
0.264503 0.259276 0.247883
0.264827 0.259596 0.248194
0.265150 0.259915 0.248504
0.265473 0.260234 0.248814
0.265795 0.260553 0.249124
0.266118 0.260872 0.249434
0.266440 0.261191 0.249744
0.266762 0.261509 0.250054
0.267084 0.261827 0.250363
0.267405 0.262145 0.250672
0.267727 0.262463 0.250981
0.268048 0.262780 0.251290
0.268369 0.263097 0.251599
0.268690 0.263414 0.251907
0.269010 0.263731 0.252215
0.269330 0.264048 0.252524
0.269650 0.264364 0.252832
0.269970 0.264680 0.253139
0.270290 0.264996 0.253447
0.270609 0.265312 0.253754
0.270928 0.265628 0.254062
0.271247 0.265943 0.254369
0.271566 0.266258 0.254675
0.271884 0.266573 0.254982
0.272203 0.266888 0.255289
0.272521 0.267203 0.255595
0.272839 0.267517 0.255901
0.273156 0.267831 0.256207
0.273474 0.268145 0.256513
0.273791 0.268459 0.256819
0.274108 0.268773 0.257124
0.274425 0.269086 0.257430
0.274741 0.269399 0.257735
0.275058 0.269712 0.258040
0.275374 0.270025 0.258345
0.275690 0.270338 0.258650
0.276006 0.270650 0.258954
0.276321 0.270963 0.259258
0.276637 0.271275 0.259563
0.276952 0.271587 0.259867
0.277267 0.271898 0.260170
0.277582 0.272210 0.260474
0.277896 0.272521 0.260778
0.278211 0.272832 0.261081
0.278525 0.273143 0.261384
0.278839 0.273454 0.261687
0.279153 0.273764 0.261990
0.279466 0.274075 0.262293
0.279780 0.274385 0.262596
0.280093 0.274695 0.262898
0.280406 0.275005 0.263200
0.280719 0.275314 0.263502
0.281032 0.275624 0.263804
0.281344 0.275933 0.264106
0.281656 0.276242 0.264408
0.281968 0.276551 0.264709
0.282280 0.276860 0.265010
0.282592 0.277168 0.265312
0.282903 0.277477 0.265613
0.283215 0.277785 0.265914
0.283526 0.278093 0.266214
0.283837 0.278401 0.266515
0.284147 0.278708 0.266815
0.284458 0.279016 0.267115
0.284768 0.279323 0.267415
0.285078 0.279630 0.267715
0.285388 0.279937 0.268015
0.285698 0.280244 0.268315
0.286008 0.280551 0.268614
0.286317 0.280857 0.268914
0.286627 0.281163 0.269213
0.286936 0.281470 0.269512
0.287245 0.281776 0.269811
0.287553 0.282081 0.270110
0.287862 0.282387 0.270408
0.288170 0.282692 0.270707
0.288478 0.282998 0.271005
0.288786 0.283303 0.271303
0.289094 0.283608 0.271601
0.289402 0.283912 0.271899
0.289709 0.284217 0.272197
0.290017 0.284521 0.272494
0.290324 0.284826 0.272792
0.290631 0.285130 0.273089
0.290938 0.285434 0.273386
0.291244 0.285737 0.273683
0.291551 0.286041 0.273980
0.291857 0.286344 0.274277
0.292163 0.286648 0.274574
0.292469 0.286951 0.274870
0.292775 0.287254 0.275166
0.293080 0.287557 0.275463
0.293386 0.287859 0.275759
0.293691 0.288162 0.276054
0.293996 0.288464 0.276350
0.294301 0.288766 0.276646
0.294606 0.289068 0.276941
0.294910 0.289370 0.277237
0.295215 0.289672 0.277532
0.295519 0.289973 0.277827
0.295823 0.290275 0.278122
0.296127 0.290576 0.278417
0.296431 0.290877 0.278712
0.296734 0.291178 0.279006
0.297038 0.291479 0.279300
0.297341 0.291779 0.279595
0.297644 0.292080 0.279889
0.297947 0.292380 0.280183
0.298250 0.292680 0.280477
0.298553 0.292980 0.280771
0.298855 0.293280 0.281064
0.299157 0.293580 0.281358
0.299460 0.293879 0.281651
0.299762 0.294179 0.281944
0.300063 0.294478 0.282237
0.300365 0.294777 0.282530
0.300667 0.295076 0.282823
0.300968 0.295375 0.283116
