tools/resolve/luts/NIRO Grading/Taxodia 09.26/C0237_e+3.18_r+0.15_b-0.31.cube
TITLE "NIRO BALANCE C0237 e +3.18 R +0.15 B -0.31 (lineare Verstaerkung S-Log3)"
LUT_1D_SIZE 4096
0.000000 0.000000 0.000000
0.000000 0.000000 0.000000
0.000000 0.000000 0.000000
0.000000 0.000000 0.000000
0.000000 0.000000 0.000000
0.000000 0.000000 0.000000
0.000000 0.000000 0.000000
0.000000 0.000000 0.000000
0.000000 0.000000 0.000000
0.000000 0.000000 0.000000
0.000000 0.000000 0.000000
0.000000 0.000000 0.000000
0.000000 0.000000 0.000000
0.000000 0.000000 0.000000
0.000000 0.000000 0.000000
0.000000 0.000000 0.000000
0.000000 0.000000 0.000000
0.000000 0.000000 0.000000
0.000000 0.000000 0.000000
0.000000 0.000000 0.000000
0.000000 0.000000 0.000000
0.000000 0.000000 0.000000
0.000000 0.000000 0.000000
0.000000 0.000000 0.000000
0.000000 0.000000 0.000000
0.000000 0.000000 0.000000
0.000000 0.000000 0.000000
0.000000 0.000000 0.000000
0.000000 0.000000 0.000000
0.000000 0.000000 0.000000
0.000000 0.000000 0.000000
0.000000 0.000000 0.000000
0.000000 0.000000 0.000000
0.000000 0.000000 0.000000
0.000000 0.000000 0.000000
0.000000 0.000000 0.000000
0.000000 0.000000 0.000000
0.000000 0.000000 0.000000
0.000000 0.000000 0.000000
0.000000 0.000000 0.000000
0.000000 0.000000 0.000000
0.000000 0.000000 0.000000
0.000000 0.000000 0.000000
0.000000 0.000000 0.000000
0.000000 0.000000 0.000000
0.000000 0.000000 0.000000
0.000000 0.000000 0.000000
0.000000 0.000000 0.000000
0.000000 0.000000 0.000000
0.000000 0.000000 0.000000
0.000000 0.000000 0.000000
0.000000 0.000000 0.000000
0.000000 0.000000 0.000000
0.000000 0.000000 0.000000
0.000000 0.000000 0.000000
0.000000 0.000000 0.000000
0.000000 0.000000 0.000000
0.000000 0.000000 0.000000
0.000000 0.000000 0.000000
0.000000 0.000000 0.000000
0.000000 0.000000 0.000000
0.000000 0.000000 0.000000
0.000000 0.000000 0.000000
0.000000 0.000000 0.000000
0.000000 0.000000 0.000000
0.000000 0.000000 0.000000
0.000000 0.000000 0.000000
0.000000 0.000000 0.000000
0.000000 0.000000 0.000000
0.000000 0.000000 0.000000
0.000000 0.000000 0.000000
0.000000 0.000000 0.000000
0.000000 0.000000 0.000000
0.000000 0.000000 0.000000
0.000000 0.000000 0.000000
0.000000 0.000000 0.000000
0.000000 0.000000 0.000000
0.000000 0.000000 0.000000
0.000000 0.000000 0.000000
0.000000 0.000000 0.000000
0.000000 0.000000 0.000000
0.000000 0.000000 0.000000
0.000000 0.000000 0.000000
0.000000 0.000000 0.000000
0.000000 0.000000 0.000000
0.000000 0.000000 0.000000
0.000000 0.000000 0.000000
0.000000 0.000000 0.000000
0.000000 0.000000 0.000000
0.000000 0.000000 0.000000
0.000000 0.000000 0.000000
0.000000 0.000000 0.000000
0.000000 0.000000 0.000000
0.000000 0.000000 0.000000
0.000000 0.000000 0.000000
0.000000 0.000000 0.000000
0.000000 0.000000 0.000000
0.000000 0.000000 0.000000
0.000000 0.000000 0.000000
0.000000 0.000000 0.000000
0.000000 0.000000 0.000000
0.000000 0.000000 0.000000
0.000000 0.000000 0.000000
0.000000 0.000000 0.000000
0.000000 0.000000 0.000000
0.000000 0.000000 0.000000
0.000000 0.000000 0.000000
0.000000 0.000000 0.000000
0.000000 0.000000 0.000000
0.000000 0.000000 0.000000
0.000000 0.000000 0.000000
0.000000 0.000000 0.000000
0.000000 0.000000 0.000000
0.000000 0.000000 0.000000
0.000000 0.000000 0.000000
0.000000 0.000000 0.000000
0.000000 0.000000 0.000000
0.000000 0.000000 0.000000
0.000000 0.000000 0.000000
0.000000 0.000000 0.000000
0.000000 0.000000 0.000000
0.000000 0.000000 0.000000
0.000000 0.000000 0.000000
0.000000 0.000000 0.000000
0.000000 0.000000 0.000000
0.000000 0.000000 0.000000
0.000000 0.000000 0.000000
0.000000 0.000000 0.000000
0.000000 0.000000 0.000000
0.000000 0.000000 0.000000
0.000000 0.000000 0.000000
0.000000 0.000000 0.000000
0.000000 0.000000 0.000000
0.000000 0.000000 0.000000
0.000000 0.000000 0.000000
0.000000 0.000000 0.000000
0.000000 0.000000 0.000000
0.000000 0.000000 0.000000
0.000000 0.000000 0.000000
0.000000 0.000000 0.000000
0.000000 0.000000 0.000000
0.000000 0.000000 0.000000
0.000000 0.000000 0.000000
0.000000 0.000000 0.000000
0.000000 0.000000 0.000000
0.000000 0.000000 0.000000
0.000000 0.000000 0.000000
0.000000 0.000000 0.000000
0.000000 0.000000 0.000000
0.000000 0.000000 0.000000
0.000000 0.000000 0.000000
0.000000 0.000000 0.000000
0.000000 0.000000 0.000000
0.000000 0.000000 0.000000
0.000000 0.000000 0.000000
0.000000 0.000000 0.000000
0.000000 0.000000 0.000000
0.000000 0.000000 0.000000
0.000000 0.000000 0.000000
0.000000 0.000000 0.000000
0.000000 0.000000 0.000000
0.000000 0.000000 0.000000
0.000000 0.000000 0.000000
0.000000 0.000000 0.000000
0.000000 0.000000 0.000000
0.000000 0.000000 0.000000
0.000000 0.000000 0.000000
0.000000 0.000000 0.000000
0.000000 0.000000 0.000000
0.000000 0.000000 0.000000
0.000000 0.000000 0.000000
0.000000 0.000000 0.000000
0.000000 0.000000 0.000000
0.000000 0.000000 0.000000
0.000000 0.000000 0.000000
0.000000 0.000000 0.000000
0.000000 0.000000 0.000000
0.000000 0.000000 0.000000
0.000000 0.000000 0.000000
0.000000 0.000000 0.000000
0.000000 0.000000 0.000000
0.000000 0.000000 0.000000
0.000000 0.000000 0.000000
0.000000 0.000000 0.000000
0.000000 0.000000 0.000000
0.000000 0.000000 0.000000
0.000000 0.000000 0.000000
0.000000 0.000000 0.000000
0.000000 0.000000 0.000000
0.000000 0.000000 0.000000
0.000000 0.000000 0.000000
0.000000 0.000000 0.000000
0.000000 0.000000 0.000000
0.000000 0.000000 0.000000
0.000000 0.000000 0.000000
0.000000 0.000000 0.000000
0.000000 0.000000 0.000000
0.000000 0.000000 0.000000
0.000000 0.000000 0.000000
0.000000 0.000000 0.000000
0.000000 0.000000 0.000000
0.000000 0.000000 0.000000
0.000000 0.000000 0.000000
0.000000 0.000000 0.000000
0.000000 0.000000 0.000000
0.000000 0.000000 0.000000
0.000000 0.000000 0.000000
0.000000 0.000000 0.000000
0.000000 0.000000 0.000000
0.000000 0.000000 0.000000
0.000000 0.000000 0.000000
0.000000 0.000000 0.000000
0.000000 0.000000 0.000000
0.000000 0.000000 0.000000
0.000000 0.000000 0.000000
0.000000 0.000000 0.000000
0.000000 0.000000 0.000000
0.000000 0.000000 0.000000
0.000000 0.000000 0.000000
0.000000 0.000000 0.000000
0.000000 0.000000 0.000000
0.000000 0.000000 0.000000
0.000000 0.000000 0.000000
0.000000 0.000000 0.000000
0.000000 0.000000 0.000000
0.000000 0.000000 0.000000
0.000000 0.000000 0.000000
0.000000 0.000000 0.000000
0.000000 0.000000 0.000000
0.000000 0.000000 0.000000
0.000000 0.000000 0.000000
0.000000 0.000000 0.000000
0.000000 0.000000 0.000000
0.000000 0.000000 0.000000
0.000000 0.000000 0.000000
0.000000 0.000000 0.000000
0.000000 0.000000 0.000000
0.000000 0.000000 0.000000
0.000000 0.000000 0.000000
0.000000 0.000000 0.000000
0.000000 0.000000 0.000000
0.000000 0.000000 0.000000
0.000000 0.000000 0.000000
0.000000 0.000000 0.000000
0.000000 0.000000 0.000000
0.000000 0.000000 0.000000
0.000000 0.000000 0.000000
0.000000 0.000000 0.000000
0.000000 0.000000 0.000000
0.000000 0.000000 0.000000
0.000000 0.000000 0.000000
0.000000 0.000000 0.000000
0.000000 0.000000 0.000000
0.000000 0.000000 0.000000
0.000000 0.000000 0.000000
0.000000 0.000000 0.000000
0.000000 0.000000 0.000000
0.000000 0.000000 0.000000
0.000000 0.000000 0.000000
0.000000 0.000000 0.000000
0.000000 0.000000 0.000000
0.000000 0.000000 0.000000
0.000000 0.000000 0.000000
0.000000 0.000000 0.000000
0.000000 0.000000 0.000000
0.000000 0.000000 0.000000
0.000000 0.000000 0.000000
0.000000 0.000000 0.000000
0.000000 0.000000 0.000000
0.000000 0.000000 0.000000
0.000000 0.000000 0.000000
0.000000 0.000000 0.000000
0.000000 0.000000 0.000000
0.000000 0.000000 0.000000
0.000000 0.000000 0.000000
0.000000 0.000000 0.000000
0.000000 0.000000 0.000000
0.000000 0.000000 0.000000
0.000000 0.000000 0.000000
0.000000 0.000000 0.000000
0.000000 0.000000 0.000000
0.000000 0.000000 0.000000
0.000000 0.000000 0.000000
0.000000 0.000000 0.000000
0.000000 0.000000 0.000000
0.000000 0.000000 0.000000
0.000000 0.000000 0.000000
0.000000 0.000000 0.000000
0.000000 0.000000 0.000000
0.000000 0.000000 0.000000
0.000000 0.000000 0.000000
0.000000 0.000000 0.000000
0.000000 0.000000 0.000000
0.000000 0.000000 0.000000
0.000000 0.000000 0.000000
0.000000 0.000000 0.000000
0.000000 0.000000 0.000000
0.000000 0.000000 0.000000
0.000000 0.000000 0.000000
0.000000 0.000000 0.000000
0.000000 0.000000 0.000000
0.000000 0.000000 0.000000
0.000000 0.000000 0.000000
0.000000 0.000000 0.000000
0.000000 0.000000 0.000000
0.000000 0.000000 0.000000
0.000000 0.000000 0.000000
0.000000 0.000000 0.000000
0.000000 0.000000 0.000000
0.000000 0.000000 0.000000
0.000000 0.000000 0.000000
0.000000 0.000000 0.000000
0.000000 0.000000 0.000000
0.000000 0.000000 0.000000
0.000000 0.000000 0.000000
0.000000 0.000000 0.000000
0.000000 0.000000 0.000000
0.000000 0.000000 0.000000
0.000000 0.000000 0.000000
0.000000 0.000000 0.000000
0.000000 0.000000 0.000000
0.000000 0.000000 0.000000
0.000000 0.000000 0.000000
0.000000 0.000000 0.000000
0.000000 0.000000 0.000000
0.000000 0.000000 0.000000
0.000000 0.000000 0.000000
0.000000 0.000000 0.000000
0.000000 0.000000 0.000000
0.000000 0.000000 0.001191
0.000000 0.000000 0.002979
0.000000 0.000000 0.004767
0.000000 0.000000 0.006555
0.000000 0.000000 0.008342
0.000000 0.000000 0.010130
0.000000 0.000000 0.011918
0.000000 0.000000 0.013706
0.000000 0.000000 0.015493
0.000000 0.000000 0.017281
0.000000 0.001253 0.019069
0.000000 0.003472 0.020856
0.000000 0.005691 0.022644
0.000000 0.007911 0.024432
0.000937 0.010130 0.026220
0.003403 0.012349 0.028007
0.005869 0.014569 0.029795
0.008335 0.016788 0.031583
0.010801 0.019007 0.033371
0.013267 0.021227 0.035158
0.015733 0.023446 0.036946
0.018199 0.025665 0.038734
0.020665 0.027885 0.040522
0.023131 0.030104 0.042309
0.025597 0.032323 0.044097
0.028063 0.034543 0.045885
0.030529 0.036762 0.047673
0.032995 0.038981 0.049460
0.035461 0.041201 0.051248
0.037926 0.043420 0.053036
0.040392 0.045640 0.054824
0.042858 0.047859 0.056611
0.045324 0.050078 0.058399
0.047790 0.052298 0.060187
0.050256 0.054517 0.061975
0.052722 0.056736 0.063762
0.055188 0.058956 0.065550
0.057654 0.061175 0.067338
0.060120 0.063394 0.069125
0.062586 0.065614 0.070913
0.065052 0.067833 0.072701
0.067518 0.070052 0.074489
0.069984 0.072272 0.076276
0.072450 0.074491 0.078064
0.074916 0.076710 0.079852
0.077382 0.078930 0.081640
0.079847 0.081149 0.083427
0.082313 0.083368 0.085215
0.084779 0.085588 0.087003
0.087245 0.087807 0.088791
0.089711 0.090026 0.090578
0.092177 0.092246 0.092366
0.094643 0.094465 0.094154
0.097109 0.096685 0.095942
0.099575 0.098904 0.097729
0.102041 0.101123 0.099517
0.104507 0.103343 0.101305
0.106973 0.105562 0.103093
0.109439 0.107781 0.104880
0.111905 0.110001 0.106668
0.114371 0.112220 0.108456
0.116837 0.114439 0.110243
0.119302 0.116659 0.112031
0.121768 0.118878 0.113819
0.124234 0.121097 0.115607
0.126700 0.123317 0.117394
0.129166 0.125536 0.119182
0.131632 0.127755 0.120970
0.134098 0.129975 0.122758
0.136564 0.132194 0.124545
0.139030 0.134413 0.126333
0.141496 0.136633 0.128121
0.143962 0.138852 0.129909
0.146428 0.141072 0.131696
0.148894 0.143291 0.133484
0.151360 0.145510 0.135272
0.153826 0.147730 0.137060
0.156292 0.149949 0.138847
0.158757 0.152168 0.140635
0.161223 0.154388 0.142423
0.163689 0.156607 0.144211
0.166155 0.158826 0.145998
0.168351 0.161046 0.147786
0.170262 0.163265 0.149574
0.172142 0.165484 0.151361
0.173990 0.167631 0.153149
0.175807 0.169364 0.154937
0.177596 0.171070 0.156725
0.179356 0.172751 0.158512
0.181088 0.174407 0.160300
0.182794 0.176038 0.162088
0.184475 0.177645 0.163876
0.186130 0.179230 0.165663
0.187761 0.180792 0.167432
0.189368 0.182333 0.168833
0.190952 0.183852 0.170216
0.192514 0.185352 0.171582
0.194054 0.186831 0.172932
0.195573 0.188290 0.174265
0.197072 0.189731 0.175582
0.198551 0.191153 0.176884
0.200010 0.192557 0.178171
0.201451 0.193944 0.179444
0.202872 0.195314 0.180701
0.204276 0.196666 0.181945
0.205663 0.198003 0.183175
0.207032 0.199324 0.184391
0.208385 0.200629 0.185595
0.209721 0.201919 0.186785
0.211041 0.203194 0.187963
0.212346 0.204455 0.189128
0.213636 0.205701 0.190281
0.214911 0.206934 0.191423
0.216172 0.208153 0.192553
0.217418 0.209359 0.193671
0.218650 0.210552 0.194778
0.219869 0.211732 0.195875
0.221075 0.212900 0.196960
0.222268 0.214056 0.198035
0.223448 0.215200 0.199100
0.224616 0.216332 0.200155
0.225771 0.217453 0.201199
0.226915 0.218562 0.202234
0.228047 0.219661 0.203260
0.229167 0.220748 0.204276
0.230276 0.221826 0.205283
0.231375 0.222892 0.206281
0.232462 0.223949 0.207269
0.233539 0.224996 0.208250
0.234606 0.226033 0.209221
0.235663 0.227060 0.210184
0.236709 0.228078 0.211139
0.237746 0.229087 0.212086
0.238773 0.230086 0.213025
0.239791 0.231077 0.213956
0.240800 0.232059 0.214879
0.241799 0.233032 0.215794
0.242790 0.233997 0.216702
0.243771 0.234954 0.217603
0.244744 0.235902 0.218496
0.245709 0.236842 0.219382
0.246666 0.237775 0.220262
0.247614 0.238700 0.221134
0.248554 0.239617 0.222000
0.249486 0.240526 0.222858
0.250411 0.241428 0.223711
0.251328 0.242323 0.224556
0.252237 0.243211 0.225396
0.253139 0.244092 0.226229
0.254034 0.244965 0.227056
0.254922 0.245832 0.227876
0.255802 0.246692 0.228691
0.256676 0.247546 0.229500
0.257543 0.248393 0.230303
0.258403 0.249234 0.231100
0.259256 0.250068 0.231891
0.260103 0.250896 0.232677
0.260944 0.251718 0.233458
0.261778 0.252534 0.234233
0.262606 0.253344 0.235002
0.263428 0.254148 0.235766
0.264244 0.254946 0.236525
0.265053 0.255739 0.237279
0.265857 0.256526 0.238028
0.266656 0.257308 0.238772
0.267448 0.258084 0.239511
0.268235 0.258854 0.240245
0.269017 0.259619 0.240974
0.269792 0.260380 0.241698
0.270563 0.261134 0.242418
0.271328 0.261884 0.243133
0.272088 0.262629 0.243843
0.272843 0.263369 0.244549
0.273593 0.264104 0.245250
0.274337 0.264834 0.245948
0.275077 0.265559 0.246640
0.275812 0.266280 0.247329
0.276542 0.266996 0.248013
0.277267 0.267707 0.248693
0.277988 0.268414 0.249369
0.278704 0.269116 0.250040
0.279415 0.269814 0.250708
0.280122 0.270508 0.251372
0.280824 0.271197 0.252032
0.281522 0.271882 0.252687
0.282215 0.272563 0.253339
0.282905 0.273240 0.253988
0.283590 0.273912 0.254632
0.284270 0.274581 0.255273
0.284947 0.275245 0.255910
0.285619 0.275906 0.256543
0.286288 0.276563 0.257173
0.286952 0.277215 0.257799
0.287613 0.277864 0.258422
0.288270 0.278510 0.259042
0.288922 0.279151 0.259657
0.289571 0.279789 0.260270
0.290216 0.280423 0.260879
0.290858 0.281054 0.261485
0.291496 0.281681 0.262087
0.292130 0.282304 0.262686
0.292760 0.282924 0.263282
0.293387 0.283541 0.263875
0.294010 0.284154 0.264465
0.294630 0.284763 0.265051
0.295247 0.285370 0.265635
0.295860 0.285973 0.266215
0.296470 0.286573 0.266793
0.297076 0.287170 0.267367
0.297679 0.287763 0.267939
0.298279 0.288353 0.268507
0.298876 0.288941 0.269073
0.299469 0.289525 0.269636
0.300059 0.290106 0.270196
0.300646 0.290684 0.270753
0.301231 0.291259 0.271307
0.301812 0.291831 0.271859
0.302390 0.292400 0.272408
0.302964 0.292966 0.272954
0.303537 0.293530 0.273497
0.304106 0.294090 0.274038
0.304672 0.294648 0.274576
0.305235 0.295203 0.275112
0.305796 0.295755 0.275645
0.306353 0.296304 0.276175
0.306908 0.296851 0.276703
0.307460 0.297395 0.277229
0.308010 0.297936 0.277752
0.308556 0.298475 0.278272
0.309100 0.299011 0.278791
0.309642 0.299545 0.279306
0.310180 0.300076 0.279820
0.310716 0.300604 0.280331
0.311250 0.301130 0.280839
0.311781 0.301654 0.281346
0.312309 0.302175 0.281850
0.312835 0.302694 0.282351
0.313359 0.303210 0.282851
0.313880 0.303724 0.283348
0.314398 0.304235 0.283843
0.314915 0.304744 0.284336
0.315428 0.305251 0.284827
0.315940 0.305755 0.285315
0.316449 0.306258 0.285801
0.316956 0.306758 0.286286
0.317460 0.307255 0.286768
0.317962 0.307751 0.287248
0.318462 0.308244 0.287726
0.318960 0.308735 0.288202
0.319455 0.309224 0.288676
0.319948 0.309711 0.289147
0.320439 0.310195 0.289617
0.320928 0.310678 0.290085
0.321415 0.311158 0.290551
0.321900 0.311637 0.291015
0.322382 0.312113 0.291477
0.322863 0.312588 0.291937
0.323341 0.313060 0.292396
0.323817 0.313530 0.292852
0.324292 0.313998 0.293306
0.324764 0.314465 0.293759
0.325234 0.314929 0.294210
0.325702 0.315392 0.294659
0.326169 0.315852 0.295106
0.326633 0.316311 0.295551
0.327095 0.316767 0.295995
0.327556 0.317222 0.296437
0.328014 0.317675 0.296877
0.328471 0.318126 0.297315
0.328926 0.318576 0.297752
0.329379 0.319023 0.298187
0.329830 0.319469 0.298620
0.330279 0.319913 0.299051
0.330727 0.320355 0.299481
0.331173 0.320796 0.299910
0.331617 0.321234 0.300336
0.332059 0.321671 0.300761
0.332499 0.322107 0.301184
0.332938 0.322540 0.301606
0.333375 0.322972 0.302026
0.333810 0.323402 0.302445
0.334244 0.323831 0.302862
0.334675 0.324258 0.303277
0.335106 0.324683 0.303691
0.335534 0.325106 0.304103
0.335961 0.325529 0.304514
0.336386 0.325949 0.304923
0.336810 0.326368 0.305331
0.337232 0.326785 0.305737
0.337652 0.327201 0.306142
0.338071 0.327615 0.306545
0.338488 0.328027 0.306947
0.338904 0.328439 0.307347
0.339318 0.328848 0.307746
0.339731 0.329256 0.308144
0.340142 0.329663 0.308540
0.340551 0.330068 0.308935
0.340959 0.330471 0.309328
0.341366 0.330874 0.309720
0.341771 0.331274 0.310110
0.342174 0.331673 0.310500
0.342576 0.332071 0.310887
0.342977 0.332468 0.311274
0.343376 0.332863 0.311659
0.343774 0.333256 0.312043
0.344170 0.333648 0.312425
0.344565 0.334039 0.312806
0.344959 0.334429 0.313186
0.345351 0.334817 0.313565
0.345742 0.335204 0.313942
0.346131 0.335589 0.314318
0.346519 0.335973 0.314693
0.346906 0.336356 0.315066
0.347292 0.336737 0.315438
0.347676 0.337117 0.315809
0.348058 0.337496 0.316179
0.348440 0.337874 0.316548
0.348820 0.338250 0.316915
0.349199 0.338625 0.317281
0.349576 0.338999 0.317646
0.349952 0.339371 0.318009
0.350327 0.339742 0.318372
0.350701 0.340112 0.318733
0.351073 0.340481 0.319093
0.351445 0.340848 0.319452
0.351815 0.341215 0.319810
0.352183 0.341580 0.320167
0.352551 0.341944 0.320522
0.352917 0.342307 0.320877
0.353282 0.342668 0.321230
0.353646 0.343028 0.321582
0.354009 0.343388 0.321933
0.354370 0.343746 0.322283
0.354731 0.344103 0.322632
0.355090 0.344458 0.322980
0.355448 0.344813 0.323326
0.355805 0.345166 0.323672
0.356160 0.345519 0.324016
0.356515 0.345870 0.324360
0.356868 0.346220 0.324702
0.357221 0.346569 0.325043
0.357572 0.346917 0.325384
0.357922 0.347264 0.325723
0.358271 0.347610 0.326061
0.358619 0.347954 0.326398
0.358966 0.348298 0.326734
0.359312 0.348641 0.327069
0.359656 0.348982 0.327404
0.360000 0.349323 0.327737
0.360343 0.349662 0.328069
0.360684 0.350001 0.328400
0.361025 0.350338 0.328730
0.361364 0.350674 0.329059
0.361702 0.351010 0.329387
0.362040 0.351344 0.329715
0.362376 0.351677 0.330041
0.362711 0.352010 0.330366
0.363105 0.352399 0.330748
0.363528 0.352819 0.331158
0.363950 0.353237 0.331568
0.364372 0.353655 0.331978
0.364793 0.354073 0.332386
0.365214 0.354490 0.332795
0.365633 0.354906 0.333202
0.366052 0.355321 0.333609
0.366471 0.355736 0.334016
0.366889 0.356150 0.334421
0.367306 0.356564 0.334827
0.367722 0.356977 0.335231
0.368138 0.357389 0.335635
0.368554 0.357801 0.336039
0.368968 0.358212 0.336441
0.369382 0.358622 0.336844
0.369795 0.359032 0.337246
0.370208 0.359442 0.337647
0.370620 0.359850 0.338047
0.371032 0.360258 0.338447
0.371442 0.360666 0.338847
0.371853 0.361073 0.339246
0.372262 0.361479 0.339644
0.372671 0.361884 0.340042
0.373080 0.362290 0.340439
0.373487 0.362694 0.340836
0.373895 0.363098 0.341232
0.374301 0.363501 0.341628
0.374707 0.363904 0.342023
0.375113 0.364306 0.342417
0.375517 0.364708 0.342811
0.375922 0.365109 0.343205
0.376325 0.365509 0.343598
0.376728 0.365909 0.343990
0.377131 0.366308 0.344382
0.377533 0.366707 0.344773
0.377934 0.367105 0.345164
0.378335 0.367503 0.345555
0.378735 0.367900 0.345944
0.379135 0.368297 0.346334
0.379534 0.368693 0.346723
0.379933 0.369088 0.347111
0.380331 0.369483 0.347499
0.380728 0.369878 0.347886
0.381125 0.370272 0.348273
0.381521 0.370665 0.348659
0.381917 0.371058 0.349045
0.382312 0.371450 0.349430
0.382707 0.371842 0.349815
0.383101 0.372233 0.350200
0.383495 0.372624 0.350584
0.383888 0.373014 0.350967
0.384281 0.373404 0.351350
0.384673 0.373793 0.351732
0.385065 0.374182 0.352114
0.385456 0.374570 0.352496
0.385846 0.374958 0.352877
0.386236 0.375345 0.353257
0.386626 0.375732 0.353637
0.387015 0.376118 0.354017
0.387403 0.376504 0.354396
0.387791 0.376889 0.354775
0.388179 0.377274 0.355153
0.388566 0.377658 0.355531
0.388952 0.378042 0.355908
0.389338 0.378425 0.356285
0.389724 0.378808 0.356662
0.390109 0.379190 0.357038
0.390493 0.379572 0.357413
0.390877 0.379953 0.357788
0.391261 0.380334 0.358163
0.391644 0.380715 0.358537
0.392027 0.381095 0.358911
0.392409 0.381474 0.359284
0.392790 0.381853 0.359657
0.393172 0.382232 0.360030
0.393552 0.382610 0.360402
0.393933 0.382988 0.360773
0.394312 0.383365 0.361144
0.394692 0.383742 0.361515
0.395071 0.384118 0.361886
0.395449 0.384494 0.362256
0.395827 0.384869 0.362625
0.396204 0.385244 0.362994
0.396581 0.385619 0.363363
0.396958 0.385993 0.363731
0.397334 0.386367 0.364099
0.397710 0.386740 0.364466
0.398085 0.387113 0.364833
0.398460 0.387485 0.365200
0.398834 0.387857 0.365566
0.399208 0.388229 0.365932
0.399582 0.388600 0.366298
0.399955 0.388971 0.366663
0.400328 0.389341 0.367027
0.400700 0.389711 0.367392
0.401072 0.390080 0.367755
0.401443 0.390449 0.368119
0.401814 0.390818 0.368482
0.402184 0.391186 0.368845
0.402554 0.391554 0.369207
0.402924 0.391921 0.369569
0.403293 0.392288 0.369930
0.403662 0.392654 0.370291
0.404031 0.393021 0.370652
0.404399 0.393386 0.371013
0.404766 0.393752 0.371373
0.405133 0.394117 0.371732
0.405500 0.394481 0.372092
0.405867 0.394845 0.372450
0.406233 0.395209 0.372809
0.406598 0.395572 0.373167
0.406963 0.395935 0.373525
0.407328 0.396298 0.373882
0.407692 0.396660 0.374239
0.408056 0.397022 0.374596
0.408420 0.397384 0.374952
0.408783 0.397745 0.375308
0.409146 0.398105 0.375664
0.409509 0.398466 0.376019
0.409871 0.398826 0.376374
0.410232 0.399185 0.376729
0.410594 0.399544 0.377083
0.410954 0.399903 0.377437
0.411315 0.400262 0.377790
0.411675 0.400620 0.378143
0.412035 0.400977 0.378496
0.412394 0.401335 0.378849
0.412753 0.401692 0.379201
0.413112 0.402048 0.379553
0.413470 0.402405 0.379904
0.413828 0.402760 0.380255
0.414186 0.403116 0.380606
0.414543 0.403471 0.380956
0.414900 0.403826 0.381306
0.415256 0.404180 0.381656
0.415612 0.404535 0.382006
0.415968 0.404888 0.382355
0.416323 0.405242 0.382704
0.416678 0.405595 0.383052
0.417033 0.405948 0.383400
0.417388 0.406300 0.383748
0.417741 0.406652 0.384095
0.418095 0.407004 0.384443
0.418448 0.407355 0.384789
0.418801 0.407706 0.385136
0.419154 0.408057 0.385482
0.419506 0.408407 0.385828
0.419858 0.408757 0.386173
0.420210 0.409107 0.386519
0.420561 0.409456 0.386864
0.420912 0.409805 0.387208
0.421262 0.410154 0.387553
0.421613 0.410502 0.387897
0.421962 0.410850 0.388240
0.422312 0.411198 0.388584
0.422661 0.411545 0.388927
0.423010 0.411893 0.389269
0.423359 0.412239 0.389612
0.423707 0.412586 0.389954
0.424055 0.412932 0.390296
0.424402 0.413278 0.390637
0.424750 0.413623 0.390979
0.425097 0.413968 0.391320
0.425443 0.414313 0.391660
0.425790 0.414658 0.392001
0.426135 0.415002 0.392341
0.426481 0.415346 0.392681
0.426827 0.415689 0.393020
0.427172 0.416033 0.393359
0.427516 0.416376 0.393698
0.427861 0.416718 0.394037
0.428205 0.417061 0.394375
0.428549 0.417403 0.394713
0.428892 0.417745 0.395051
0.429235 0.418086 0.395388
0.429578 0.418427 0.395726
0.429921 0.418768 0.396062
0.430263 0.419109 0.396399
0.430605 0.419449 0.396735
0.430947 0.419789 0.397072
0.431288 0.420129 0.397407
0.431629 0.420468 0.397743
0.431970 0.420807 0.398078
0.432310 0.421146 0.398413
0.432650 0.421485 0.398748
0.432990 0.421823 0.399082
0.433330 0.422161 0.399416
0.433669 0.422499 0.399750
0.434008 0.422836 0.400084
0.434347 0.423173 0.400417
0.434685 0.423510 0.400750
0.435024 0.423847 0.401083
0.435361 0.424183 0.401416
0.435699 0.424519 0.401748
0.436036 0.424855 0.402080
0.436373 0.425190 0.402412
0.436710 0.425525 0.402743
0.437046 0.425860 0.403074
