tools/resolve/luts/NIRO Grading/Taxodia 09.26/C0235_e+1.18_r+0.11_b-0.23.cube
TITLE "NIRO BALANCE C0235 e +1.18 R +0.11 B -0.23 (lineare Verstaerkung S-Log3)"
LUT_1D_SIZE 4096
0.000000 0.000000 0.000000
0.000000 0.000000 0.000000
0.000000 0.000000 0.000000
0.000000 0.000000 0.000000
0.000000 0.000000 0.000000
0.000000 0.000000 0.000000
0.000000 0.000000 0.000000
0.000000 0.000000 0.000000
0.000000 0.000000 0.000000
0.000000 0.000000 0.000000
0.000000 0.000000 0.000000
0.000000 0.000000 0.000000
0.000000 0.000000 0.000000
0.000000 0.000000 0.000000
0.000000 0.000000 0.000000
0.000000 0.000000 0.000000
0.000000 0.000000 0.000000
0.000000 0.000000 0.000000
0.000000 0.000000 0.000000
0.000000 0.000000 0.000000
0.000000 0.000000 0.000000
0.000000 0.000000 0.000000
0.000000 0.000000 0.000000
0.000000 0.000000 0.000000
0.000000 0.000000 0.000000
0.000000 0.000000 0.000000
0.000000 0.000000 0.000000
0.000000 0.000000 0.000000
0.000000 0.000000 0.000000
0.000000 0.000000 0.000000
0.000000 0.000000 0.000000
0.000000 0.000000 0.000000
0.000000 0.000000 0.000000
0.000000 0.000000 0.000000
0.000000 0.000000 0.000000
0.000000 0.000000 0.000000
0.000000 0.000000 0.000000
0.000000 0.000000 0.000000
0.000000 0.000000 0.000000
0.000000 0.000000 0.000000
0.000000 0.000000 0.000000
0.000000 0.000000 0.000000
0.000000 0.000000 0.000000
0.000000 0.000000 0.000000
0.000000 0.000000 0.000000
0.000000 0.000000 0.000000
0.000000 0.000000 0.000000
0.000000 0.000000 0.000000
0.000000 0.000000 0.000000
0.000000 0.000000 0.000000
0.000000 0.000000 0.000000
0.000000 0.000000 0.000000
0.000000 0.000000 0.000000
0.000000 0.000000 0.000000
0.000000 0.000000 0.000000
0.000000 0.000000 0.000000
0.000000 0.000000 0.000000
0.000000 0.000000 0.000000
0.000000 0.000000 0.000000
0.000000 0.000000 0.000000
0.000000 0.000000 0.000000
0.000000 0.000000 0.000000
0.000000 0.000000 0.000000
0.000000 0.000000 0.000000
0.000000 0.000000 0.000000
0.000000 0.000000 0.000000
0.000000 0.000000 0.000000
0.000000 0.000000 0.000000
0.000000 0.000000 0.000000
0.000000 0.000000 0.000000
0.000000 0.000000 0.000000
0.000000 0.000000 0.000000
0.000000 0.000000 0.000000
0.000000 0.000000 0.000000
0.000000 0.000000 0.000000
0.000000 0.000000 0.000000
0.000000 0.000000 0.000000
0.000000 0.000000 0.000000
0.000000 0.000000 0.000000
0.000000 0.000000 0.000000
0.000000 0.000000 0.000000
0.000000 0.000000 0.000000
0.000000 0.000000 0.000000
0.000000 0.000000 0.000000
0.000000 0.000000 0.000000
0.000000 0.000000 0.000000
0.000000 0.000000 0.000000
0.000000 0.000000 0.000000
0.000000 0.000000 0.000000
0.000000 0.000000 0.000000
0.000000 0.000000 0.000000
0.000000 0.000000 0.000000
0.000000 0.000000 0.000000
0.000000 0.000000 0.000000
0.000000 0.000000 0.000000
0.000000 0.000000 0.000000
0.000000 0.000000 0.000000
0.000000 0.000000 0.000000
0.000000 0.000000 0.000000
0.000000 0.000000 0.000000
0.000000 0.000000 0.000000
0.000000 0.000000 0.000000
0.000000 0.000000 0.000000
0.000000 0.000000 0.000000
0.000000 0.000000 0.000000
0.000000 0.000000 0.000000
0.000000 0.000000 0.000000
0.000000 0.000000 0.000000
0.000000 0.000000 0.000000
0.000000 0.000000 0.000000
0.000000 0.000000 0.000000
0.000000 0.000000 0.000000
0.000000 0.000000 0.000000
0.000000 0.000000 0.000000
0.000000 0.000000 0.000000
0.000000 0.000000 0.000000
0.000000 0.000000 0.000000
0.000000 0.000000 0.000000
0.000000 0.000000 0.000000
0.000000 0.000000 0.000000
0.000000 0.000000 0.000000
0.000000 0.000000 0.000000
0.000000 0.000000 0.000000
0.000000 0.000000 0.000000
0.000000 0.000000 0.000000
0.000000 0.000000 0.000000
0.000000 0.000000 0.000000
0.000000 0.000000 0.000000
0.000000 0.000000 0.000000
0.000000 0.000000 0.000000
0.000000 0.000000 0.000000
0.000000 0.000000 0.000000
0.000000 0.000000 0.000000
0.000000 0.000000 0.000000
0.000000 0.000000 0.000000
0.000000 0.000000 0.000000
0.000000 0.000000 0.000000
0.000000 0.000000 0.000000
0.000000 0.000000 0.000000
0.000000 0.000000 0.000000
0.000000 0.000000 0.000000
0.000000 0.000000 0.000000
0.000000 0.000000 0.000000
0.000000 0.000000 0.000000
0.000000 0.000000 0.000000
0.000000 0.000000 0.000000
0.000000 0.000000 0.000000
0.000000 0.000000 0.000000
0.000000 0.000000 0.000000
0.000000 0.000000 0.000000
0.000000 0.000000 0.000000
0.000000 0.000000 0.000000
0.000000 0.000000 0.000000
0.000000 0.000000 0.000000
0.000000 0.000000 0.000000
0.000000 0.000000 0.000000
0.000000 0.000000 0.000000
0.000000 0.000000 0.000000
0.000000 0.000000 0.000000
0.000000 0.000000 0.000000
0.000000 0.000000 0.000000
0.000000 0.000000 0.000000
0.000000 0.000000 0.000000
0.000000 0.000000 0.000000
0.000000 0.000000 0.000000
0.000000 0.000000 0.000000
0.000000 0.000000 0.000000
0.000000 0.000000 0.000000
0.000000 0.000000 0.000000
0.000000 0.000000 0.000000
0.000000 0.000000 0.000000
0.000000 0.000000 0.000000
0.000000 0.000000 0.000000
0.000000 0.000000 0.000000
0.000000 0.000000 0.000000
0.000000 0.000000 0.000000
0.000000 0.000000 0.000000
0.000000 0.000000 0.000000
0.000000 0.000000 0.000000
0.000000 0.000000 0.000000
0.000000 0.000000 0.000000
0.000000 0.000000 0.000000
0.000000 0.000000 0.000000
0.000000 0.000000 0.000000
0.000000 0.000000 0.000000
0.000000 0.000000 0.000419
0.000000 0.000000 0.000892
0.000000 0.000000 0.001366
0.000000 0.000000 0.001839
0.000000 0.000000 0.002313
0.000000 0.000000 0.002786
0.000000 0.000000 0.003259
0.000000 0.000000 0.003733
0.000000 0.000000 0.004206
0.000000 0.000000 0.004680
0.000000 0.000000 0.005153
0.000000 0.000000 0.005626
0.000000 0.000000 0.006100
0.000000 0.000000 0.006573
0.000000 0.000000 0.007047
0.000000 0.000000 0.007520
0.000000 0.000000 0.007993
0.000000 0.000000 0.008467
0.000000 0.000000 0.008940
0.000000 0.000000 0.009414
0.000000 0.000000 0.009887
0.000000 0.000000 0.010360
0.000000 0.000000 0.010834
0.000000 0.000000 0.011307
0.000000 0.000000 0.011781
0.000000 0.000000 0.012254
0.000000 0.000000 0.012727
0.000000 0.000000 0.013201
0.000000 0.000052 0.013674
0.000000 0.000607 0.014148
0.000000 0.001161 0.014621
0.000000 0.001716 0.015094
0.000000 0.002271 0.015568
0.000000 0.002826 0.016041
0.000000 0.003381 0.016515
0.000000 0.003936 0.016988
0.000000 0.004490 0.017461
0.000000 0.005045 0.017935
0.000000 0.005600 0.018408
0.000000 0.006155 0.018882
0.000000 0.006710 0.019355
0.000355 0.007265 0.019828
0.000954 0.007819 0.020302
0.001554 0.008374 0.020775
0.002153 0.008929 0.021249
0.002753 0.009484 0.021722
0.003353 0.010039 0.022195
0.003952 0.010594 0.022669
0.004552 0.011148 0.023142
0.005152 0.011703 0.023616
0.005751 0.012258 0.024089
0.006351 0.012813 0.024562
0.006950 0.013368 0.025036
0.007550 0.013923 0.025509
0.008150 0.014477 0.025983
0.008749 0.015032 0.026456
0.009349 0.015587 0.026929
0.009949 0.016142 0.027403
0.010548 0.016697 0.027876
0.011148 0.017252 0.028350
0.011747 0.017807 0.028823
0.012347 0.018361 0.029296
0.012947 0.018916 0.029770
0.013546 0.019471 0.030243
0.014146 0.020026 0.030717
0.014746 0.020581 0.031190
0.015345 0.021136 0.031663
0.015945 0.021690 0.032137
0.016544 0.022245 0.032610
0.017144 0.022800 0.033084
0.017744 0.023355 0.033557
0.018343 0.023910 0.034030
0.018943 0.024465 0.034504
0.019543 0.025019 0.034977
0.020142 0.025574 0.035451
0.020742 0.026129 0.035924
0.021341 0.026684 0.036397
0.021941 0.027239 0.036871
0.022541 0.027794 0.037344
0.023140 0.028348 0.037818
0.023740 0.028903 0.038291
0.024340 0.029458 0.038764
0.024939 0.030013 0.039238
0.025539 0.030568 0.039711
0.026139 0.031123 0.040185
0.026738 0.031677 0.040658
0.027338 0.032232 0.041131
0.027937 0.032787 0.041605
0.028537 0.033342 0.042078
0.029137 0.033897 0.042552
0.029736 0.034452 0.043025
0.030336 0.035006 0.043498
0.030936 0.035561 0.043972
0.031535 0.036116 0.044445
0.032135 0.036671 0.044919
0.032734 0.037226 0.045392
0.033334 0.037781 0.045865
0.033934 0.038336 0.046339
0.034533 0.038890 0.046812
0.035133 0.039445 0.047286
0.035733 0.040000 0.047759
0.036332 0.040555 0.048232
0.036932 0.041110 0.048706
0.037531 0.041665 0.049179
0.038131 0.042219 0.049653
0.038731 0.042774 0.050126
0.039330 0.043329 0.050599
0.039930 0.043884 0.051073
0.040530 0.044439 0.051546
0.041129 0.044994 0.052020
0.041729 0.045548 0.052493
0.042328 0.046103 0.052967
0.042928 0.046658 0.053440
0.043528 0.047213 0.053913
0.044127 0.047768 0.054387
0.044727 0.048323 0.054860
0.045327 0.048877 0.055334
0.045926 0.049432 0.055807
0.046526 0.049987 0.056280
0.047125 0.050542 0.056754
0.047725 0.051097 0.057227
0.048325 0.051652 0.057701
0.048924 0.052206 0.058174
0.049524 0.052761 0.058647
0.050124 0.053316 0.059121
0.050723 0.053871 0.059594
0.051323 0.054426 0.060068
0.051922 0.054981 0.060541
0.052522 0.055535 0.061014
0.053122 0.056090 0.061488
0.053721 0.056645 0.061961
0.054321 0.057200 0.062435
0.054921 0.057755 0.062908
0.055520 0.058310 0.063381
0.056120 0.058864 0.063855
0.056719 0.059419 0.064328
0.057319 0.059974 0.064802
0.057919 0.060529 0.065275
0.058518 0.061084 0.065748
0.059118 0.061639 0.066222
0.059718 0.062194 0.066695
0.060317 0.062748 0.067169
0.060917 0.063303 0.067642
0.061516 0.063858 0.068115
0.062116 0.064413 0.068589
0.062716 0.064968 0.069062
0.063315 0.065523 0.069536
0.063915 0.066077 0.070009
0.064515 0.066632 0.070482
0.065114 0.067187 0.070956
0.065714 0.067742 0.071429
0.066313 0.068297 0.071903
0.066913 0.068852 0.072376
0.067513 0.069406 0.072849
0.068112 0.069961 0.073323
0.068712 0.070516 0.073796
0.069312 0.071071 0.074270
0.069911 0.071626 0.074743
0.070511 0.072181 0.075216
0.071111 0.072735 0.075690
0.071710 0.073290 0.076163
0.072310 0.073845 0.076637
0.072909 0.074400 0.077110
0.073509 0.074955 0.077583
0.074109 0.075510 0.078057
0.074708 0.076064 0.078530
0.075308 0.076619 0.079004
0.075908 0.077174 0.079477
0.076507 0.077729 0.079950
0.077107 0.078284 0.080424
0.077706 0.078839 0.080897
0.078306 0.079393 0.081371
0.078906 0.079948 0.081844
0.079505 0.080503 0.082317
0.080105 0.081058 0.082791
0.080705 0.081613 0.083264
0.081304 0.082168 0.083738
0.081904 0.082722 0.084211
0.082503 0.083277 0.084684
0.083103 0.083832 0.085158
0.083703 0.084387 0.085631
0.084302 0.084942 0.086105
0.084902 0.085497 0.086578
0.085502 0.086052 0.087051
0.086101 0.086606 0.087525
0.086701 0.087161 0.087998
0.087300 0.087716 0.088472
0.087900 0.088271 0.088945
0.088500 0.088826 0.089418
0.089099 0.089381 0.089892
0.089699 0.089935 0.090365
0.090299 0.090490 0.090839
0.090898 0.091045 0.091312
0.091498 0.091600 0.091785
0.092097 0.092155 0.092259
0.092697 0.092710 0.092732
0.093297 0.093264 0.093206
0.093896 0.093819 0.093679
0.094496 0.094374 0.094152
0.095096 0.094929 0.094626
0.095695 0.095484 0.095099
0.096295 0.096039 0.095573
0.096894 0.096593 0.096046
0.097494 0.097148 0.096519
0.098094 0.097703 0.096993
0.098693 0.098258 0.097466
0.099293 0.098813 0.097940
0.099893 0.099368 0.098413
0.100492 0.099922 0.098886
0.101092 0.100477 0.099360
0.101691 0.101032 0.099833
0.102291 0.101587 0.100307
0.102891 0.102142 0.100780
0.103490 0.102697 0.101253
0.104090 0.103251 0.101727
0.104690 0.103806 0.102200
0.105289 0.104361 0.102674
0.105889 0.104916 0.103147
0.106488 0.105471 0.103620
0.107088 0.106026 0.104094
0.107688 0.106580 0.104567
0.108287 0.107135 0.105041
0.108887 0.107690 0.105514
0.109487 0.108245 0.105987
0.110086 0.108800 0.106461
0.110686 0.109355 0.106934
0.111286 0.109910 0.107408
0.111885 0.110464 0.107881
0.112485 0.111019 0.108354
0.113084 0.111574 0.108828
0.113684 0.112129 0.109301
0.114284 0.112684 0.109775
0.114883 0.113239 0.110248
0.115483 0.113793 0.110722
0.116083 0.114348 0.111195
0.116682 0.114903 0.111668
0.117282 0.115458 0.112142
0.117881 0.116013 0.112615
0.118481 0.116568 0.113089
0.119081 0.117122 0.113562
0.119680 0.117677 0.114035
0.120280 0.118232 0.114509
0.120880 0.118787 0.114982
0.121479 0.119342 0.115456
0.122079 0.119897 0.115929
0.122678 0.120451 0.116402
0.123278 0.121006 0.116876
0.123878 0.121561 0.117349
0.124477 0.122116 0.117823
0.125077 0.122671 0.118296
0.125677 0.123226 0.118769
0.126276 0.123780 0.119243
0.126876 0.124335 0.119716
0.127475 0.124890 0.120190
0.128075 0.125445 0.120663
0.128675 0.126000 0.121136
0.129274 0.126555 0.121610
0.129874 0.127109 0.122083
0.130474 0.127664 0.122557
0.131073 0.128219 0.123030
0.131673 0.128774 0.123503
0.132272 0.129329 0.123977
0.132872 0.129884 0.124450
0.133472 0.130438 0.124924
0.134071 0.130993 0.125397
0.134671 0.131548 0.125870
0.135271 0.132103 0.126344
0.135870 0.132658 0.126817
0.136470 0.133213 0.127291
0.137069 0.133768 0.127764
0.137669 0.134322 0.128237
0.138269 0.134877 0.128711
0.138868 0.135432 0.129184
0.139468 0.135987 0.129658
0.140068 0.136542 0.130131
0.140667 0.137097 0.130604
0.141267 0.137651 0.131078
0.141866 0.138206 0.131551
0.142466 0.138761 0.132025
0.143066 0.139316 0.132498
0.143665 0.139871 0.132971
0.144265 0.140426 0.133445
0.144865 0.140980 0.133918
0.145464 0.141535 0.134392
0.146064 0.142090 0.134865
0.146663 0.142645 0.135338
0.147263 0.143200 0.135812
0.147863 0.143755 0.136285
0.148462 0.144309 0.136759
0.149062 0.144864 0.137232
0.149662 0.145419 0.137705
0.150261 0.145974 0.138179
0.150861 0.146529 0.138652
0.151460 0.147084 0.139126
0.152060 0.147638 0.139599
0.152660 0.148193 0.140072
0.153259 0.148748 0.140546
0.153859 0.149303 0.141019
0.154459 0.149858 0.141493
0.155058 0.150413 0.141966
0.155658 0.150967 0.142439
0.156258 0.151522 0.142913
0.156857 0.152077 0.143386
0.157457 0.152632 0.143860
0.158056 0.153187 0.144333
0.158656 0.153742 0.144806
0.159256 0.154296 0.145280
0.159855 0.154851 0.145753
0.160455 0.155406 0.146227
0.161055 0.155961 0.146700
0.161654 0.156516 0.147173
0.162254 0.157071 0.147647
0.162853 0.157626 0.148120
0.163453 0.158180 0.148594
0.164053 0.158735 0.149067
0.164652 0.159290 0.149540
0.165252 0.159845 0.150014
0.165852 0.160400 0.150487
0.166451 0.160955 0.150961
0.167051 0.161509 0.151434
0.167589 0.162064 0.151907
0.168060 0.162619 0.152381
0.168529 0.163174 0.152854
0.168996 0.163729 0.153328
0.169462 0.164284 0.153801
0.169925 0.164838 0.154274
0.170386 0.165393 0.154748
0.170845 0.165948 0.155221
0.171303 0.166503 0.155695
0.171759 0.167058 0.156168
0.172212 0.167559 0.156641
0.172664 0.167995 0.157115
0.173114 0.168430 0.157588
0.173563 0.168862 0.158062
0.174009 0.169293 0.158535
0.174454 0.169723 0.159008
0.174897 0.170150 0.159482
0.175338 0.170577 0.159955
0.175777 0.171001 0.160429
0.176215 0.171424 0.160902
0.176651 0.171845 0.161375
0.177085 0.172265 0.161849
0.177518 0.172683 0.162322
0.177948 0.173099 0.162796
0.178378 0.173514 0.163269
0.178805 0.173927 0.163742
0.179231 0.174339 0.164216
0.179655 0.174749 0.164689
0.180078 0.175158 0.165163
0.180499 0.175565 0.165636
0.180919 0.175971 0.166109
0.181336 0.176376 0.166583
0.181753 0.176778 0.167056
0.182168 0.177180 0.167494
0.182581 0.177580 0.167866
0.182992 0.177978 0.168238
0.183403 0.178375 0.168607
0.183811 0.178771 0.168976
0.184218 0.179165 0.169344
0.184624 0.179558 0.169710
0.185028 0.179950 0.170075
0.185431 0.180340 0.170439
0.185832 0.180729 0.170802
0.186232 0.181116 0.171163
0.186631 0.181502 0.171523
0.187027 0.181887 0.171882
0.187423 0.182270 0.172240
0.187817 0.182652 0.172597
0.188210 0.183033 0.172953
0.188601 0.183412 0.173308
0.188991 0.183790 0.173661
0.189380 0.184167 0.174013
0.189767 0.184543 0.174365
0.190153 0.184917 0.174715
0.190538 0.185290 0.175064
0.190921 0.185662 0.175412
0.191303 0.186033 0.175758
0.191684 0.186402 0.176104
0.192063 0.186770 0.176449
0.192441 0.187137 0.176792
0.192818 0.187503 0.177135
0.193193 0.187867 0.177476
0.193567 0.188231 0.177817
0.193940 0.188593 0.178156
0.194312 0.188954 0.178494
0.194683 0.189313 0.178832
0.195052 0.189672 0.179168
0.195420 0.190030 0.179503
0.195787 0.190386 0.179838
0.196152 0.190741 0.180171
0.196517 0.191095 0.180503
0.196880 0.191448 0.180835
0.197242 0.191800 0.181165
0.197603 0.192150 0.181494
0.197962 0.192500 0.181823
0.198321 0.192848 0.182150
0.198678 0.193196 0.182476
0.199034 0.193542 0.182802
0.199390 0.193887 0.183126
0.199743 0.194232 0.183450
0.200096 0.194575 0.183772
0.200448 0.194917 0.184094
0.200799 0.195258 0.184415
0.201148 0.195598 0.184735
0.201496 0.195936 0.185054
0.201844 0.196274 0.185372
0.202190 0.196611 0.185689
0.202535 0.196947 0.186005
0.202879 0.197282 0.186320
0.203222 0.197616 0.186635
0.203564 0.197948 0.186948
0.203905 0.198280 0.187261
0.204245 0.198611 0.187573
0.204584 0.198941 0.187883
0.204921 0.199270 0.188193
0.205258 0.199598 0.188503
0.205594 0.199925 0.188811
0.205929 0.200251 0.189118
0.206262 0.200576 0.189425
0.206595 0.200900 0.189731
0.206927 0.201223 0.190035
0.207258 0.201545 0.190340
0.207587 0.201866 0.190643
0.207916 0.202187 0.190945
0.208244 0.202506 0.191247
0.208571 0.202824 0.191548
0.208897 0.203142 0.191848
0.209222 0.203459 0.192147
0.209546 0.203774 0.192445
0.209869 0.204089 0.192743
0.210191 0.204403 0.193039
0.210512 0.204716 0.193335
0.210832 0.205029 0.193630
0.211151 0.205340 0.193925
0.211470 0.205650 0.194218
0.211787 0.205960 0.194511
0.212104 0.206269 0.194803
0.212420 0.206577 0.195095
0.212734 0.206884 0.195385
0.213048 0.207190 0.195675
0.213361 0.207495 0.195964
0.213673 0.207800 0.196252
0.213985 0.208103 0.196540
0.214295 0.208406 0.196827
0.214605 0.208708 0.197113
0.214913 0.209009 0.197398
0.215221 0.209310 0.197683
0.215528 0.209609 0.197966
0.215834 0.209908 0.198249
0.216140 0.210206 0.198532
0.216444 0.210503 0.198814
0.216748 0.210800 0.199095
0.217050 0.211095 0.199375
0.217352 0.211390 0.199654
0.217653 0.211684 0.199933
0.217954 0.211977 0.200211
0.218253 0.212270 0.200489
0.218552 0.212562 0.200766
0.218850 0.212853 0.201042
0.219147 0.213143 0.201317
0.219443 0.213432 0.201592
0.219739 0.213721 0.201866
0.220034 0.214009 0.202139
0.220327 0.214296 0.202412
0.220621 0.214582 0.202684
0.220913 0.214868 0.202955
0.221205 0.215153 0.203226
0.221496 0.215437 0.203496
0.221786 0.215721 0.203765
0.222075 0.216004 0.204034
0.222364 0.216286 0.204302
0.222652 0.216567 0.204570
0.222939 0.216848 0.204837
0.223225 0.217128 0.205103
0.223511 0.217407 0.205368
0.223796 0.217685 0.205633
0.224080 0.217963 0.205897
0.224363 0.218240 0.206161
0.224646 0.218517 0.206424
0.224928 0.218793 0.206686
0.225209 0.219068 0.206948
0.225490 0.219342 0.207209
0.225770 0.219616 0.207470
0.226049 0.219889 0.207730
0.226327 0.220161 0.207989
0.226605 0.220433 0.208248
0.226882 0.220704 0.208506
0.227159 0.220974 0.208763
0.227434 0.221244 0.209020
0.227709 0.221513 0.209277
0.227984 0.221782 0.209532
0.228257 0.222049 0.209788
0.228530 0.222316 0.210042
0.228803 0.222583 0.210296
0.229074 0.222849 0.210549
0.229345 0.223114 0.210802
0.229616 0.223379 0.211055
0.229885 0.223643 0.211306
0.230154 0.223906 0.211557
0.230423 0.224169 0.211808
0.230690 0.224431 0.212058
0.231005 0.224738 0.212351
0.231343 0.225070 0.212667
0.231681 0.225400 0.212983
0.232019 0.225731 0.213299
0.232356 0.226062 0.213614
0.232693 0.226392 0.213929
0.233030 0.226722 0.214244
0.233367 0.227052 0.214559
0.233703 0.227381 0.214874
0.234039 0.227710 0.215188
0.234375 0.228039 0.215502
0.234711 0.228368 0.215816
0.235046 0.228696 0.216130
0.235381 0.229025 0.216444
0.235716 0.229353 0.216757
0.236050 0.229680 0.217070
0.236384 0.230008 0.217383
0.236718 0.230335 0.217696
0.237052 0.230662 0.218009
0.237385 0.230989 0.218321
0.237718 0.231315 0.218634
0.238051 0.231641 0.218946
0.238383 0.231967 0.219258
0.238716 0.232293 0.219569
0.239048 0.232619 0.219881
0.239380 0.232944 0.220192
0.239711 0.233269 0.220503
0.240042 0.233594 0.220814
0.240373 0.233918 0.221125
0.240704 0.234243 0.221435
0.241034 0.234567 0.221746
0.241365 0.234891 0.222056
0.241695 0.235214 0.222366
0.242024 0.235538 0.222676
0.242354 0.235861 0.222985
0.242683 0.236184 0.223295
0.243012 0.236507 0.223604
0.243341 0.236829 0.223913
0.243669 0.237151 0.224222
0.243997 0.237474 0.224531
0.244325 0.237795 0.224839
0.244653 0.238117 0.225148
0.244980 0.238438 0.225456
0.245307 0.238759 0.225764
0.245634 0.239080 0.226072
0.245961 0.239401 0.226380
0.246288 0.239722 0.226687
0.246614 0.240042 0.226994
0.246940 0.240362 0.227302
0.247266 0.240682 0.227609
0.247591 0.241001 0.227915
0.247916 0.241321 0.228222
0.248241 0.241640 0.228528
0.248566 0.241959 0.228835
0.248891 0.242278 0.229141
0.249215 0.242596 0.229447
0.249539 0.242914 0.229753
0.249863 0.243233 0.230058
0.250187 0.243550 0.230364
0.250510 0.243868 0.230669
0.250833 0.244186 0.230974
0.251156 0.244503 0.231279
0.251479 0.244820 0.231584
0.251801 0.245137 0.231888
0.252124 0.245453 0.232193
0.252446 0.245770 0.232497
0.252768 0.246086 0.232801
0.253089 0.246402 0.233105
0.253410 0.246718 0.233409
0.253732 0.247034 0.233712
0.254053 0.247349 0.234016
0.254373 0.247664 0.234319
0.254694 0.247979 0.234622
0.255014 0.248294 0.234925
0.255334 0.248609 0.235228
0.255654 0.248923 0.235531
0.255973 0.249237 0.235833
0.256293 0.249551 0.236135
0.256612 0.249865 0.236438
0.256931 0.250179 0.236740
0.257250 0.250492 0.237042
0.257568 0.250805 0.237343
0.257886 0.251119 0.237645
0.258205 0.251431 0.237946
0.258522 0.251744 0.238247
0.258840 0.252056 0.238548
0.259158 0.252369 0.238849
0.259475 0.252681 0.239150
0.259792 0.252993 0.239451
0.260109 0.253304 0.239751
0.260425 0.253616 0.240052
0.260742 0.253927 0.240352
0.261058 0.254238 0.240652
0.261374 0.254549 0.240952
0.261690 0.254860 0.241251
0.262005 0.255171 0.241551
0.262321 0.255481 0.241850
0.262636 0.255791 0.242150
0.262951 0.256101 0.242449
0.263266 0.256411 0.242748
0.263580 0.256721 0.243046
0.263895 0.257030 0.243345
0.264209 0.257340 0.243644
0.264523 0.257649 0.243942
0.264837 0.257958 0.244240
0.265151 0.258266 0.244538
0.265464 0.258575 0.244836
0.265777 0.258883 0.245134
0.266090 0.259191 0.245432
0.266403 0.259499 0.245729
0.266716 0.259807 0.246027
0.267028 0.260115 0.246324
0.267340 0.260423 0.246621
0.267652 0.260730 0.246918
0.267964 0.261037 0.247215
0.268276 0.261344 0.247511
0.268588 0.261651 0.247808
0.268899 0.261957 0.248104
0.269210 0.262264 0.248401
0.269521 0.262570 0.248697
0.269832 0.262876 0.248993
0.270142 0.263182 0.249289
0.270453 0.263488 0.249584
0.270763 0.263794 0.249880
0.271073 0.264099 0.250175
0.271383 0.264404 0.250470
0.271692 0.264709 0.250766
0.272002 0.265014 0.251061
0.272311 0.265319 0.251356
0.272620 0.265624 0.251650
0.272929 0.265928 0.251945
0.273238 0.266233 0.252239
0.273546 0.266537 0.252534
0.273855 0.266841 0.252828
0.274163 0.267144 0.253122
0.274471 0.267448 0.253416
0.274779 0.267751 0.253710
0.275086 0.268055 0.254003
0.275394 0.268358 0.254297
0.275701 0.268661 0.254590
0.276008 0.268964 0.254884
0.276315 0.269266 0.255177
0.276622 0.269569 0.255470
0.276929 0.269871 0.255763
0.277235 0.270173 0.256056
0.277541 0.270475 0.256348
0.277848 0.270777 0.256641
0.278154 0.271079 0.256933
0.278459 0.271380 0.257225
0.278765 0.271682 0.257518
0.279070 0.271983 0.257810
0.279376 0.272284 0.258102
0.279681 0.272585 0.258393
0.279986 0.272886 0.258685
0.280290 0.273187 0.258976
0.280595 0.273487 0.259268
0.280899 0.273787 0.259559
0.281204 0.274088 0.259850
0.281508 0.274388 0.260141
0.281812 0.274687 0.260432
0.282115 0.274987 0.260723
0.282419 0.275287 0.261014
0.282723 0.275586 0.261304
0.283026 0.275885 0.261595
0.283329 0.276185 0.261885
0.283632 0.276484 0.262175
0.283935 0.276782 0.262465
0.284237 0.277081 0.262755
0.284540 0.277380 0.263045
0.284842 0.277678 0.263335
0.285144 0.277976 0.263624
0.285446 0.278274 0.263914
0.285748 0.278572 0.264203
0.286050 0.278870 0.264492
0.286351 0.279168 0.264781
0.286653 0.279465 0.265070
0.286954 0.279763 0.265359
0.287255 0.280060 0.265648
0.287556 0.280357 0.265937
0.287857 0.280654 0.266225
0.288157 0.280951 0.266513
0.288458 0.281247 0.266802
0.288758 0.281544 0.267090
0.289058 0.281840 0.267378
0.289358 0.282137 0.267666
0.289658 0.282433 0.267954
0.289958 0.282729 0.268242
0.290258 0.283025 0.268529
0.290557 0.283320 0.268817
0.290856 0.283616 0.269104
0.291155 0.283911 0.269391
0.291454 0.284207 0.269678
0.291753 0.284502 0.269966
0.292052 0.284797 0.270252
0.292350 0.285092 0.270539
0.292649 0.285386 0.270826
0.292947 0.285681 0.271113
0.293245 0.285975 0.271399
0.293543 0.286270 0.271686
