tools/resolve/luts/NIRO Grading/Taxodia 09.26/C0249_e+2.85_r+0.07_b-0.22.cube
TITLE "NIRO BALANCE C0249 e +2.85 R +0.07 B -0.22 (lineare Verstaerkung S-Log3)"
LUT_1D_SIZE 4096
0.000000 0.000000 0.000000
0.000000 0.000000 0.000000
0.000000 0.000000 0.000000
0.000000 0.000000 0.000000
0.000000 0.000000 0.000000
0.000000 0.000000 0.000000
0.000000 0.000000 0.000000
0.000000 0.000000 0.000000
0.000000 0.000000 0.000000
0.000000 0.000000 0.000000
0.000000 0.000000 0.000000
0.000000 0.000000 0.000000
0.000000 0.000000 0.000000
0.000000 0.000000 0.000000
0.000000 0.000000 0.000000
0.000000 0.000000 0.000000
0.000000 0.000000 0.000000
0.000000 0.000000 0.000000
0.000000 0.000000 0.000000
0.000000 0.000000 0.000000
0.000000 0.000000 0.000000
0.000000 0.000000 0.000000
0.000000 0.000000 0.000000
0.000000 0.000000 0.000000
0.000000 0.000000 0.000000
0.000000 0.000000 0.000000
0.000000 0.000000 0.000000
0.000000 0.000000 0.000000
0.000000 0.000000 0.000000
0.000000 0.000000 0.000000
0.000000 0.000000 0.000000
0.000000 0.000000 0.000000
0.000000 0.000000 0.000000
0.000000 0.000000 0.000000
0.000000 0.000000 0.000000
0.000000 0.000000 0.000000
0.000000 0.000000 0.000000
0.000000 0.000000 0.000000
0.000000 0.000000 0.000000
0.000000 0.000000 0.000000
0.000000 0.000000 0.000000
0.000000 0.000000 0.000000
0.000000 0.000000 0.000000
0.000000 0.000000 0.000000
0.000000 0.000000 0.000000
0.000000 0.000000 0.000000
0.000000 0.000000 0.000000
0.000000 0.000000 0.000000
0.000000 0.000000 0.000000
0.000000 0.000000 0.000000
0.000000 0.000000 0.000000
0.000000 0.000000 0.000000
0.000000 0.000000 0.000000
0.000000 0.000000 0.000000
0.000000 0.000000 0.000000
0.000000 0.000000 0.000000
0.000000 0.000000 0.000000
0.000000 0.000000 0.000000
0.000000 0.000000 0.000000
0.000000 0.000000 0.000000
0.000000 0.000000 0.000000
0.000000 0.000000 0.000000
0.000000 0.000000 0.000000
0.000000 0.000000 0.000000
0.000000 0.000000 0.000000
0.000000 0.000000 0.000000
0.000000 0.000000 0.000000
0.000000 0.000000 0.000000
0.000000 0.000000 0.000000
0.000000 0.000000 0.000000
0.000000 0.000000 0.000000
0.000000 0.000000 0.000000
0.000000 0.000000 0.000000
0.000000 0.000000 0.000000
0.000000 0.000000 0.000000
0.000000 0.000000 0.000000
0.000000 0.000000 0.000000
0.000000 0.000000 0.000000
0.000000 0.000000 0.000000
0.000000 0.000000 0.000000
0.000000 0.000000 0.000000
0.000000 0.000000 0.000000
0.000000 0.000000 0.000000
0.000000 0.000000 0.000000
0.000000 0.000000 0.000000
0.000000 0.000000 0.000000
0.000000 0.000000 0.000000
0.000000 0.000000 0.000000
0.000000 0.000000 0.000000
0.000000 0.000000 0.000000
0.000000 0.000000 0.000000
0.000000 0.000000 0.000000
0.000000 0.000000 0.000000
0.000000 0.000000 0.000000
0.000000 0.000000 0.000000
0.000000 0.000000 0.000000
0.000000 0.000000 0.000000
0.000000 0.000000 0.000000
0.000000 0.000000 0.000000
0.000000 0.000000 0.000000
0.000000 0.000000 0.000000
0.000000 0.000000 0.000000
0.000000 0.000000 0.000000
0.000000 0.000000 0.000000
0.000000 0.000000 0.000000
0.000000 0.000000 0.000000
0.000000 0.000000 0.000000
0.000000 0.000000 0.000000
0.000000 0.000000 0.000000
0.000000 0.000000 0.000000
0.000000 0.000000 0.000000
0.000000 0.000000 0.000000
0.000000 0.000000 0.000000
0.000000 0.000000 0.000000
0.000000 0.000000 0.000000
0.000000 0.000000 0.000000
0.000000 0.000000 0.000000
0.000000 0.000000 0.000000
0.000000 0.000000 0.000000
0.000000 0.000000 0.000000
0.000000 0.000000 0.000000
0.000000 0.000000 0.000000
0.000000 0.000000 0.000000
0.000000 0.000000 0.000000
0.000000 0.000000 0.000000
0.000000 0.000000 0.000000
0.000000 0.000000 0.000000
0.000000 0.000000 0.000000
0.000000 0.000000 0.000000
0.000000 0.000000 0.000000
0.000000 0.000000 0.000000
0.000000 0.000000 0.000000
0.000000 0.000000 0.000000
0.000000 0.000000 0.000000
0.000000 0.000000 0.000000
0.000000 0.000000 0.000000
0.000000 0.000000 0.000000
0.000000 0.000000 0.000000
0.000000 0.000000 0.000000
0.000000 0.000000 0.000000
0.000000 0.000000 0.000000
0.000000 0.000000 0.000000
0.000000 0.000000 0.000000
0.000000 0.000000 0.000000
0.000000 0.000000 0.000000
0.000000 0.000000 0.000000
0.000000 0.000000 0.000000
0.000000 0.000000 0.000000
0.000000 0.000000 0.000000
0.000000 0.000000 0.000000
0.000000 0.000000 0.000000
0.000000 0.000000 0.000000
0.000000 0.000000 0.000000
0.000000 0.000000 0.000000
0.000000 0.000000 0.000000
0.000000 0.000000 0.000000
0.000000 0.000000 0.000000
0.000000 0.000000 0.000000
0.000000 0.000000 0.000000
0.000000 0.000000 0.000000
0.000000 0.000000 0.000000
0.000000 0.000000 0.000000
0.000000 0.000000 0.000000
0.000000 0.000000 0.000000
0.000000 0.000000 0.000000
0.000000 0.000000 0.000000
0.000000 0.000000 0.000000
0.000000 0.000000 0.000000
0.000000 0.000000 0.000000
0.000000 0.000000 0.000000
0.000000 0.000000 0.000000
0.000000 0.000000 0.000000
0.000000 0.000000 0.000000
0.000000 0.000000 0.000000
0.000000 0.000000 0.000000
0.000000 0.000000 0.000000
0.000000 0.000000 0.000000
0.000000 0.000000 0.000000
0.000000 0.000000 0.000000
0.000000 0.000000 0.000000
0.000000 0.000000 0.000000
0.000000 0.000000 0.000000
0.000000 0.000000 0.000000
0.000000 0.000000 0.000000
0.000000 0.000000 0.000000
0.000000 0.000000 0.000000
0.000000 0.000000 0.000000
0.000000 0.000000 0.000000
0.000000 0.000000 0.000000
0.000000 0.000000 0.000000
0.000000 0.000000 0.000000
0.000000 0.000000 0.000000
0.000000 0.000000 0.000000
0.000000 0.000000 0.000000
0.000000 0.000000 0.000000
0.000000 0.000000 0.000000
0.000000 0.000000 0.000000
0.000000 0.000000 0.000000
0.000000 0.000000 0.000000
0.000000 0.000000 0.000000
0.000000 0.000000 0.000000
0.000000 0.000000 0.000000
0.000000 0.000000 0.000000
0.000000 0.000000 0.000000
0.000000 0.000000 0.000000
0.000000 0.000000 0.000000
0.000000 0.000000 0.000000
0.000000 0.000000 0.000000
0.000000 0.000000 0.000000
0.000000 0.000000 0.000000
0.000000 0.000000 0.000000
0.000000 0.000000 0.000000
0.000000 0.000000 0.000000
0.000000 0.000000 0.000000
0.000000 0.000000 0.000000
0.000000 0.000000 0.000000
0.000000 0.000000 0.000000
0.000000 0.000000 0.000000
0.000000 0.000000 0.000000
0.000000 0.000000 0.000000
0.000000 0.000000 0.000000
0.000000 0.000000 0.000000
0.000000 0.000000 0.000000
0.000000 0.000000 0.000000
0.000000 0.000000 0.000000
0.000000 0.000000 0.000000
0.000000 0.000000 0.000000
0.000000 0.000000 0.000000
0.000000 0.000000 0.000000
0.000000 0.000000 0.000000
0.000000 0.000000 0.000000
0.000000 0.000000 0.000000
0.000000 0.000000 0.000000
0.000000 0.000000 0.000000
0.000000 0.000000 0.000000
0.000000 0.000000 0.000000
0.000000 0.000000 0.000000
0.000000 0.000000 0.000000
0.000000 0.000000 0.000000
0.000000 0.000000 0.000000
0.000000 0.000000 0.000000
0.000000 0.000000 0.000000
0.000000 0.000000 0.000000
0.000000 0.000000 0.000000
0.000000 0.000000 0.000000
0.000000 0.000000 0.000000
0.000000 0.000000 0.000000
0.000000 0.000000 0.000000
0.000000 0.000000 0.000000
0.000000 0.000000 0.000000
0.000000 0.000000 0.000000
0.000000 0.000000 0.000000
0.000000 0.000000 0.000000
0.000000 0.000000 0.000000
0.000000 0.000000 0.000000
0.000000 0.000000 0.000000
0.000000 0.000000 0.000000
0.000000 0.000000 0.000000
0.000000 0.000000 0.000000
0.000000 0.000000 0.000000
0.000000 0.000000 0.000000
0.000000 0.000000 0.000000
0.000000 0.000000 0.000000
0.000000 0.000000 0.000000
0.000000 0.000000 0.000000
0.000000 0.000000 0.000000
0.000000 0.000000 0.000000
0.000000 0.000000 0.000000
0.000000 0.000000 0.000000
0.000000 0.000000 0.000000
0.000000 0.000000 0.000000
0.000000 0.000000 0.000000
0.000000 0.000000 0.000000
0.000000 0.000000 0.000000
0.000000 0.000000 0.000000
0.000000 0.000000 0.000000
0.000000 0.000000 0.000000
0.000000 0.000000 0.000000
0.000000 0.000000 0.000000
0.000000 0.000000 0.000000
0.000000 0.000000 0.000000
0.000000 0.000000 0.000000
0.000000 0.000000 0.000000
0.000000 0.000000 0.000000
0.000000 0.000000 0.000000
0.000000 0.000000 0.000000
0.000000 0.000000 0.000000
0.000000 0.000000 0.000000
0.000000 0.000000 0.000000
0.000000 0.000000 0.000000
0.000000 0.000000 0.000000
0.000000 0.000000 0.000000
0.000000 0.000000 0.000000
0.000000 0.000000 0.000000
0.000000 0.000000 0.000000
0.000000 0.000000 0.000000
0.000000 0.000000 0.000000
0.000000 0.000000 0.000000
0.000000 0.000000 0.000000
0.000000 0.000000 0.000000
0.000000 0.000000 0.000000
0.000000 0.000000 0.000000
0.000000 0.000000 0.000000
0.000000 0.000000 0.000000
0.000000 0.000000 0.000000
0.000000 0.000000 0.000000
0.000000 0.000000 0.000000
0.000000 0.000000 0.000000
0.000000 0.000000 0.000000
0.000000 0.000000 0.000000
0.000000 0.000000 0.000000
0.000000 0.000000 0.000000
0.000000 0.000000 0.000000
0.000000 0.000000 0.000000
0.000000 0.000000 0.000000
0.000000 0.000000 0.000000
0.000000 0.000000 0.000000
0.000000 0.000000 0.000000
0.000000 0.000000 0.000000
0.000000 0.000000 0.000167
0.000000 0.000000 0.001680
0.000000 0.000000 0.003193
0.000000 0.000000 0.004705
0.000000 0.000000 0.006218
0.000000 0.000000 0.007731
0.000000 0.000000 0.009244
0.000000 0.000000 0.010756
0.000000 0.000000 0.012269
0.000000 0.000498 0.013782
0.000000 0.002265 0.015294
0.000000 0.004032 0.016807
0.001280 0.005799 0.018320
0.003138 0.007566 0.019833
0.004997 0.009332 0.021345
0.006855 0.011099 0.022858
0.008714 0.012866 0.024371
0.010572 0.014633 0.025883
0.012431 0.016400 0.027396
0.014289 0.018166 0.028909
0.016148 0.019933 0.030422
0.018006 0.021700 0.031934
0.019865 0.023467 0.033447
0.021723 0.025234 0.034960
0.023582 0.027000 0.036472
0.025440 0.028767 0.037985
0.027299 0.030534 0.039498
0.029157 0.032301 0.041011
0.031016 0.034068 0.042523
0.032874 0.035834 0.044036
0.034733 0.037601 0.045549
0.036591 0.039368 0.047061
0.038450 0.041135 0.048574
0.040308 0.042902 0.050087
0.042167 0.044668 0.051599
0.044025 0.046435 0.053112
0.045884 0.048202 0.054625
0.047742 0.049969 0.056138
0.049601 0.051736 0.057650
0.051459 0.053502 0.059163
0.053318 0.055269 0.060676
0.055176 0.057036 0.062188
0.057035 0.058803 0.063701
0.058893 0.060570 0.065214
0.060752 0.062336 0.066727
0.062610 0.064103 0.068239
0.064469 0.065870 0.069752
0.066327 0.067637 0.071265
0.068186 0.069404 0.072777
0.070044 0.071170 0.074290
0.071903 0.072937 0.075803
0.073761 0.074704 0.077316
0.075620 0.076471 0.078828
0.077478 0.078238 0.080341
0.079337 0.080004 0.081854
0.081195 0.081771 0.083366
0.083054 0.083538 0.084879
0.084912 0.085305 0.086392
0.086771 0.087072 0.087905
0.088629 0.088838 0.089417
0.090488 0.090605 0.090930
0.092346 0.092372 0.092443
0.094205 0.094139 0.093955
0.096063 0.095906 0.095468
0.097922 0.097672 0.096981
0.099780 0.099439 0.098494
0.101639 0.101206 0.100006
0.103497 0.102973 0.101519
0.105356 0.104739 0.103032
0.107214 0.106506 0.104544
0.109073 0.108273 0.106057
0.110931 0.110040 0.107570
0.112790 0.111807 0.109083
0.114648 0.113573 0.110595
0.116507 0.115340 0.112108
0.118365 0.117107 0.113621
0.120224 0.118874 0.115133
0.122082 0.120641 0.116646
0.123941 0.122407 0.118159
0.125799 0.124174 0.119671
0.127658 0.125941 0.121184
0.129516 0.127708 0.122697
0.131375 0.129475 0.124210
0.133233 0.131241 0.125722
0.135092 0.133008 0.127235
0.136950 0.134775 0.128748
0.138809 0.136542 0.130260
0.140667 0.138309 0.131773
0.142526 0.140075 0.133286
0.144384 0.141842 0.134799
0.146243 0.143609 0.136311
0.148101 0.145376 0.137824
0.149960 0.147143 0.139337
0.151818 0.148909 0.140849
0.153677 0.150676 0.142362
0.155535 0.152443 0.143875
0.157394 0.154210 0.145388
0.159252 0.155977 0.146900
0.161111 0.157743 0.148413
0.162969 0.159510 0.149926
0.164828 0.161277 0.151438
0.166686 0.163044 0.152951
0.168291 0.164811 0.154464
0.169736 0.166577 0.155977
0.171162 0.168134 0.157489
0.172569 0.169510 0.159002
0.173960 0.170868 0.160515
0.175333 0.172211 0.162027
0.176689 0.173537 0.163540
0.178029 0.174848 0.165053
0.179353 0.176143 0.166566
0.180661 0.177424 0.167925
0.181954 0.178689 0.169106
0.183233 0.179941 0.170275
0.184496 0.181179 0.171432
0.185746 0.182403 0.172576
0.186981 0.183613 0.173709
0.188203 0.184811 0.174830
0.189412 0.185996 0.175941
0.190607 0.187168 0.177040
0.191790 0.188328 0.178128
0.192961 0.189476 0.179206
0.194119 0.190612 0.180274
0.195265 0.191737 0.181331
0.196400 0.192850 0.182378
0.197523 0.193953 0.183416
0.198635 0.195044 0.184444
0.199735 0.196125 0.185462
0.200825 0.197196 0.186471
0.201905 0.198256 0.187472
0.202974 0.199306 0.188463
0.204032 0.200347 0.189445
0.205081 0.201378 0.190419
0.206120 0.202399 0.191385
0.207150 0.203411 0.192342
0.208169 0.204414 0.193290
0.209180 0.205408 0.194231
0.210181 0.206393 0.195164
0.211174 0.207369 0.196089
0.212158 0.208337 0.197007
0.213133 0.209296 0.197917
0.214099 0.210248 0.198819
0.215058 0.211191 0.199715
0.216008 0.212126 0.200603
0.216950 0.213054 0.201484
0.217884 0.213973 0.202358
0.218810 0.214886 0.203226
0.219729 0.215790 0.204086
0.220640 0.216688 0.204940
0.221543 0.217578 0.205788
0.222440 0.218461 0.206629
0.223329 0.219337 0.207463
0.224211 0.220207 0.208292
0.225086 0.221069 0.209114
0.225954 0.221925 0.209931
0.226816 0.222775 0.210741
0.227671 0.223618 0.211545
0.228519 0.224454 0.212344
0.229361 0.225284 0.213137
0.230197 0.226109 0.213924
0.231026 0.226927 0.214706
0.231850 0.227739 0.215483
0.232667 0.228545 0.216253
0.233478 0.229345 0.217019
0.234283 0.230140 0.217780
0.235083 0.230929 0.218535
0.235877 0.231712 0.219285
0.236665 0.232490 0.220030
0.237447 0.233263 0.220770
0.238225 0.234030 0.221505
0.238996 0.234792 0.222236
0.239763 0.235549 0.222961
0.240524 0.236300 0.223682
0.241280 0.237047 0.224398
0.242031 0.237789 0.225110
0.242776 0.238525 0.225817
0.243517 0.239257 0.226520
0.244253 0.239984 0.227218
0.244984 0.240706 0.227912
0.245711 0.241424 0.228601
0.246432 0.242137 0.229287
0.247149 0.242845 0.229968
0.247861 0.243549 0.230645
0.248569 0.244249 0.231318
0.249272 0.244944 0.231986
0.249971 0.245635 0.232651
0.250666 0.246321 0.233312
0.251356 0.247004 0.233969
0.252042 0.247682 0.234622
0.252724 0.248356 0.235271
0.253401 0.249026 0.235917
0.254074 0.249692 0.236558
0.254744 0.250354 0.237196
0.255409 0.251012 0.237831
0.256071 0.251666 0.238461
0.256728 0.252316 0.239089
0.257382 0.252963 0.239712
0.258031 0.253606 0.240333
0.258677 0.254245 0.240949
0.259320 0.254880 0.241563
0.259958 0.255512 0.242173
0.260593 0.256140 0.242779
0.261224 0.256765 0.243383
0.261852 0.257386 0.243983
0.262476 0.258004 0.244580
0.263097 0.258619 0.245173
0.263714 0.259230 0.245764
0.264328 0.259837 0.246351
0.264939 0.260441 0.246936
0.265546 0.261043 0.247517
0.266150 0.261640 0.248095
0.266750 0.262235 0.248670
0.267347 0.262826 0.249242
0.267942 0.263415 0.249812
0.268533 0.264000 0.250378
0.269120 0.264582 0.250942
0.269705 0.265161 0.251502
0.270287 0.265737 0.252060
0.270865 0.266310 0.252615
0.271441 0.266881 0.253168
0.272014 0.267448 0.253717
0.272584 0.268012 0.254264
0.273150 0.268574 0.254808
0.273714 0.269132 0.255350
0.274275 0.269688 0.255889
0.274834 0.270241 0.256425
0.275389 0.270792 0.256959
0.275942 0.271340 0.257490
0.276492 0.271885 0.258019
0.277039 0.272427 0.258545
0.277584 0.272967 0.259068
0.278126 0.273504 0.259590
0.278665 0.274038 0.260108
0.279202 0.274570 0.260625
0.279736 0.275099 0.261139
0.280267 0.275626 0.261650
0.280796 0.276151 0.262160
0.281323 0.276673 0.262667
0.281847 0.277192 0.263171
0.282368 0.277709 0.263673
0.282888 0.278224 0.264174
0.283404 0.278736 0.264671
0.283919 0.279246 0.265167
0.284430 0.279754 0.265660
0.284940 0.280259 0.266152
0.285447 0.280762 0.266641
0.285952 0.281263 0.267128
0.286455 0.281761 0.267612
0.286955 0.282258 0.268095
0.287454 0.282752 0.268576
0.287949 0.283243 0.269054
0.288443 0.283733 0.269531
0.288935 0.284221 0.270005
0.289424 0.284706 0.270477
0.289911 0.285189 0.270948
0.290396 0.285671 0.271416
0.290879 0.286150 0.271883
0.291360 0.286627 0.272347
0.291839 0.287102 0.272810
0.292316 0.287575 0.273271
0.292791 0.288046 0.273729
0.293263 0.288515 0.274186
0.293734 0.288982 0.274641
0.294203 0.289447 0.275094
0.294669 0.289910 0.275546
0.295134 0.290371 0.275995
0.295597 0.290831 0.276443
0.296058 0.291288 0.276888
0.296517 0.291744 0.277333
0.296974 0.292197 0.277775
0.297429 0.292649 0.278215
0.297883 0.293099 0.278654
0.298334 0.293547 0.279091
0.298784 0.293994 0.279527
0.299232 0.294438 0.279960
0.299678 0.294881 0.280392
0.300122 0.295322 0.280823
0.300565 0.295761 0.281251
0.301006 0.296199 0.281678
0.301445 0.296635 0.282103
0.301882 0.297069 0.282527
0.302318 0.297501 0.282949
0.302752 0.297932 0.283370
0.303184 0.298361 0.283789
0.303614 0.298789 0.284206
0.304043 0.299215 0.284622
0.304470 0.299639 0.285036
0.304896 0.300061 0.285449
0.305320 0.300482 0.285860
0.305742 0.300902 0.286270
0.306163 0.301320 0.286678
0.306582 0.301736 0.287084
0.307000 0.302151 0.287490
0.307416 0.302564 0.287893
0.307830 0.302975 0.288296
0.308243 0.303386 0.288696
0.308655 0.303794 0.289096
0.309064 0.304201 0.289494
0.309473 0.304607 0.289890
0.309880 0.305011 0.290285
0.310285 0.305414 0.290679
0.310689 0.305815 0.291071
0.311091 0.306215 0.291462
0.311492 0.306613 0.291852
0.311892 0.307010 0.292240
0.312290 0.307405 0.292627
0.312687 0.307799 0.293012
0.313082 0.308192 0.293396
0.313476 0.308583 0.293779
0.313868 0.308973 0.294160
0.314260 0.309362 0.294541
0.314649 0.309749 0.294920
0.315038 0.310135 0.295297
0.315425 0.310519 0.295673
0.315810 0.310903 0.296049
0.316195 0.311285 0.296422
0.316578 0.311665 0.296795
0.316959 0.312044 0.297166
0.317340 0.312422 0.297536
0.317719 0.312799 0.297905
0.318097 0.313175 0.298273
0.318473 0.313549 0.298639
0.318848 0.313922 0.299004
0.319222 0.314293 0.299368
0.319595 0.314664 0.299731
0.319966 0.315033 0.300093
0.320337 0.315401 0.300453
0.320706 0.315768 0.300812
0.321074 0.316133 0.301170
0.321440 0.316497 0.301527
0.321805 0.316861 0.301883
0.322170 0.317223 0.302238
0.322533 0.317583 0.302591
0.322894 0.317943 0.302944
0.323255 0.318301 0.303295
0.323614 0.318659 0.303645
0.323973 0.319015 0.303995
0.324330 0.319370 0.304343
0.324686 0.319724 0.304689
0.325041 0.320077 0.305035
0.325394 0.320428 0.305380
0.325747 0.320779 0.305724
0.326098 0.321128 0.306066
0.326449 0.321477 0.306408
0.326798 0.321824 0.306749
0.327146 0.322170 0.307088
0.327493 0.322515 0.307426
0.327839 0.322859 0.307764
0.328184 0.323202 0.308100
0.328528 0.323544 0.308436
0.328871 0.323885 0.308770
0.329213 0.324225 0.309103
0.329553 0.324563 0.309436
0.329893 0.324901 0.309767
0.330232 0.325238 0.310098
0.330569 0.325573 0.310427
0.330906 0.325908 0.310756
0.331241 0.326242 0.311083
0.331576 0.326574 0.311410
0.331909 0.326906 0.311735
0.332242 0.327237 0.312060
0.332573 0.327567 0.312383
0.332904 0.327895 0.312706
0.333233 0.328223 0.313028
0.333562 0.328550 0.313349
0.333890 0.328876 0.313669
0.334216 0.329201 0.313988
0.334599 0.329582 0.314362
0.335012 0.329992 0.314764
0.335423 0.330401 0.315167
0.335834 0.330810 0.315568
0.336245 0.331218 0.315969
0.336655 0.331626 0.316370
0.337064 0.332033 0.316770
0.337473 0.332439 0.317169
0.337881 0.332845 0.317568
0.338288 0.333251 0.317966
0.338695 0.333655 0.318363
0.339101 0.334059 0.318761
0.339507 0.334463 0.319157
0.339912 0.334866 0.319553
0.340316 0.335268 0.319949
0.340720 0.335670 0.320344
0.341123 0.336071 0.320738
0.341526 0.336472 0.321132
0.341928 0.336872 0.321525
0.342330 0.337272 0.321918
0.342731 0.337671 0.322310
0.343131 0.338069 0.322702
0.343531 0.338467 0.323093
0.343930 0.338864 0.323484
0.344329 0.339261 0.323874
0.344727 0.339657 0.324264
0.345125 0.340053 0.324653
0.345522 0.340448 0.325042
0.345919 0.340843 0.325430
0.346315 0.341237 0.325818
0.346710 0.341630 0.326205
0.347105 0.342024 0.326592
0.347499 0.342416 0.326978
0.347893 0.342808 0.327364
0.348287 0.343199 0.327749
0.348680 0.343590 0.328133
0.349072 0.343981 0.328518
0.349464 0.344371 0.328901
0.349855 0.344760 0.329285
0.350246 0.345149 0.329667
0.350636 0.345538 0.330050
0.351025 0.345925 0.330432
0.351415 0.346313 0.330813
0.351803 0.346700 0.331194
0.352192 0.347086 0.331574
0.352579 0.347472 0.331954
0.352966 0.347857 0.332334
0.353353 0.348242 0.332713
0.353739 0.348627 0.333091
0.354125 0.349011 0.333470
0.354510 0.349394 0.333847
0.354895 0.349777 0.334224
0.355279 0.350160 0.334601
0.355663 0.350542 0.334977
0.356046 0.350923 0.335353
0.356429 0.351304 0.335729
0.356811 0.351685 0.336104
0.357193 0.352065 0.336478
0.357574 0.352445 0.336852
0.357955 0.352824 0.337226
0.358336 0.353203 0.337599
0.358716 0.353581 0.337972
0.359095 0.353959 0.338344
0.359474 0.354336 0.338716
0.359853 0.354713 0.339088
0.360231 0.355090 0.339459
0.360609 0.355466 0.339830
0.360986 0.355842 0.340200
0.361363 0.356217 0.340570
0.361739 0.356591 0.340939
0.362115 0.356966 0.341308
0.362490 0.357340 0.341677
0.362865 0.357713 0.342045
0.363240 0.358086 0.342413
0.363614 0.358458 0.342780
0.363988 0.358831 0.343147
0.364361 0.359202 0.343513
0.364734 0.359574 0.343880
0.365106 0.359944 0.344245
0.365478 0.360315 0.344611
0.365849 0.360685 0.344976
0.366220 0.361054 0.345340
0.366591 0.361423 0.345704
0.366961 0.361792 0.346068
0.367331 0.362161 0.346431
0.367701 0.362528 0.346794
0.368070 0.362896 0.347157
0.368438 0.363263 0.347519
0.368806 0.363630 0.347881
0.369174 0.363996 0.348242
0.369541 0.364362 0.348603
0.369908 0.364727 0.348964
0.370275 0.365093 0.349324
0.370641 0.365457 0.349684
0.371007 0.365822 0.350044
0.371372 0.366185 0.350403
0.371737 0.366549 0.350762
0.372101 0.366912 0.351120
0.372466 0.367275 0.351478
0.372829 0.367637 0.351836
0.373193 0.367999 0.352193
0.373556 0.368361 0.352550
0.373918 0.368722 0.352907
0.374280 0.369083 0.353263
0.374642 0.369443 0.353619
0.375004 0.369803 0.353974
0.375365 0.370163 0.354330
0.375725 0.370522 0.354684
0.376086 0.370881 0.355039
0.376446 0.371240 0.355393
0.376805 0.371598 0.355747
0.377164 0.371956 0.356100
0.377523 0.372313 0.356453
0.377882 0.372671 0.356806
0.378240 0.373027 0.357158
0.378597 0.373384 0.357510
0.378955 0.373740 0.357862
0.379312 0.374095 0.358213
0.379668 0.374451 0.358564
0.380024 0.374806 0.358915
0.380380 0.375160 0.359265
0.380736 0.375514 0.359615
0.381091 0.375868 0.359965
0.381446 0.376222 0.360314
0.381800 0.376575 0.360663
0.382154 0.376928 0.361012
0.382508 0.377281 0.361360
0.382862 0.377633 0.361708
0.383215 0.377985 0.362056
0.383567 0.378336 0.362404
0.383920 0.378687 0.362751
0.384272 0.379038 0.363097
0.384623 0.379388 0.363444
0.384975 0.379739 0.363790
0.385326 0.380088 0.364136
0.385676 0.380438 0.364481
0.386027 0.380787 0.364826
0.386377 0.381136 0.365171
0.386726 0.381484 0.365516
0.387076 0.381833 0.365860
0.387425 0.382180 0.366204
0.387774 0.382528 0.366547
0.388122 0.382875 0.366891
0.388470 0.383222 0.367234
0.388818 0.383569 0.367576
0.389165 0.383915 0.367919
0.389512 0.384261 0.368261
0.389859 0.384606 0.368603
0.390205 0.384952 0.368944
0.390551 0.385297 0.369285
0.390897 0.385641 0.369626
0.391243 0.385986 0.369967
0.391588 0.386330 0.370307
0.391933 0.386673 0.370647
0.392277 0.387017 0.370987
0.392621 0.387360 0.371326
0.392965 0.387703 0.371665
0.393309 0.388045 0.372004
0.393652 0.388387 0.372343
0.393995 0.388729 0.372681
0.394338 0.389071 0.373019
0.394680 0.389412 0.373356
0.395022 0.389753 0.373694
0.395364 0.390094 0.374031
0.395705 0.390434 0.374368
0.396047 0.390774 0.374704
0.396387 0.391114 0.375041
0.396728 0.391454 0.375377
0.397068 0.391793 0.375712
0.397408 0.392132 0.376048
0.397748 0.392471 0.376383
0.398087 0.392809 0.376718
0.398427 0.393147 0.377052
0.398765 0.393485 0.377387
0.399104 0.393822 0.377721
0.399442 0.394160 0.378055
0.399780 0.394497 0.378388
0.400118 0.394833 0.378722
0.400455 0.395170 0.379055
0.400792 0.395506 0.379387
0.401129 0.395842 0.379720
0.401466 0.396177 0.380052
0.401802 0.396512 0.380384
0.402138 0.396847 0.380716
0.402474 0.397182 0.381047
0.402809 0.397517 0.381378
0.403144 0.397851 0.381709
0.403479 0.398185 0.382040
0.403814 0.398518 0.382370
0.404148 0.398852 0.382700
0.404482 0.399185 0.383030
0.404816 0.399518 0.383360
0.405150 0.399850 0.383689
0.405483 0.400183 0.384018
0.405816 0.400515 0.384347
0.406149 0.400846 0.384676
0.406481 0.401178 0.385004
0.406813 0.401509 0.385332
0.407145 0.401840 0.385660
