tools/resolve/luts/NIRO Grading/Taxodia 09.26/C0247_e+0.76_r+0.06_b-0.14.cube
TITLE "NIRO BALANCE C0247 e +0.76 R +0.06 B -0.14 (lineare Verstaerkung S-Log3)"
LUT_1D_SIZE 4096
0.000000 0.000000 0.000000
0.000000 0.000000 0.000000
0.000000 0.000000 0.000000
0.000000 0.000000 0.000000
0.000000 0.000000 0.000000
0.000000 0.000000 0.000000
0.000000 0.000000 0.000000
0.000000 0.000000 0.000000
0.000000 0.000000 0.000000
0.000000 0.000000 0.000000
0.000000 0.000000 0.000000
0.000000 0.000000 0.000000
0.000000 0.000000 0.000000
0.000000 0.000000 0.000000
0.000000 0.000000 0.000000
0.000000 0.000000 0.000000
0.000000 0.000000 0.000000
0.000000 0.000000 0.000000
0.000000 0.000000 0.000000
0.000000 0.000000 0.000000
0.000000 0.000000 0.000000
0.000000 0.000000 0.000000
0.000000 0.000000 0.000000
0.000000 0.000000 0.000000
0.000000 0.000000 0.000000
0.000000 0.000000 0.000000
0.000000 0.000000 0.000000
0.000000 0.000000 0.000000
0.000000 0.000000 0.000000
0.000000 0.000000 0.000000
0.000000 0.000000 0.000000
0.000000 0.000000 0.000000
0.000000 0.000000 0.000000
0.000000 0.000000 0.000000
0.000000 0.000000 0.000000
0.000000 0.000000 0.000000
0.000000 0.000000 0.000000
0.000000 0.000000 0.000000
0.000000 0.000000 0.000000
0.000000 0.000000 0.000000
0.000000 0.000000 0.000000
0.000000 0.000000 0.000000
0.000000 0.000000 0.000000
0.000000 0.000000 0.000000
0.000000 0.000000 0.000000
0.000000 0.000000 0.000000
0.000000 0.000000 0.000000
0.000000 0.000000 0.000000
0.000000 0.000000 0.000000
0.000000 0.000000 0.000000
0.000000 0.000000 0.000000
0.000000 0.000000 0.000000
0.000000 0.000000 0.000000
0.000000 0.000000 0.000000
0.000000 0.000000 0.000000
0.000000 0.000000 0.000000
0.000000 0.000000 0.000000
0.000000 0.000000 0.000000
0.000000 0.000000 0.000000
0.000000 0.000000 0.000000
0.000000 0.000000 0.000000
0.000000 0.000000 0.000000
0.000000 0.000000 0.000000
0.000000 0.000000 0.000000
0.000000 0.000000 0.000000
0.000000 0.000000 0.000000
0.000000 0.000000 0.000000
0.000000 0.000000 0.000000
0.000000 0.000000 0.000000
0.000000 0.000000 0.000000
0.000000 0.000000 0.000000
0.000000 0.000000 0.000000
0.000000 0.000000 0.000000
0.000000 0.000000 0.000000
0.000000 0.000000 0.000000
0.000000 0.000000 0.000000
0.000000 0.000000 0.000000
0.000000 0.000000 0.000000
0.000000 0.000000 0.000000
0.000000 0.000000 0.000000
0.000000 0.000000 0.000000
0.000000 0.000000 0.000000
0.000000 0.000000 0.000000
0.000000 0.000000 0.000000
0.000000 0.000000 0.000000
0.000000 0.000000 0.000000
0.000000 0.000000 0.000000
0.000000 0.000000 0.000000
0.000000 0.000000 0.000000
0.000000 0.000000 0.000000
0.000000 0.000000 0.000000
0.000000 0.000000 0.000000
0.000000 0.000000 0.000000
0.000000 0.000000 0.000000
0.000000 0.000000 0.000000
0.000000 0.000000 0.000000
0.000000 0.000000 0.000000
0.000000 0.000000 0.000000
0.000000 0.000000 0.000000
0.000000 0.000000 0.000000
0.000000 0.000000 0.000000
0.000000 0.000000 0.000000
0.000000 0.000000 0.000000
0.000000 0.000000 0.000000
0.000000 0.000000 0.000000
0.000000 0.000000 0.000000
0.000000 0.000000 0.000000
0.000000 0.000000 0.000000
0.000000 0.000000 0.000000
0.000000 0.000000 0.000000
0.000000 0.000000 0.000000
0.000000 0.000000 0.000000
0.000000 0.000000 0.000000
0.000000 0.000000 0.000000
0.000000 0.000000 0.000000
0.000000 0.000000 0.000000
0.000000 0.000000 0.000000
0.000000 0.000000 0.000000
0.000000 0.000000 0.000000
0.000000 0.000000 0.000000
0.000000 0.000000 0.000000
0.000000 0.000000 0.000000
0.000000 0.000000 0.000000
0.000000 0.000000 0.000000
0.000000 0.000000 0.000000
0.000000 0.000000 0.000000
0.000000 0.000000 0.000000
0.000000 0.000000 0.000000
0.000000 0.000000 0.000000
0.000000 0.000000 0.000000
0.000000 0.000000 0.000000
0.000000 0.000000 0.000000
0.000000 0.000000 0.000000
0.000000 0.000000 0.000000
0.000000 0.000000 0.000242
0.000000 0.000000 0.000618
0.000000 0.000000 0.000994
0.000000 0.000000 0.001370
0.000000 0.000000 0.001746
0.000000 0.000000 0.002122
0.000000 0.000000 0.002499
0.000000 0.000000 0.002875
0.000000 0.000000 0.003251
0.000000 0.000000 0.003627
0.000000 0.000000 0.004003
0.000000 0.000000 0.004379
0.000000 0.000000 0.004755
0.000000 0.000000 0.005131
0.000000 0.000000 0.005507
0.000000 0.000000 0.005883
0.000000 0.000000 0.006259
0.000000 0.000000 0.006636
0.000000 0.000000 0.007012
0.000000 0.000000 0.007388
0.000000 0.000000 0.007764
0.000000 0.000000 0.008140
0.000000 0.000000 0.008516
0.000000 0.000335 0.008892
0.000000 0.000749 0.009268
0.000000 0.001164 0.009644
0.000000 0.001578 0.010020
0.000000 0.001993 0.010396
0.000000 0.002407 0.010772
0.000000 0.002821 0.011149
0.000000 0.003236 0.011525
0.000000 0.003650 0.011901
0.000165 0.004065 0.012277
0.000598 0.004479 0.012653
0.001030 0.004893 0.013029
0.001463 0.005308 0.013405
0.001896 0.005722 0.013781
0.002328 0.006137 0.014157
0.002761 0.006551 0.014533
0.003193 0.006965 0.014909
0.003626 0.007380 0.015286
0.004059 0.007794 0.015662
0.004491 0.008209 0.016038
0.004924 0.008623 0.016414
0.005357 0.009038 0.016790
0.005789 0.009452 0.017166
0.006222 0.009866 0.017542
0.006654 0.010281 0.017918
0.007087 0.010695 0.018294
0.007520 0.011110 0.018670
0.007952 0.011524 0.019046
0.008385 0.011938 0.019422
0.008817 0.012353 0.019799
0.009250 0.012767 0.020175
0.009683 0.013182 0.020551
0.010115 0.013596 0.020927
0.010548 0.014010 0.021303
0.010980 0.014425 0.021679
0.011413 0.014839 0.022055
0.011846 0.015254 0.022431
0.012278 0.015668 0.022807
0.012711 0.016083 0.023183
0.013143 0.016497 0.023559
0.013576 0.016911 0.023936
0.014009 0.017326 0.024312
0.014441 0.017740 0.024688
0.014874 0.018155 0.025064
0.015307 0.018569 0.025440
0.015739 0.018983 0.025816
0.016172 0.019398 0.026192
0.016604 0.019812 0.026568
0.017037 0.020227 0.026944
0.017470 0.020641 0.027320
0.017902 0.021055 0.027696
0.018335 0.021470 0.028072
0.018767 0.021884 0.028449
0.019200 0.022299 0.028825
0.019633 0.022713 0.029201
0.020065 0.023128 0.029577
0.020498 0.023542 0.029953
0.020930 0.023956 0.030329
0.021363 0.024371 0.030705
0.021796 0.024785 0.031081
0.022228 0.025200 0.031457
0.022661 0.025614 0.031833
0.023094 0.026028 0.032209
0.023526 0.026443 0.032586
0.023959 0.026857 0.032962
0.024391 0.027272 0.033338
0.024824 0.027686 0.033714
0.025257 0.028100 0.034090
0.025689 0.028515 0.034466
0.026122 0.028929 0.034842
0.026554 0.029344 0.035218
0.026987 0.029758 0.035594
0.027420 0.030173 0.035970
0.027852 0.030587 0.036346
0.028285 0.031001 0.036722
0.028717 0.031416 0.037099
0.029150 0.031830 0.037475
0.029583 0.032245 0.037851
0.030015 0.032659 0.038227
0.030448 0.033073 0.038603
0.030880 0.033488 0.038979
0.031313 0.033902 0.039355
0.031746 0.034317 0.039731
0.032178 0.034731 0.040107
0.032611 0.035145 0.040483
0.033044 0.035560 0.040859
0.033476 0.035974 0.041235
0.033909 0.036389 0.041612
0.034341 0.036803 0.041988
0.034774 0.037218 0.042364
0.035207 0.037632 0.042740
0.035639 0.038046 0.043116
0.036072 0.038461 0.043492
0.036504 0.038875 0.043868
0.036937 0.039290 0.044244
0.037370 0.039704 0.044620
0.037802 0.040118 0.044996
0.038235 0.040533 0.045372
0.038667 0.040947 0.045749
0.039100 0.041362 0.046125
0.039533 0.041776 0.046501
0.039965 0.042190 0.046877
0.040398 0.042605 0.047253
0.040830 0.043019 0.047629
0.041263 0.043434 0.048005
0.041696 0.043848 0.048381
0.042128 0.044263 0.048757
0.042561 0.044677 0.049133
0.042994 0.045091 0.049509
0.043426 0.045506 0.049885
0.043859 0.045920 0.050262
0.044291 0.046335 0.050638
0.044724 0.046749 0.051014
0.045157 0.047163 0.051390
0.045589 0.047578 0.051766
0.046022 0.047992 0.052142
0.046454 0.048407 0.052518
0.046887 0.048821 0.052894
0.047320 0.049235 0.053270
0.047752 0.049650 0.053646
0.048185 0.050064 0.054022
0.048617 0.050479 0.054399
0.049050 0.050893 0.054775
0.049483 0.051308 0.055151
0.049915 0.051722 0.055527
0.050348 0.052136 0.055903
0.050781 0.052551 0.056279
0.051213 0.052965 0.056655
0.051646 0.053380 0.057031
0.052078 0.053794 0.057407
0.052511 0.054208 0.057783
0.052944 0.054623 0.058159
0.053376 0.055037 0.058535
0.053809 0.055452 0.058912
0.054241 0.055866 0.059288
0.054674 0.056280 0.059664
0.055107 0.056695 0.060040
0.055539 0.057109 0.060416
0.055972 0.057524 0.060792
0.056404 0.057938 0.061168
0.056837 0.058353 0.061544
0.057270 0.058767 0.061920
0.057702 0.059181 0.062296
0.058135 0.059596 0.062672
0.058567 0.060010 0.063049
0.059000 0.060425 0.063425
0.059433 0.060839 0.063801
0.059865 0.061253 0.064177
0.060298 0.061668 0.064553
0.060731 0.062082 0.064929
0.061163 0.062497 0.065305
0.061596 0.062911 0.065681
0.062028 0.063325 0.066057
0.062461 0.063740 0.066433
0.062894 0.064154 0.066809
0.063326 0.064569 0.067185
0.063759 0.064983 0.067562
0.064191 0.065398 0.067938
0.064624 0.065812 0.068314
0.065057 0.066226 0.068690
0.065489 0.066641 0.069066
0.065922 0.067055 0.069442
0.066354 0.067470 0.069818
0.066787 0.067884 0.070194
0.067220 0.068298 0.070570
0.067652 0.068713 0.070946
0.068085 0.069127 0.071322
0.068517 0.069542 0.071699
0.068950 0.069956 0.072075
0.069383 0.070370 0.072451
0.069815 0.070785 0.072827
0.070248 0.071199 0.073203
0.070681 0.071614 0.073579
0.071113 0.072028 0.073955
0.071546 0.072443 0.074331
0.071978 0.072857 0.074707
0.072411 0.073271 0.075083
0.072844 0.073686 0.075459
0.073276 0.074100 0.075835
0.073709 0.074515 0.076212
0.074141 0.074929 0.076588
0.074574 0.075343 0.076964
0.075007 0.075758 0.077340
0.075439 0.076172 0.077716
0.075872 0.076587 0.078092
0.076304 0.077001 0.078468
0.076737 0.077415 0.078844
0.077170 0.077830 0.079220
0.077602 0.078244 0.079596
0.078035 0.078659 0.079972
0.078467 0.079073 0.080348
0.078900 0.079487 0.080725
0.079333 0.079902 0.081101
0.079765 0.080316 0.081477
0.080198 0.080731 0.081853
0.080631 0.081145 0.082229
0.081063 0.081560 0.082605
0.081496 0.081974 0.082981
0.081928 0.082388 0.083357
0.082361 0.082803 0.083733
0.082794 0.083217 0.084109
0.083226 0.083632 0.084485
0.083659 0.084046 0.084862
0.084091 0.084460 0.085238
0.084524 0.084875 0.085614
0.084957 0.085289 0.085990
0.085389 0.085704 0.086366
0.085822 0.086118 0.086742
0.086254 0.086532 0.087118
0.086687 0.086947 0.087494
0.087120 0.087361 0.087870
0.087552 0.087776 0.088246
0.087985 0.088190 0.088622
0.088418 0.088605 0.088998
0.088850 0.089019 0.089375
0.089283 0.089433 0.089751
0.089715 0.089848 0.090127
0.090148 0.090262 0.090503
0.090581 0.090677 0.090879
0.091013 0.091091 0.091255
0.091446 0.091505 0.091631
0.091878 0.091920 0.092007
0.092311 0.092334 0.092383
0.092744 0.092749 0.092759
0.093176 0.093163 0.093135
0.093609 0.093577 0.093512
0.094041 0.093992 0.093888
0.094474 0.094406 0.094264
0.094907 0.094821 0.094640
0.095339 0.095235 0.095016
0.095772 0.095650 0.095392
0.096204 0.096064 0.095768
0.096637 0.096478 0.096144
0.097070 0.096893 0.096520
0.097502 0.097307 0.096896
0.097935 0.097722 0.097272
0.098368 0.098136 0.097648
0.098800 0.098550 0.098025
0.099233 0.098965 0.098401
0.099665 0.099379 0.098777
0.100098 0.099794 0.099153
0.100531 0.100208 0.099529
0.100963 0.100622 0.099905
0.101396 0.101037 0.100281
0.101828 0.101451 0.100657
0.102261 0.101866 0.101033
0.102694 0.102280 0.101409
0.103126 0.102695 0.101785
0.103559 0.103109 0.102162
0.103991 0.103523 0.102538
0.104424 0.103938 0.102914
0.104857 0.104352 0.103290
0.105289 0.104767 0.103666
0.105722 0.105181 0.104042
0.106154 0.105595 0.104418
0.106587 0.106010 0.104794
0.107020 0.106424 0.105170
0.107452 0.106839 0.105546
0.107885 0.107253 0.105922
0.108318 0.107667 0.106298
0.108750 0.108082 0.106675
0.109183 0.108496 0.107051
0.109615 0.108911 0.107427
0.110048 0.109325 0.107803
0.110481 0.109740 0.108179
0.110913 0.110154 0.108555
0.111346 0.110568 0.108931
0.111778 0.110983 0.109307
0.112211 0.111397 0.109683
0.112644 0.111812 0.110059
0.113076 0.112226 0.110435
0.113509 0.112640 0.110812
0.113941 0.113055 0.111188
0.114374 0.113469 0.111564
0.114807 0.113884 0.111940
0.115239 0.114298 0.112316
0.115672 0.114712 0.112692
0.116105 0.115127 0.113068
0.116537 0.115541 0.113444
0.116970 0.115956 0.113820
0.117402 0.116370 0.114196
0.117835 0.116785 0.114572
0.118268 0.117199 0.114948
0.118700 0.117613 0.115325
0.119133 0.118028 0.115701
0.119565 0.118442 0.116077
0.119998 0.118857 0.116453
0.120431 0.119271 0.116829
0.120863 0.119685 0.117205
0.121296 0.120100 0.117581
0.121728 0.120514 0.117957
0.122161 0.120929 0.118333
0.122594 0.121343 0.118709
0.123026 0.121757 0.119085
0.123459 0.122172 0.119461
0.123891 0.122586 0.119838
0.124324 0.123001 0.120214
0.124757 0.123415 0.120590
0.125189 0.123830 0.120966
0.125622 0.124244 0.121342
0.126055 0.124658 0.121718
0.126487 0.125073 0.122094
0.126920 0.125487 0.122470
0.127352 0.125902 0.122846
0.127785 0.126316 0.123222
0.128218 0.126730 0.123598
0.128650 0.127145 0.123975
0.129083 0.127559 0.124351
0.129515 0.127974 0.124727
0.129948 0.128388 0.125103
0.130381 0.128802 0.125479
0.130813 0.129217 0.125855
0.131246 0.129631 0.126231
0.131678 0.130046 0.126607
0.132111 0.130460 0.126983
0.132544 0.130875 0.127359
0.132976 0.131289 0.127735
0.133409 0.131703 0.128111
0.133841 0.132118 0.128488
0.134274 0.132532 0.128864
0.134707 0.132947 0.129240
0.135139 0.133361 0.129616
0.135572 0.133775 0.129992
0.136005 0.134190 0.130368
0.136437 0.134604 0.130744
0.136870 0.135019 0.131120
0.137302 0.135433 0.131496
0.137735 0.135847 0.131872
0.138168 0.136262 0.132248
0.138600 0.136676 0.132625
0.139033 0.137091 0.133001
0.139465 0.137505 0.133377
0.139898 0.137920 0.133753
0.140331 0.138334 0.134129
0.140763 0.138748 0.134505
0.141196 0.139163 0.134881
0.141628 0.139577 0.135257
0.142061 0.139992 0.135633
0.142494 0.140406 0.136009
0.142926 0.140820 0.136385
0.143359 0.141235 0.136761
0.143791 0.141649 0.137138
0.144224 0.142064 0.137514
0.144657 0.142478 0.137890
0.145089 0.142892 0.138266
0.145522 0.143307 0.138642
0.145955 0.143721 0.139018
0.146387 0.144136 0.139394
0.146820 0.144550 0.139770
0.147252 0.144965 0.140146
0.147685 0.145379 0.140522
0.148118 0.145793 0.140898
0.148550 0.146208 0.141275
0.148983 0.146622 0.141651
0.149415 0.147037 0.142027
0.149848 0.147451 0.142403
0.150281 0.147865 0.142779
0.150713 0.148280 0.143155
0.151146 0.148694 0.143531
0.151578 0.149109 0.143907
0.152011 0.149523 0.144283
0.152444 0.149937 0.144659
0.152876 0.150352 0.145035
0.153309 0.150766 0.145411
0.153742 0.151181 0.145788
0.154174 0.151595 0.146164
0.154607 0.152010 0.146540
0.155039 0.152424 0.146916
0.155472 0.152838 0.147292
0.155905 0.153253 0.147668
0.156337 0.153667 0.148044
0.156770 0.154082 0.148420
0.157202 0.154496 0.148796
0.157635 0.154910 0.149172
0.158068 0.155325 0.149548
0.158500 0.155739 0.149925
0.158933 0.156154 0.150301
0.159365 0.156568 0.150677
0.159798 0.156982 0.151053
0.160231 0.157397 0.151429
0.160663 0.157811 0.151805
0.161096 0.158226 0.152181
0.161528 0.158640 0.152557
0.161961 0.159055 0.152933
0.162394 0.159469 0.153309
0.162826 0.159883 0.153685
0.163259 0.160298 0.154061
0.163692 0.160712 0.154438
0.164124 0.161127 0.154814
0.164557 0.161541 0.155190
0.164989 0.161955 0.155566
0.165422 0.162370 0.155942
0.165855 0.162784 0.156318
0.166287 0.163199 0.156694
0.166720 0.163613 0.157070
0.167152 0.164027 0.157446
0.167538 0.164442 0.157822
0.167878 0.164856 0.158198
0.168217 0.165271 0.158574
0.168555 0.165685 0.158951
0.168892 0.166100 0.159327
0.169228 0.166514 0.159703
0.169564 0.166928 0.160079
0.169898 0.167343 0.160455
0.170231 0.167673 0.160831
0.170563 0.167999 0.161207
0.170894 0.168323 0.161583
0.171224 0.168647 0.161959
0.171553 0.168970 0.162335
0.171881 0.169291 0.162711
0.172208 0.169612 0.163088
0.172535 0.169932 0.163464
0.172860 0.170251 0.163840
0.173184 0.170569 0.164216
0.173508 0.170886 0.164592
0.173830 0.171203 0.164968
0.174152 0.171518 0.165344
0.174472 0.171833 0.165720
0.174792 0.172146 0.166096
0.175111 0.172459 0.166472
0.175428 0.172771 0.166848
0.175745 0.173082 0.167224
0.176061 0.173392 0.167550
0.176377 0.173701 0.167846
0.176691 0.174009 0.168141
0.177004 0.174317 0.168435
0.177317 0.174623 0.168728
0.177628 0.174929 0.169021
0.177939 0.175234 0.169313
0.178249 0.175538 0.169604
0.178558 0.175842 0.169895
0.178866 0.176144 0.170184
0.179173 0.176446 0.170473
0.179480 0.176747 0.170761
0.179785 0.177047 0.171049
0.180090 0.177346 0.171335
0.180394 0.177644 0.171621
0.180697 0.177942 0.171906
0.180999 0.178239 0.172191
0.181301 0.178535 0.172474
0.181601 0.178830 0.172757
0.181901 0.179124 0.173040
0.182200 0.179418 0.173321
0.182498 0.179711 0.173602
0.182796 0.180003 0.173882
0.183092 0.180295 0.174162
0.183388 0.180585 0.174440
0.183683 0.180875 0.174718
0.183977 0.181164 0.174996
0.184271 0.181452 0.175272
0.184563 0.181740 0.175548
0.184855 0.182027 0.175824
0.185146 0.182313 0.176098
0.185437 0.182598 0.176372
0.185726 0.182883 0.176645
0.186015 0.183167 0.176918
0.186303 0.183450 0.177190
0.186591 0.183733 0.177461
0.186877 0.184014 0.177732
0.187163 0.184295 0.178001
0.187449 0.184576 0.178271
0.187733 0.184855 0.178539
0.188017 0.185134 0.178807
0.188300 0.185412 0.179075
0.188582 0.185690 0.179341
0.188864 0.185967 0.179607
0.189144 0.186243 0.179873
0.189425 0.186518 0.180137
0.189704 0.186793 0.180402
0.189983 0.187067 0.180665
0.190261 0.187341 0.180928
0.190538 0.187614 0.181190
0.190815 0.187886 0.181452
0.191091 0.188157 0.181713
0.191366 0.188428 0.181973
0.191640 0.188698 0.182233
0.191914 0.188967 0.182492
0.192188 0.189236 0.182751
0.192460 0.189504 0.183009
0.192732 0.189772 0.183266
0.193003 0.190039 0.183523
0.193274 0.190305 0.183779
0.193544 0.190570 0.184035
0.193813 0.190835 0.184290
0.194082 0.191100 0.184544
0.194350 0.191363 0.184798
0.194617 0.191626 0.185052
0.194884 0.191889 0.185304
0.195150 0.192151 0.185556
0.195415 0.192412 0.185808
0.195680 0.192672 0.186059
0.195944 0.192932 0.186309
0.196208 0.193192 0.186559
0.196470 0.193451 0.186809
0.196733 0.193709 0.187057
0.196994 0.193966 0.187306
0.197255 0.194223 0.187553
0.197516 0.194480 0.187800
0.197776 0.194735 0.188047
0.198035 0.194991 0.188293
0.198293 0.195245 0.188538
0.198551 0.195499 0.188783
0.198809 0.195753 0.189028
0.199066 0.196006 0.189271
0.199322 0.196258 0.189515
0.199577 0.196510 0.189757
0.199832 0.196761 0.190000
0.200087 0.197011 0.190241
0.200341 0.197261 0.190483
0.200594 0.197511 0.190723
0.200847 0.197760 0.190963
0.201099 0.198008 0.191203
0.201351 0.198256 0.191442
0.201602 0.198503 0.191681
0.201852 0.198750 0.191919
0.202102 0.198996 0.192156
0.202351 0.199242 0.192393
0.202600 0.199487 0.192630
0.202848 0.199731 0.192866
0.203096 0.199975 0.193101
0.203343 0.200219 0.193337
0.203589 0.200462 0.193571
0.203835 0.200704 0.193805
0.204081 0.200946 0.194039
0.204326 0.201187 0.194272
0.204570 0.201428 0.194504
0.204814 0.201668 0.194737
0.205057 0.201908 0.194968
0.205300 0.202147 0.195199
0.205585 0.202428 0.195471
0.205892 0.202731 0.195763
0.206199 0.203033 0.196055
0.206505 0.203335 0.196347
0.206812 0.203637 0.196639
0.207118 0.203939 0.196931
0.207424 0.204241 0.197223
0.207730 0.204542 0.197514
0.208036 0.204844 0.197806
0.208341 0.205145 0.198097
0.208647 0.205446 0.198388
0.208952 0.205747 0.198679
0.209257 0.206048 0.198970
0.209562 0.206349 0.199261
0.209867 0.206649 0.199552
0.210171 0.206949 0.199842
0.210476 0.207250 0.200133
0.210780 0.207550 0.200423
0.211084 0.207850 0.200713
0.211388 0.208149 0.201003
0.211692 0.208449 0.201293
0.211995 0.208748 0.201583
0.212299 0.209048 0.201873
0.212602 0.209347 0.202163
0.212905 0.209646 0.202452
0.213208 0.209945 0.202741
0.213511 0.210243 0.203031
0.213813 0.210542 0.203320
0.214116 0.210840 0.203609
0.214418 0.211139 0.203898
0.214720 0.211437 0.204187
0.215022 0.211735 0.204475
0.215324 0.212033 0.204764
0.215626 0.212330 0.205052
0.215927 0.212628 0.205341
0.216229 0.212925 0.205629
0.216530 0.213222 0.205917
0.216831 0.213520 0.206205
0.217132 0.213817 0.206493
0.217433 0.214113 0.206781
0.217733 0.214410 0.207068
0.218034 0.214707 0.207356
0.218334 0.215003 0.207643
0.218634 0.215299 0.207931
0.218934 0.215596 0.208218
0.219234 0.215892 0.208505
0.219534 0.216187 0.208792
0.219833 0.216483 0.209079
0.220133 0.216779 0.209366
0.220432 0.217074 0.209652
0.220731 0.217369 0.209939
0.221030 0.217665 0.210225
0.221329 0.217960 0.210511
0.221627 0.218255 0.210798
0.221926 0.218549 0.211084
0.222224 0.218844 0.211370
0.222522 0.219139 0.211656
0.222820 0.219433 0.211942
0.223118 0.219727 0.212227
0.223416 0.220021 0.212513
0.223714 0.220315 0.212798
0.224011 0.220609 0.213084
0.224309 0.220903 0.213369
0.224606 0.221196 0.213654
0.224903 0.221490 0.213939
0.225200 0.221783 0.214224
0.225497 0.222076 0.214509
0.225793 0.222369 0.214794
0.226090 0.222662 0.215078
0.226386 0.222955 0.215363
0.226682 0.223248 0.215647
0.226978 0.223540 0.215932
0.227274 0.223833 0.216216
0.227570 0.224125 0.216500
0.227866 0.224417 0.216784
0.228161 0.224709 0.217068
0.228457 0.225001 0.217352
0.228752 0.225293 0.217635
0.229047 0.225585 0.217919
0.229342 0.225876 0.218202
0.229637 0.226168 0.218486
0.229932 0.226459 0.218769
0.230226 0.226750 0.219052
0.230521 0.227041 0.219335
0.230815 0.227332 0.219618
0.231109 0.227623 0.219901
0.231404 0.227914 0.220184
0.231697 0.228204 0.220467
0.231991 0.228495 0.220750
0.232285 0.228785 0.221032
0.232578 0.229075 0.221314
0.232872 0.229365 0.221597
0.233165 0.229655 0.221879
0.233458 0.229945 0.222161
0.233751 0.230235 0.222443
0.234044 0.230524 0.222725
0.234337 0.230814 0.223007
0.234630 0.231103 0.223289
0.234922 0.231393 0.223570
0.235214 0.231682 0.223852
0.235507 0.231971 0.224133
0.235799 0.232260 0.224415
0.236091 0.232548 0.224696
0.236383 0.232837 0.224977
0.236675 0.233126 0.225258
0.236966 0.233414 0.225539
0.237258 0.233702 0.225820
0.237549 0.233991 0.226101
0.237840 0.234279 0.226382
0.238131 0.234567 0.226662
0.238422 0.234855 0.226943
0.238713 0.235142 0.227223
0.239004 0.235430 0.227504
0.239295 0.235717 0.227784
0.239585 0.236005 0.228064
0.239876 0.236292 0.228344
0.240166 0.236579 0.228624
0.240456 0.236866 0.228904
0.240746 0.237153 0.229184
0.241036 0.237440 0.229464
0.241326 0.237727 0.229743
0.241615 0.238014 0.230023
0.241905 0.238300 0.230302
0.242194 0.238587 0.230582
0.242484 0.238873 0.230861
0.242773 0.239159 0.231140
0.243062 0.239445 0.231419
0.243351 0.239731 0.231698
0.243640 0.240017 0.231977
0.243929 0.240303 0.232256
0.244217 0.240589 0.232535
0.244506 0.240874 0.232813
0.244794 0.241160 0.233092
0.245083 0.241445 0.233370
0.245371 0.241730 0.233649
0.245659 0.242015 0.233927
0.245947 0.242300 0.234205
0.246234 0.242585 0.234484
0.246522 0.242870 0.234762
0.246810 0.243155 0.235040
0.247097 0.243439 0.235317
0.247385 0.243724 0.235595
0.247672 0.244008 0.235873
0.247959 0.244293 0.236151
0.248246 0.244577 0.236428
0.248533 0.244861 0.236706
0.248820 0.245145 0.236983
0.249107 0.245429 0.237260
0.249393 0.245713 0.237538
0.249680 0.245996 0.237815
0.249966 0.246280 0.238092
0.250252 0.246563 0.238369
0.250539 0.246847 0.238646
0.250825 0.247130 0.238922
0.251111 0.247413 0.239199
0.251396 0.247696 0.239476
0.251682 0.247979 0.239752
0.251968 0.248262 0.240029
0.252253 0.248545 0.240305
0.252539 0.248828 0.240582
0.252824 0.249110 0.240858
0.253109 0.249393 0.241134
0.253394 0.249675 0.241410
0.253679 0.249958 0.241686
0.253964 0.250240 0.241962
0.254249 0.250522 0.242238
0.254534 0.250804 0.242514
0.254818 0.251086 0.242789
0.255103 0.251368 0.243065
0.255387 0.251650 0.243341
0.255671 0.251931 0.243616
0.255956 0.252213 0.243891
0.256240 0.252494 0.244167
0.256524 0.252776 0.244442
0.256807 0.253057 0.244717
0.257091 0.253338 0.244992
0.257375 0.253619 0.245267
0.257658 0.253900 0.245542
0.257942 0.254181 0.245817
0.258225 0.254462 0.246092
0.258508 0.254742 0.246367
0.258792 0.255023 0.246641
0.259075 0.255304 0.246916
0.259358 0.255584 0.247190
0.259641 0.255864 0.247465
0.259923 0.256145 0.247739
0.260206 0.256425 0.248013
0.260489 0.256705 0.248287
0.260771 0.256985 0.248561
0.261053 0.257265 0.248835
0.261336 0.257544 0.249109
0.261618 0.257824 0.249383
0.261900 0.258104 0.249657
0.262182 0.258383 0.249931
0.262464 0.258663 0.250205
0.262746 0.258942 0.250478
0.263027 0.259221 0.250752
0.263309 0.259500 0.251025
0.263590 0.259780 0.251298
