tools/resolve/luts/NIRO Grading/Taxodia 09.26/C0246_e+2.71_r-0.14_b-0.12.cube
TITLE "NIRO BALANCE C0246 e +2.71 R -0.14 B -0.12 (lineare Verstaerkung S-Log3)"
LUT_1D_SIZE 4096
0.000000 0.000000 0.000000
0.000000 0.000000 0.000000
0.000000 0.000000 0.000000
0.000000 0.000000 0.000000
0.000000 0.000000 0.000000
0.000000 0.000000 0.000000
0.000000 0.000000 0.000000
0.000000 0.000000 0.000000
0.000000 0.000000 0.000000
0.000000 0.000000 0.000000
0.000000 0.000000 0.000000
0.000000 0.000000 0.000000
0.000000 0.000000 0.000000
0.000000 0.000000 0.000000
0.000000 0.000000 0.000000
0.000000 0.000000 0.000000
0.000000 0.000000 0.000000
0.000000 0.000000 0.000000
0.000000 0.000000 0.000000
0.000000 0.000000 0.000000
0.000000 0.000000 0.000000
0.000000 0.000000 0.000000
0.000000 0.000000 0.000000
0.000000 0.000000 0.000000
0.000000 0.000000 0.000000
0.000000 0.000000 0.000000
0.000000 0.000000 0.000000
0.000000 0.000000 0.000000
0.000000 0.000000 0.000000
0.000000 0.000000 0.000000
0.000000 0.000000 0.000000
0.000000 0.000000 0.000000
0.000000 0.000000 0.000000
0.000000 0.000000 0.000000
0.000000 0.000000 0.000000
0.000000 0.000000 0.000000
0.000000 0.000000 0.000000
0.000000 0.000000 0.000000
0.000000 0.000000 0.000000
0.000000 0.000000 0.000000
0.000000 0.000000 0.000000
0.000000 0.000000 0.000000
0.000000 0.000000 0.000000
0.000000 0.000000 0.000000
0.000000 0.000000 0.000000
0.000000 0.000000 0.000000
0.000000 0.000000 0.000000
0.000000 0.000000 0.000000
0.000000 0.000000 0.000000
0.000000 0.000000 0.000000
0.000000 0.000000 0.000000
0.000000 0.000000 0.000000
0.000000 0.000000 0.000000
0.000000 0.000000 0.000000
0.000000 0.000000 0.000000
0.000000 0.000000 0.000000
0.000000 0.000000 0.000000
0.000000 0.000000 0.000000
0.000000 0.000000 0.000000
0.000000 0.000000 0.000000
0.000000 0.000000 0.000000
0.000000 0.000000 0.000000
0.000000 0.000000 0.000000
0.000000 0.000000 0.000000
0.000000 0.000000 0.000000
0.000000 0.000000 0.000000
0.000000 0.000000 0.000000
0.000000 0.000000 0.000000
0.000000 0.000000 0.000000
0.000000 0.000000 0.000000
0.000000 0.000000 0.000000
0.000000 0.000000 0.000000
0.000000 0.000000 0.000000
0.000000 0.000000 0.000000
0.000000 0.000000 0.000000
0.000000 0.000000 0.000000
0.000000 0.000000 0.000000
0.000000 0.000000 0.000000
0.000000 0.000000 0.000000
0.000000 0.000000 0.000000
0.000000 0.000000 0.000000
0.000000 0.000000 0.000000
0.000000 0.000000 0.000000
0.000000 0.000000 0.000000
0.000000 0.000000 0.000000
0.000000 0.000000 0.000000
0.000000 0.000000 0.000000
0.000000 0.000000 0.000000
0.000000 0.000000 0.000000
0.000000 0.000000 0.000000
0.000000 0.000000 0.000000
0.000000 0.000000 0.000000
0.000000 0.000000 0.000000
0.000000 0.000000 0.000000
0.000000 0.000000 0.000000
0.000000 0.000000 0.000000
0.000000 0.000000 0.000000
0.000000 0.000000 0.000000
0.000000 0.000000 0.000000
0.000000 0.000000 0.000000
0.000000 0.000000 0.000000
0.000000 0.000000 0.000000
0.000000 0.000000 0.000000
0.000000 0.000000 0.000000
0.000000 0.000000 0.000000
0.000000 0.000000 0.000000
0.000000 0.000000 0.000000
0.000000 0.000000 0.000000
0.000000 0.000000 0.000000
0.000000 0.000000 0.000000
0.000000 0.000000 0.000000
0.000000 0.000000 0.000000
0.000000 0.000000 0.000000
0.000000 0.000000 0.000000
0.000000 0.000000 0.000000
0.000000 0.000000 0.000000
0.000000 0.000000 0.000000
0.000000 0.000000 0.000000
0.000000 0.000000 0.000000
0.000000 0.000000 0.000000
0.000000 0.000000 0.000000
0.000000 0.000000 0.000000
0.000000 0.000000 0.000000
0.000000 0.000000 0.000000
0.000000 0.000000 0.000000
0.000000 0.000000 0.000000
0.000000 0.000000 0.000000
0.000000 0.000000 0.000000
0.000000 0.000000 0.000000
0.000000 0.000000 0.000000
0.000000 0.000000 0.000000
0.000000 0.000000 0.000000
0.000000 0.000000 0.000000
0.000000 0.000000 0.000000
0.000000 0.000000 0.000000
0.000000 0.000000 0.000000
0.000000 0.000000 0.000000
0.000000 0.000000 0.000000
0.000000 0.000000 0.000000
0.000000 0.000000 0.000000
0.000000 0.000000 0.000000
0.000000 0.000000 0.000000
0.000000 0.000000 0.000000
0.000000 0.000000 0.000000
0.000000 0.000000 0.000000
0.000000 0.000000 0.000000
0.000000 0.000000 0.000000
0.000000 0.000000 0.000000
0.000000 0.000000 0.000000
0.000000 0.000000 0.000000
0.000000 0.000000 0.000000
0.000000 0.000000 0.000000
0.000000 0.000000 0.000000
0.000000 0.000000 0.000000
0.000000 0.000000 0.000000
0.000000 0.000000 0.000000
0.000000 0.000000 0.000000
0.000000 0.000000 0.000000
0.000000 0.000000 0.000000
0.000000 0.000000 0.000000
0.000000 0.000000 0.000000
0.000000 0.000000 0.000000
0.000000 0.000000 0.000000
0.000000 0.000000 0.000000
0.000000 0.000000 0.000000
0.000000 0.000000 0.000000
0.000000 0.000000 0.000000
0.000000 0.000000 0.000000
0.000000 0.000000 0.000000
0.000000 0.000000 0.000000
0.000000 0.000000 0.000000
0.000000 0.000000 0.000000
0.000000 0.000000 0.000000
0.000000 0.000000 0.000000
0.000000 0.000000 0.000000
0.000000 0.000000 0.000000
0.000000 0.000000 0.000000
0.000000 0.000000 0.000000
0.000000 0.000000 0.000000
0.000000 0.000000 0.000000
0.000000 0.000000 0.000000
0.000000 0.000000 0.000000
0.000000 0.000000 0.000000
0.000000 0.000000 0.000000
0.000000 0.000000 0.000000
0.000000 0.000000 0.000000
0.000000 0.000000 0.000000
0.000000 0.000000 0.000000
0.000000 0.000000 0.000000
0.000000 0.000000 0.000000
0.000000 0.000000 0.000000
0.000000 0.000000 0.000000
0.000000 0.000000 0.000000
0.000000 0.000000 0.000000
0.000000 0.000000 0.000000
0.000000 0.000000 0.000000
0.000000 0.000000 0.000000
0.000000 0.000000 0.000000
0.000000 0.000000 0.000000
0.000000 0.000000 0.000000
0.000000 0.000000 0.000000
0.000000 0.000000 0.000000
0.000000 0.000000 0.000000
0.000000 0.000000 0.000000
0.000000 0.000000 0.000000
0.000000 0.000000 0.000000
0.000000 0.000000 0.000000
0.000000 0.000000 0.000000
0.000000 0.000000 0.000000
0.000000 0.000000 0.000000
0.000000 0.000000 0.000000
0.000000 0.000000 0.000000
0.000000 0.000000 0.000000
0.000000 0.000000 0.000000
0.000000 0.000000 0.000000
0.000000 0.000000 0.000000
0.000000 0.000000 0.000000
0.000000 0.000000 0.000000
0.000000 0.000000 0.000000
0.000000 0.000000 0.000000
0.000000 0.000000 0.000000
0.000000 0.000000 0.000000
0.000000 0.000000 0.000000
0.000000 0.000000 0.000000
0.000000 0.000000 0.000000
0.000000 0.000000 0.000000
0.000000 0.000000 0.000000
0.000000 0.000000 0.000000
0.000000 0.000000 0.000000
0.000000 0.000000 0.000000
0.000000 0.000000 0.000000
0.000000 0.000000 0.000000
0.000000 0.000000 0.000000
0.000000 0.000000 0.000000
0.000000 0.000000 0.000000
0.000000 0.000000 0.000000
0.000000 0.000000 0.000000
0.000000 0.000000 0.000000
0.000000 0.000000 0.000000
0.000000 0.000000 0.000000
0.000000 0.000000 0.000000
0.000000 0.000000 0.000000
0.000000 0.000000 0.000000
0.000000 0.000000 0.000000
0.000000 0.000000 0.000000
0.000000 0.000000 0.000000
0.000000 0.000000 0.000000
0.000000 0.000000 0.000000
0.000000 0.000000 0.000000
0.000000 0.000000 0.000000
0.000000 0.000000 0.000000
0.000000 0.000000 0.000000
0.000000 0.000000 0.000000
0.000000 0.000000 0.000000
0.000000 0.000000 0.000000
0.000000 0.000000 0.000000
0.000000 0.000000 0.000000
0.000000 0.000000 0.000000
0.000000 0.000000 0.000000
0.000000 0.000000 0.000000
0.000000 0.000000 0.000000
0.000000 0.000000 0.000000
0.000000 0.000000 0.000000
0.000000 0.000000 0.000000
0.000000 0.000000 0.000000
0.000000 0.000000 0.000000
0.000000 0.000000 0.000000
0.000000 0.000000 0.000000
0.000000 0.000000 0.000000
0.000000 0.000000 0.000000
0.000000 0.000000 0.000000
0.000000 0.000000 0.000000
0.000000 0.000000 0.000000
0.000000 0.000000 0.000000
0.000000 0.000000 0.000000
0.000000 0.000000 0.000000
0.000000 0.000000 0.000000
0.000000 0.000000 0.000000
0.000000 0.000000 0.000000
0.000000 0.000000 0.000000
0.000000 0.000000 0.000000
0.000000 0.000000 0.000000
0.000000 0.000000 0.000000
0.000000 0.000000 0.000000
0.000000 0.000000 0.000000
0.000000 0.000000 0.000000
0.000000 0.000000 0.000000
0.000000 0.000000 0.000000
0.000000 0.000000 0.000000
0.000000 0.000000 0.000000
0.000000 0.000000 0.000000
0.000000 0.000000 0.000000
0.000000 0.000000 0.000000
0.000000 0.000000 0.000000
0.000000 0.000000 0.000000
0.000000 0.000000 0.000000
0.000000 0.000000 0.000000
0.000000 0.000000 0.000000
0.000000 0.000000 0.000000
0.000000 0.000000 0.000000
0.000000 0.000000 0.000000
0.000000 0.000000 0.000000
0.000000 0.000000 0.000000
0.000000 0.000000 0.000000
0.000000 0.000000 0.000000
0.000000 0.000000 0.000000
0.000000 0.000000 0.000000
0.000000 0.000000 0.000000
0.000000 0.000000 0.000000
0.000000 0.000000 0.000000
0.000000 0.000000 0.000000
0.000000 0.000000 0.000000
0.000000 0.000000 0.000000
0.000000 0.000000 0.000000
0.000000 0.000000 0.000000
0.000000 0.000000 0.000000
0.000000 0.000000 0.000000
0.000978 0.000000 0.000017
0.002430 0.000000 0.001484
0.003882 0.000000 0.002952
0.005334 0.000000 0.004419
0.006786 0.000000 0.005886
0.008238 0.000000 0.007354
0.009690 0.001531 0.008821
0.011142 0.003126 0.010288
0.012594 0.004720 0.011755
0.014046 0.006315 0.013223
0.015499 0.007909 0.014690
0.016951 0.009504 0.016157
0.018403 0.011099 0.017624
0.019855 0.012693 0.019092
0.021307 0.014288 0.020559
0.022759 0.015882 0.022026
0.024211 0.017477 0.023494
0.025663 0.019071 0.024961
0.027115 0.020666 0.026428
0.028567 0.022260 0.027895
0.030019 0.023855 0.029363
0.031472 0.025449 0.030830
0.032924 0.027044 0.032297
0.034376 0.028638 0.033764
0.035828 0.030233 0.035232
0.037280 0.031828 0.036699
0.038732 0.033422 0.038166
0.040184 0.035017 0.039634
0.041636 0.036611 0.041101
0.043088 0.038206 0.042568
0.044540 0.039800 0.044035
0.045993 0.041395 0.045503
0.047445 0.042989 0.046970
0.048897 0.044584 0.048437
0.050349 0.046178 0.049904
0.051801 0.047773 0.051372
0.053253 0.049367 0.052839
0.054705 0.050962 0.054306
0.056157 0.052557 0.055774
0.057609 0.054151 0.057241
0.059061 0.055746 0.058708
0.060513 0.057340 0.060175
0.061966 0.058935 0.061643
0.063418 0.060529 0.063110
0.064870 0.062124 0.064577
0.066322 0.063718 0.066044
0.067774 0.065313 0.067512
0.069226 0.066907 0.068979
0.070678 0.068502 0.070446
0.072130 0.070096 0.071914
0.073582 0.071691 0.073381
0.075034 0.073285 0.074848
0.076487 0.074880 0.076315
0.077939 0.076475 0.077783
0.079391 0.078069 0.079250
0.080843 0.079664 0.080717
0.082295 0.081258 0.082184
0.083747 0.082853 0.083652
0.085199 0.084447 0.085119
0.086651 0.086042 0.086586
0.088103 0.087636 0.088054
0.089555 0.089231 0.089521
0.091007 0.090825 0.090988
0.092460 0.092420 0.092455
0.093912 0.094014 0.093923
0.095364 0.095609 0.095390
0.096816 0.097204 0.096857
0.098268 0.098798 0.098324
0.099720 0.100393 0.099792
0.101172 0.101987 0.101259
0.102624 0.103582 0.102726
0.104076 0.105176 0.104194
0.105528 0.106771 0.105661
0.106981 0.108365 0.107128
0.108433 0.109960 0.108595
0.109885 0.111554 0.110063
0.111337 0.113149 0.111530
0.112789 0.114743 0.112997
0.114241 0.116338 0.114464
0.115693 0.117932 0.115932
0.117145 0.119527 0.117399
0.118597 0.121122 0.118866
0.120049 0.122716 0.120334
0.121501 0.124311 0.121801
0.122954 0.125905 0.123268
0.124406 0.127500 0.124735
0.125858 0.129094 0.126203
0.127310 0.130689 0.127670
0.128762 0.132283 0.129137
0.130214 0.133878 0.130604
0.131666 0.135472 0.132072
0.133118 0.137067 0.133539
0.134570 0.138661 0.135006
0.136022 0.140256 0.136474
0.137475 0.141851 0.137941
0.138927 0.143445 0.139408
0.140379 0.145040 0.140875
0.141831 0.146634 0.142343
0.143283 0.148229 0.143810
0.144735 0.149823 0.145277
0.146187 0.151418 0.146744
0.147639 0.153012 0.148212
0.149091 0.154607 0.149679
0.150543 0.156201 0.151146
0.151996 0.157796 0.152614
0.153448 0.159390 0.154081
0.154900 0.160985 0.155548
0.156352 0.162579 0.157015
0.157804 0.164174 0.158483
0.159256 0.165769 0.159950
0.160708 0.167363 0.161417
0.162160 0.168614 0.162884
0.163612 0.169850 0.164352
0.165064 0.171074 0.165819
0.166516 0.172284 0.167286
0.167839 0.173481 0.168454
0.168974 0.174665 0.169595
0.170098 0.175837 0.170723
0.171210 0.176996 0.171841
0.172311 0.178143 0.172947
0.173401 0.179279 0.174042
0.174481 0.180403 0.175127
0.175550 0.181516 0.176201
0.176609 0.182618 0.177265
0.177658 0.183709 0.178319
0.178697 0.184790 0.179363
0.179727 0.185860 0.180397
0.180747 0.186919 0.181421
0.181758 0.187969 0.182436
0.182760 0.189009 0.183442
0.183752 0.190039 0.184439
0.184736 0.191060 0.185428
0.185712 0.192072 0.186407
0.186678 0.193074 0.187378
0.187637 0.194068 0.188340
0.188587 0.195052 0.189294
0.189529 0.196028 0.190240
0.190464 0.196996 0.191178
0.191390 0.197955 0.192108
0.192309 0.198906 0.193031
0.193220 0.199848 0.193946
0.194124 0.200783 0.194853
0.195021 0.201710 0.195753
0.195910 0.202630 0.196646
0.196792 0.203542 0.197531
0.197668 0.204446 0.198410
0.198536 0.205343 0.199282
0.199398 0.206233 0.200147
0.200253 0.207116 0.201005
0.201102 0.207992 0.201856
0.201944 0.208861 0.202702
0.202780 0.209723 0.203540
0.203609 0.210578 0.204373
0.204433 0.211428 0.205199
0.205250 0.212270 0.206019
0.206061 0.213106 0.206834
0.206867 0.213936 0.207642
0.207666 0.214760 0.208444
0.208460 0.215578 0.209241
0.209249 0.216390 0.210032
0.210032 0.217196 0.210817
0.210809 0.217996 0.211597
0.211581 0.218790 0.212372
0.212347 0.219579 0.213141
0.213109 0.220362 0.213904
0.213865 0.221140 0.214663
0.214616 0.221912 0.215416
0.215362 0.222679 0.216165
0.216103 0.223441 0.216908
0.216839 0.224197 0.217646
0.217570 0.224949 0.218380
0.218296 0.225695 0.219108
0.219018 0.226436 0.219832
0.219735 0.227173 0.220552
0.220447 0.227904 0.221266
0.221155 0.228631 0.221976
0.221859 0.229353 0.222682
0.222558 0.230071 0.223383
0.223252 0.230783 0.224080
0.223943 0.231492 0.224772
0.224629 0.232195 0.225460
0.225310 0.232895 0.226144
0.225988 0.233589 0.226823
0.226662 0.234280 0.227499
0.227331 0.234966 0.228170
0.227997 0.235649 0.228837
0.228658 0.236327 0.229501
0.229316 0.237000 0.230160
0.229969 0.237670 0.230816
0.230619 0.238336 0.231467
0.231265 0.238998 0.232115
0.231908 0.239656 0.232759
0.232546 0.240310 0.233400
0.233181 0.240960 0.234037
0.233813 0.241606 0.234670
0.234441 0.242249 0.235299
0.235065 0.242888 0.235925
0.235686 0.243523 0.236548
0.236303 0.244155 0.237167
0.236917 0.244783 0.237782
0.237528 0.245407 0.238394
0.238135 0.246028 0.239003
0.238739 0.246646 0.239608
0.239339 0.247260 0.240211
0.239937 0.247871 0.240810
0.240531 0.248478 0.241405
0.241122 0.249082 0.241998
0.241710 0.249683 0.242587
0.242295 0.250281 0.243174
0.242877 0.250875 0.243757
0.243455 0.251467 0.244337
0.244031 0.252055 0.244914
0.244604 0.252640 0.245488
0.245174 0.253222 0.246059
0.245741 0.253801 0.246628
0.246305 0.254377 0.247193
0.246866 0.254950 0.247756
0.247424 0.255520 0.248315
0.247980 0.256087 0.248872
0.248532 0.256651 0.249426
0.249083 0.257213 0.249978
0.249630 0.257771 0.250526
0.250175 0.258327 0.251072
0.250717 0.258880 0.251615
0.251256 0.259430 0.252156
0.251793 0.259978 0.252694
0.252327 0.260523 0.253229
0.252858 0.261065 0.253762
0.253388 0.261604 0.254293
0.253914 0.262141 0.254820
0.254438 0.262676 0.255346
0.254960 0.263208 0.255868
0.255479 0.263737 0.256389
0.255996 0.264264 0.256907
0.256510 0.264788 0.257422
0.257022 0.265310 0.257935
0.257532 0.265829 0.258446
0.258039 0.266346 0.258954
0.258544 0.266861 0.259460
0.259047 0.267373 0.259964
0.259547 0.267883 0.260466
0.260046 0.268390 0.260965
0.260542 0.268895 0.261462
0.261035 0.269398 0.261957
0.261527 0.269899 0.262450
0.262016 0.270397 0.262940
0.262504 0.270893 0.263428
0.262989 0.271387 0.263914
0.263472 0.271879 0.264399
0.263953 0.272369 0.264880
0.264432 0.272856 0.265360
0.264909 0.273341 0.265838
0.265383 0.273825 0.266314
0.265856 0.274306 0.266788
0.266327 0.274785 0.267259
0.266796 0.275262 0.267729
0.267262 0.275737 0.268197
0.267727 0.276209 0.268662
0.268190 0.276680 0.269126
0.268651 0.277149 0.269588
0.269110 0.277616 0.270048
0.269567 0.278081 0.270506
0.270023 0.278544 0.270962
0.270476 0.279005 0.271417
0.270928 0.279465 0.271869
0.271377 0.279922 0.272320
0.271825 0.280377 0.272769
0.272272 0.280831 0.273216
0.272716 0.281283 0.273661
0.273159 0.281733 0.274104
0.273599 0.282181 0.274546
0.274038 0.282627 0.274986
0.274476 0.283071 0.275424
0.274912 0.283514 0.275860
0.275345 0.283955 0.276295
0.275778 0.284394 0.276728
0.276208 0.284832 0.277160
0.276637 0.285268 0.277589
0.277064 0.285702 0.278017
0.277490 0.286134 0.278444
0.277914 0.286565 0.278869
0.278337 0.286994 0.279292
0.278757 0.287421 0.279713
0.279177 0.287847 0.280133
0.279594 0.288271 0.280552
0.280010 0.288694 0.280968
0.280425 0.289115 0.281384
0.280838 0.289534 0.281797
0.281249 0.289952 0.282209
0.281659 0.290368 0.282620
0.282067 0.290782 0.283029
0.282474 0.291195 0.283437
0.282880 0.291607 0.283843
0.283284 0.292017 0.284248
0.283686 0.292426 0.284651
0.284087 0.292833 0.285052
0.284487 0.293238 0.285453
0.284885 0.293642 0.285852
0.285282 0.294045 0.286249
0.285677 0.294446 0.286645
0.286071 0.294846 0.287040
0.286463 0.295244 0.287433
0.286855 0.295641 0.287825
0.287244 0.296036 0.288215
0.287633 0.296430 0.288604
0.288020 0.296823 0.288992
0.288406 0.297214 0.289378
0.288790 0.297604 0.289763
0.289173 0.297992 0.290147
0.289555 0.298380 0.290529
0.289935 0.298765 0.290910
0.290314 0.299150 0.291290
0.290692 0.299533 0.291668
0.291069 0.299915 0.292045
0.291444 0.300295 0.292421
0.291818 0.300674 0.292796
0.292191 0.301052 0.293169
0.292562 0.301429 0.293541
0.292932 0.301804 0.293912
0.293301 0.302179 0.294282
0.293669 0.302551 0.294650
0.294036 0.302923 0.295017
0.294401 0.303293 0.295383
0.294765 0.303662 0.295748
0.295128 0.304030 0.296112
0.295490 0.304397 0.296474
0.295851 0.304762 0.296835
0.296210 0.305127 0.297195
0.296569 0.305490 0.297554
0.296926 0.305852 0.297912
0.297282 0.306213 0.298268
0.297637 0.306572 0.298624
0.297990 0.306930 0.298978
0.298343 0.307288 0.299331
0.298695 0.307644 0.299683
0.299045 0.307999 0.300034
0.299394 0.308353 0.300384
0.299742 0.308705 0.300733
0.300090 0.309057 0.301080
0.300436 0.309407 0.301427
0.300781 0.309757 0.301772
0.301124 0.310105 0.302117
0.301467 0.310452 0.302460
0.301809 0.310798 0.302802
0.302150 0.311143 0.303143
0.302489 0.311487 0.303484
0.302828 0.311830 0.303823
0.303166 0.312172 0.304161
0.303502 0.312513 0.304498
0.303838 0.312853 0.304834
0.304172 0.313191 0.305169
0.304506 0.313529 0.305503
0.304839 0.313866 0.305836
0.305170 0.314201 0.306168
0.305501 0.314536 0.306499
0.305830 0.314870 0.306829
0.306159 0.315202 0.307158
0.306487 0.315534 0.307486
0.306813 0.315865 0.307813
0.307139 0.316194 0.308140
0.307464 0.316523 0.308465
0.307788 0.316851 0.308789
0.308110 0.317177 0.309112
0.308432 0.317503 0.309435
0.308753 0.317828 0.309756
0.309073 0.318152 0.310077
0.309393 0.318475 0.310396
0.309711 0.318797 0.310715
0.310028 0.319118 0.311033
0.310400 0.319494 0.311406
0.310801 0.319900 0.311807
0.311201 0.320304 0.312207
0.311601 0.320709 0.312607
0.312000 0.321112 0.313007
0.312398 0.321515 0.313406
0.312796 0.321918 0.313804
0.313193 0.322319 0.314202
0.313590 0.322721 0.314599
0.313986 0.323121 0.314996
0.314382 0.323522 0.315392
0.314777 0.323921 0.315788
0.315171 0.324320 0.316183
0.315565 0.324719 0.316577
0.315959 0.325117 0.316971
0.316352 0.325514 0.317365
0.316744 0.325911 0.317758
0.317136 0.326307 0.318150
0.317528 0.326703 0.318542
0.317919 0.327098 0.318934
0.318309 0.327493 0.319324
0.318699 0.327887 0.319715
0.319088 0.328280 0.320105
0.319477 0.328673 0.320494
0.319865 0.329066 0.320883
0.320253 0.329458 0.321271
0.320641 0.329849 0.321659
0.321028 0.330240 0.322046
0.321414 0.330631 0.322433
0.321800 0.331021 0.322819
0.322185 0.331410 0.323205
0.322570 0.331799 0.323591
0.322954 0.332188 0.323976
0.323338 0.332575 0.324360
0.323722 0.332963 0.324744
0.324105 0.333350 0.325127
0.324487 0.333736 0.325510
0.324869 0.334122 0.325893
0.325251 0.334508 0.326275
0.325632 0.334893 0.326656
0.326012 0.335277 0.327037
0.326392 0.335661 0.327418
0.326772 0.336045 0.327798
0.327151 0.336428 0.328177
0.327530 0.336810 0.328557
0.327908 0.337192 0.328935
0.328286 0.337574 0.329313
0.328663 0.337955 0.329691
0.329040 0.338335 0.330069
0.329417 0.338716 0.330446
0.329793 0.339095 0.330822
0.330168 0.339475 0.331198
0.330544 0.339853 0.331573
0.330918 0.340232 0.331949
0.331292 0.340610 0.332323
0.331666 0.340987 0.332697
0.332040 0.341364 0.333071
0.332413 0.341741 0.333445
0.332785 0.342117 0.333818
0.333157 0.342492 0.334190
0.333529 0.342867 0.334562
0.333900 0.343242 0.334934
0.334271 0.343617 0.335305
0.334641 0.343990 0.335676
0.335011 0.344364 0.336046
0.335381 0.344737 0.336416
0.335750 0.345109 0.336786
0.336119 0.345482 0.337155
0.336487 0.345853 0.337523
0.336855 0.346225 0.337892
0.337222 0.346595 0.338259
0.337589 0.346966 0.338627
0.337956 0.347336 0.338994
0.338322 0.347705 0.339361
0.338688 0.348075 0.339727
0.339054 0.348443 0.340093
0.339419 0.348812 0.340458
0.339783 0.349180 0.340823
0.340148 0.349547 0.341188
0.340511 0.349914 0.341552
0.340875 0.350281 0.341916
0.341238 0.350647 0.342279
0.341601 0.351013 0.342642
0.341963 0.351379 0.343005
0.342325 0.351744 0.343367
0.342687 0.352109 0.343729
0.343048 0.352473 0.344091
0.343409 0.352837 0.344452
0.343769 0.353200 0.344813
0.344129 0.353564 0.345173
0.344489 0.353926 0.345533
0.344848 0.354289 0.345893
0.345207 0.354651 0.346252
0.345565 0.355012 0.346611
0.345924 0.355374 0.346970
0.346281 0.355734 0.347328
0.346639 0.356095 0.347686
0.346996 0.356455 0.348043
0.347353 0.356815 0.348400
0.347709 0.357174 0.348757
0.348065 0.357533 0.349113
0.348421 0.357892 0.349469
0.348776 0.358250 0.349825
0.349131 0.358608 0.350180
0.349485 0.358965 0.350535
0.349840 0.359322 0.350889
0.350194 0.359679 0.351244
0.350547 0.360035 0.351597
0.350900 0.360391 0.351951
0.351253 0.360747 0.352304
0.351606 0.361103 0.352657
0.351958 0.361458 0.353009
0.352310 0.361812 0.353362
0.352661 0.362166 0.353713
0.353012 0.362520 0.354065
0.353363 0.362874 0.354416
0.353713 0.363227 0.354767
0.354063 0.363580 0.355117
0.354413 0.363933 0.355467
0.354763 0.364285 0.355817
0.355112 0.364637 0.356166
0.355461 0.364988 0.356516
0.355809 0.365339 0.356864
0.356157 0.365690 0.357213
0.356505 0.366041 0.357561
0.356853 0.366391 0.357909
0.357200 0.366741 0.358256
0.357547 0.367090 0.358603
0.357893 0.367439 0.358950
0.358239 0.367788 0.359297
0.358585 0.368137 0.359643
0.358931 0.368485 0.359989
0.359276 0.368833 0.360334
0.359621 0.369180 0.360680
0.359966 0.369527 0.361024
0.360310 0.369874 0.361369
0.360654 0.370221 0.361713
0.360998 0.370567 0.362057
0.361341 0.370913 0.362401
0.361684 0.371259 0.362744
0.362027 0.371604 0.363087
0.362369 0.371949 0.363430
0.362712 0.372294 0.363773
0.363053 0.372638 0.364115
0.363395 0.372982 0.364457
0.363736 0.373326 0.364798
0.364077 0.373669 0.365140
0.364418 0.374012 0.365481
0.364758 0.374355 0.365821
0.365098 0.374698 0.366162
0.365438 0.375040 0.366502
0.365778 0.375382 0.366841
0.366117 0.375723 0.367181
0.366456 0.376065 0.367520
0.366794 0.376406 0.367859
0.367133 0.376746 0.368198
0.367471 0.377087 0.368536
0.367809 0.377427 0.368874
0.368146 0.377767 0.369212
0.368483 0.378106 0.369549
0.368820 0.378446 0.369886
0.369157 0.378785 0.370223
0.369493 0.379123 0.370560
0.369829 0.379462 0.370896
0.370165 0.379800 0.371232
0.370501 0.380138 0.371568
0.370836 0.380475 0.371904
0.371171 0.380812 0.372239
0.371506 0.381149 0.372574
0.371840 0.381486 0.372909
0.372174 0.381822 0.373243
0.372508 0.382159 0.373577
0.372842 0.382494 0.373911
0.373175 0.382830 0.374245
0.373508 0.383165 0.374578
0.373841 0.383500 0.374911
0.374174 0.383835 0.375244
0.374506 0.384170 0.375577
0.374838 0.384504 0.375909
0.375170 0.384838 0.376241
0.375501 0.385171 0.376573
0.375833 0.385505 0.376904
0.376164 0.385838 0.377235
0.376494 0.386171 0.377566
0.376825 0.386503 0.377897
0.377155 0.386836 0.378227
0.377485 0.387168 0.378558
0.377815 0.387500 0.378888
0.378144 0.387831 0.379217
0.378473 0.388162 0.379547
0.378802 0.388493 0.379876
0.379131 0.388824 0.380205
0.379459 0.389155 0.380534
0.379788 0.389485 0.380862
0.380116 0.389815 0.381190
0.380443 0.390145 0.381518
0.380771 0.390474 0.381846
0.381098 0.390803 0.382173
0.381425 0.391132 0.382501
