tools/resolve/luts/NIRO Grading/Taxodia 09.26/C0242_e+2.76_r+0.15_b-0.40.cube
TITLE "NIRO BALANCE C0242 e +2.76 R +0.15 B -0.40 (lineare Verstaerkung S-Log3)"
LUT_1D_SIZE 4096
0.000000 0.000000 0.000000
0.000000 0.000000 0.000000
0.000000 0.000000 0.000000
0.000000 0.000000 0.000000
0.000000 0.000000 0.000000
0.000000 0.000000 0.000000
0.000000 0.000000 0.000000
0.000000 0.000000 0.000000
0.000000 0.000000 0.000000
0.000000 0.000000 0.000000
0.000000 0.000000 0.000000
0.000000 0.000000 0.000000
0.000000 0.000000 0.000000
0.000000 0.000000 0.000000
0.000000 0.000000 0.000000
0.000000 0.000000 0.000000
0.000000 0.000000 0.000000
0.000000 0.000000 0.000000
0.000000 0.000000 0.000000
0.000000 0.000000 0.000000
0.000000 0.000000 0.000000
0.000000 0.000000 0.000000
0.000000 0.000000 0.000000
0.000000 0.000000 0.000000
0.000000 0.000000 0.000000
0.000000 0.000000 0.000000
0.000000 0.000000 0.000000
0.000000 0.000000 0.000000
0.000000 0.000000 0.000000
0.000000 0.000000 0.000000
0.000000 0.000000 0.000000
0.000000 0.000000 0.000000
0.000000 0.000000 0.000000
0.000000 0.000000 0.000000
0.000000 0.000000 0.000000
0.000000 0.000000 0.000000
0.000000 0.000000 0.000000
0.000000 0.000000 0.000000
0.000000 0.000000 0.000000
0.000000 0.000000 0.000000
0.000000 0.000000 0.000000
0.000000 0.000000 0.000000
0.000000 0.000000 0.000000
0.000000 0.000000 0.000000
0.000000 0.000000 0.000000
0.000000 0.000000 0.000000
0.000000 0.000000 0.000000
0.000000 0.000000 0.000000
0.000000 0.000000 0.000000
0.000000 0.000000 0.000000
0.000000 0.000000 0.000000
0.000000 0.000000 0.000000
0.000000 0.000000 0.000000
0.000000 0.000000 0.000000
0.000000 0.000000 0.000000
0.000000 0.000000 0.000000
0.000000 0.000000 0.000000
0.000000 0.000000 0.000000
0.000000 0.000000 0.000000
0.000000 0.000000 0.000000
0.000000 0.000000 0.000000
0.000000 0.000000 0.000000
0.000000 0.000000 0.000000
0.000000 0.000000 0.000000
0.000000 0.000000 0.000000
0.000000 0.000000 0.000000
0.000000 0.000000 0.000000
0.000000 0.000000 0.000000
0.000000 0.000000 0.000000
0.000000 0.000000 0.000000
0.000000 0.000000 0.000000
0.000000 0.000000 0.000000
0.000000 0.000000 0.000000
0.000000 0.000000 0.000000
0.000000 0.000000 0.000000
0.000000 0.000000 0.000000
0.000000 0.000000 0.000000
0.000000 0.000000 0.000000
0.000000 0.000000 0.000000
0.000000 0.000000 0.000000
0.000000 0.000000 0.000000
0.000000 0.000000 0.000000
0.000000 0.000000 0.000000
0.000000 0.000000 0.000000
0.000000 0.000000 0.000000
0.000000 0.000000 0.000000
0.000000 0.000000 0.000000
0.000000 0.000000 0.000000
0.000000 0.000000 0.000000
0.000000 0.000000 0.000000
0.000000 0.000000 0.000000
0.000000 0.000000 0.000000
0.000000 0.000000 0.000000
0.000000 0.000000 0.000000
0.000000 0.000000 0.000000
0.000000 0.000000 0.000000
0.000000 0.000000 0.000000
0.000000 0.000000 0.000000
0.000000 0.000000 0.000000
0.000000 0.000000 0.000000
0.000000 0.000000 0.000000
0.000000 0.000000 0.000000
0.000000 0.000000 0.000000
0.000000 0.000000 0.000000
0.000000 0.000000 0.000000
0.000000 0.000000 0.000000
0.000000 0.000000 0.000000
0.000000 0.000000 0.000000
0.000000 0.000000 0.000000
0.000000 0.000000 0.000000
0.000000 0.000000 0.000000
0.000000 0.000000 0.000000
0.000000 0.000000 0.000000
0.000000 0.000000 0.000000
0.000000 0.000000 0.000000
0.000000 0.000000 0.000000
0.000000 0.000000 0.000000
0.000000 0.000000 0.000000
0.000000 0.000000 0.000000
0.000000 0.000000 0.000000
0.000000 0.000000 0.000000
0.000000 0.000000 0.000000
0.000000 0.000000 0.000000
0.000000 0.000000 0.000000
0.000000 0.000000 0.000000
0.000000 0.000000 0.000000
0.000000 0.000000 0.000000
0.000000 0.000000 0.000000
0.000000 0.000000 0.000000
0.000000 0.000000 0.000000
0.000000 0.000000 0.000000
0.000000 0.000000 0.000000
0.000000 0.000000 0.000000
0.000000 0.000000 0.000000
0.000000 0.000000 0.000000
0.000000 0.000000 0.000000
0.000000 0.000000 0.000000
0.000000 0.000000 0.000000
0.000000 0.000000 0.000000
0.000000 0.000000 0.000000
0.000000 0.000000 0.000000
0.000000 0.000000 0.000000
0.000000 0.000000 0.000000
0.000000 0.000000 0.000000
0.000000 0.000000 0.000000
0.000000 0.000000 0.000000
0.000000 0.000000 0.000000
0.000000 0.000000 0.000000
0.000000 0.000000 0.000000
0.000000 0.000000 0.000000
0.000000 0.000000 0.000000
0.000000 0.000000 0.000000
0.000000 0.000000 0.000000
0.000000 0.000000 0.000000
0.000000 0.000000 0.000000
0.000000 0.000000 0.000000
0.000000 0.000000 0.000000
0.000000 0.000000 0.000000
0.000000 0.000000 0.000000
0.000000 0.000000 0.000000
0.000000 0.000000 0.000000
0.000000 0.000000 0.000000
0.000000 0.000000 0.000000
0.000000 0.000000 0.000000
0.000000 0.000000 0.000000
0.000000 0.000000 0.000000
0.000000 0.000000 0.000000
0.000000 0.000000 0.000000
0.000000 0.000000 0.000000
0.000000 0.000000 0.000000
0.000000 0.000000 0.000000
0.000000 0.000000 0.000000
0.000000 0.000000 0.000000
0.000000 0.000000 0.000000
0.000000 0.000000 0.000000
0.000000 0.000000 0.000000
0.000000 0.000000 0.000000
0.000000 0.000000 0.000000
0.000000 0.000000 0.000000
0.000000 0.000000 0.000000
0.000000 0.000000 0.000000
0.000000 0.000000 0.000000
0.000000 0.000000 0.000000
0.000000 0.000000 0.000000
0.000000 0.000000 0.000000
0.000000 0.000000 0.000000
0.000000 0.000000 0.000000
0.000000 0.000000 0.000000
0.000000 0.000000 0.000000
0.000000 0.000000 0.000000
0.000000 0.000000 0.000000
0.000000 0.000000 0.000000
0.000000 0.000000 0.000000
0.000000 0.000000 0.000000
0.000000 0.000000 0.000000
0.000000 0.000000 0.000000
0.000000 0.000000 0.000000
0.000000 0.000000 0.000000
0.000000 0.000000 0.000000
0.000000 0.000000 0.000000
0.000000 0.000000 0.000000
0.000000 0.000000 0.000000
0.000000 0.000000 0.000000
0.000000 0.000000 0.000000
0.000000 0.000000 0.000000
0.000000 0.000000 0.000000
0.000000 0.000000 0.000000
0.000000 0.000000 0.000000
0.000000 0.000000 0.000000
0.000000 0.000000 0.000000
0.000000 0.000000 0.000000
0.000000 0.000000 0.000000
0.000000 0.000000 0.000000
0.000000 0.000000 0.000000
0.000000 0.000000 0.000000
0.000000 0.000000 0.000000
0.000000 0.000000 0.000000
0.000000 0.000000 0.000000
0.000000 0.000000 0.000000
0.000000 0.000000 0.000000
0.000000 0.000000 0.000000
0.000000 0.000000 0.000000
0.000000 0.000000 0.000000
0.000000 0.000000 0.000000
0.000000 0.000000 0.000000
0.000000 0.000000 0.000000
0.000000 0.000000 0.000000
0.000000 0.000000 0.000000
0.000000 0.000000 0.000000
0.000000 0.000000 0.000000
0.000000 0.000000 0.000000
0.000000 0.000000 0.000000
0.000000 0.000000 0.000000
0.000000 0.000000 0.000000
0.000000 0.000000 0.000000
0.000000 0.000000 0.000000
0.000000 0.000000 0.000000
0.000000 0.000000 0.000000
0.000000 0.000000 0.000000
0.000000 0.000000 0.000000
0.000000 0.000000 0.000000
0.000000 0.000000 0.000000
0.000000 0.000000 0.000000
0.000000 0.000000 0.000000
0.000000 0.000000 0.000000
0.000000 0.000000 0.000000
0.000000 0.000000 0.000000
0.000000 0.000000 0.000000
0.000000 0.000000 0.000000
0.000000 0.000000 0.000000
0.000000 0.000000 0.000000
0.000000 0.000000 0.000000
0.000000 0.000000 0.000000
0.000000 0.000000 0.000000
0.000000 0.000000 0.000000
0.000000 0.000000 0.000000
0.000000 0.000000 0.000000
0.000000 0.000000 0.000000
0.000000 0.000000 0.000000
0.000000 0.000000 0.000000
0.000000 0.000000 0.000000
0.000000 0.000000 0.000000
0.000000 0.000000 0.000000
0.000000 0.000000 0.000000
0.000000 0.000000 0.000000
0.000000 0.000000 0.000000
0.000000 0.000000 0.000000
0.000000 0.000000 0.000000
0.000000 0.000000 0.000000
0.000000 0.000000 0.000000
0.000000 0.000000 0.000000
0.000000 0.000000 0.000000
0.000000 0.000000 0.000000
0.000000 0.000000 0.000000
0.000000 0.000000 0.000000
0.000000 0.000000 0.000000
0.000000 0.000000 0.000000
0.000000 0.000000 0.000000
0.000000 0.000000 0.000000
0.000000 0.000000 0.000000
0.000000 0.000000 0.000000
0.000000 0.000000 0.000000
0.000000 0.000000 0.000000
0.000000 0.000000 0.000000
0.000000 0.000000 0.000000
0.000000 0.000000 0.000000
0.000000 0.000000 0.000000
0.000000 0.000000 0.000000
0.000000 0.000000 0.000000
0.000000 0.000000 0.000000
0.000000 0.000000 0.000000
0.000000 0.000000 0.000000
0.000000 0.000000 0.000000
0.000000 0.000000 0.000000
0.000000 0.000000 0.000000
0.000000 0.000000 0.000000
0.000000 0.000000 0.000000
0.000000 0.000000 0.000000
0.000000 0.000000 0.000000
0.000000 0.000000 0.000000
0.000000 0.000000 0.000000
0.000000 0.000000 0.000000
0.000000 0.000000 0.000000
0.000000 0.000000 0.000000
0.000000 0.000000 0.000000
0.000000 0.000000 0.000000
0.000000 0.000000 0.000000
0.000000 0.000000 0.000998
0.000000 0.000000 0.002252
0.000000 0.000000 0.003506
0.000000 0.000000 0.004759
0.000000 0.000000 0.006013
0.000000 0.000000 0.007267
0.000000 0.000000 0.008520
0.000000 0.000000 0.009774
0.000000 0.000000 0.011028
0.000000 0.000000 0.012281
0.000000 0.000000 0.013535
0.000000 0.000000 0.014788
0.000000 0.000000 0.016042
0.000000 0.000000 0.017296
0.000000 0.000000 0.018549
0.000000 0.000000 0.019803
0.000000 0.000000 0.021057
0.000000 0.000000 0.022310
0.000000 0.001295 0.023564
0.000000 0.002952 0.024818
0.000000 0.004608 0.026071
0.000000 0.006265 0.027325
0.000000 0.007921 0.028579
0.000452 0.009578 0.029832
0.002290 0.011234 0.031086
0.004128 0.012891 0.032340
0.005966 0.014547 0.033593
0.007804 0.016204 0.034847
0.009642 0.017860 0.036101
0.011480 0.019517 0.037354
0.013318 0.021173 0.038608
0.015156 0.022830 0.039861
0.016994 0.024486 0.041115
0.018832 0.026143 0.042369
0.020670 0.027799 0.043622
0.022508 0.029456 0.044876
0.024346 0.031112 0.046130
0.026184 0.032769 0.047383
0.028022 0.034425 0.048637
0.029860 0.036082 0.049891
0.031698 0.037738 0.051144
0.033536 0.039395 0.052398
0.035374 0.041051 0.053652
0.037212 0.042708 0.054905
0.039050 0.044364 0.056159
0.040888 0.046021 0.057413
0.042726 0.047677 0.058666
0.044564 0.049334 0.059920
0.046402 0.050990 0.061174
0.048240 0.052647 0.062427
0.050078 0.054303 0.063681
0.051916 0.055960 0.064935
0.053754 0.057616 0.066188
0.055592 0.059273 0.067442
0.057430 0.060929 0.068695
0.059268 0.062586 0.069949
0.061106 0.064242 0.071203
0.062944 0.065899 0.072456
0.064782 0.067555 0.073710
0.066620 0.069212 0.074964
0.068458 0.070868 0.076217
0.070296 0.072525 0.077471
0.072134 0.074181 0.078725
0.073972 0.075838 0.079978
0.075810 0.077494 0.081232
0.077648 0.079151 0.082486
0.079486 0.080807 0.083739
0.081324 0.082464 0.084993
0.083162 0.084120 0.086247
0.085000 0.085777 0.087500
0.086838 0.087433 0.088754
0.088676 0.089090 0.090008
0.090514 0.090746 0.091261
0.092352 0.092403 0.092515
0.094190 0.094059 0.093769
0.096028 0.095716 0.095022
0.097866 0.097372 0.096276
0.099704 0.099029 0.097529
0.101542 0.100685 0.098783
0.103380 0.102342 0.100037
0.105218 0.103998 0.101290
0.107056 0.105655 0.102544
0.108894 0.107311 0.103798
0.110732 0.108968 0.105051
0.112570 0.110624 0.106305
0.114408 0.112281 0.107559
0.116246 0.113937 0.108812
0.118084 0.115594 0.110066
0.119922 0.117250 0.111320
0.121760 0.118907 0.112573
0.123598 0.120563 0.113827
0.125436 0.122220 0.115081
0.127274 0.123876 0.116334
0.129112 0.125533 0.117588
0.130950 0.127189 0.118842
0.132788 0.128846 0.120095
0.134626 0.130502 0.121349
0.136464 0.132159 0.122603
0.138302 0.133815 0.123856
0.140140 0.135472 0.125110
0.141978 0.137128 0.126363
0.143816 0.138785 0.127617
0.145654 0.140441 0.128871
0.147492 0.142098 0.130124
0.149330 0.143754 0.131378
0.151168 0.145411 0.132632
0.153006 0.147067 0.133885
0.154844 0.148724 0.135139
0.156682 0.150380 0.136393
0.158520 0.152037 0.137646
0.160358 0.153693 0.138900
0.162196 0.155350 0.140154
0.164034 0.157006 0.141407
0.165872 0.158663 0.142661
0.167636 0.160319 0.143915
0.169073 0.161976 0.145168
0.170492 0.163632 0.146422
0.171893 0.165289 0.147676
0.173276 0.166945 0.148929
0.174642 0.168335 0.150183
0.175992 0.169623 0.151436
0.177326 0.170897 0.152690
0.178643 0.172155 0.153944
0.179946 0.173400 0.155197
0.181233 0.174631 0.156451
0.182505 0.175848 0.157705
0.183763 0.177052 0.158958
0.185007 0.178243 0.160212
0.186237 0.179422 0.161466
0.187454 0.180588 0.162719
0.188657 0.181742 0.163973
0.189848 0.182884 0.165227
0.191026 0.184015 0.166480
0.192191 0.185134 0.167655
0.193345 0.186242 0.168637
0.194486 0.187339 0.169610
0.195616 0.188425 0.170575
0.196735 0.189501 0.171532
0.197842 0.190566 0.172481
0.198939 0.191622 0.173421
0.200024 0.192667 0.174354
0.201100 0.193703 0.175278
0.202164 0.194729 0.176196
0.203219 0.195745 0.177105
0.204264 0.196753 0.178007
0.205299 0.197751 0.178902
0.206325 0.198741 0.179790
0.207341 0.199721 0.180671
0.208348 0.200694 0.181545
0.209346 0.201657 0.182412
0.210335 0.202613 0.183272
0.211315 0.203560 0.184126
0.212287 0.204499 0.184973
0.213250 0.205431 0.185814
0.214205 0.206354 0.186648
0.215152 0.207270 0.187476
0.216091 0.208179 0.188298
0.217022 0.209080 0.189115
0.217945 0.209974 0.189925
0.218860 0.210860 0.190729
0.219768 0.211740 0.191527
0.220669 0.212613 0.192320
0.221563 0.213479 0.193107
0.222449 0.214338 0.193889
0.223328 0.215191 0.194665
0.224201 0.216037 0.195435
0.225066 0.216877 0.196201
0.225925 0.217710 0.196961
0.226778 0.218537 0.197716
0.227623 0.219359 0.198466
0.228463 0.220174 0.199211
0.229296 0.220983 0.199951
0.230123 0.221786 0.200686
0.230944 0.222584 0.201416
0.231759 0.223375 0.202141
0.232567 0.224162 0.202862
0.233370 0.224942 0.203578
0.234168 0.225718 0.204289
0.234959 0.226488 0.204996
0.235745 0.227252 0.205699
0.236526 0.228012 0.206397
0.237301 0.228766 0.207090
0.238070 0.229515 0.207780
0.238835 0.230259 0.208465
0.239594 0.230998 0.209146
0.240348 0.231732 0.209822
0.241096 0.232462 0.210495
0.241840 0.233186 0.211164
0.242579 0.233906 0.211828
0.243313 0.234622 0.212489
0.244042 0.235332 0.213146
0.244767 0.236039 0.213798
0.245486 0.236740 0.214447
0.246201 0.237438 0.215093
0.246912 0.238131 0.215734
0.247618 0.238819 0.216372
0.248319 0.239504 0.217006
0.249017 0.240184 0.217637
0.249709 0.240860 0.218264
0.250398 0.241532 0.218888
0.251082 0.242200 0.219508
0.251762 0.242864 0.220124
0.252438 0.243524 0.220737
0.253110 0.244180 0.221347
0.253777 0.244833 0.221954
0.254441 0.245481 0.222557
0.255101 0.246126 0.223157
0.255757 0.246767 0.223754
0.256409 0.247404 0.224347
0.257057 0.248038 0.224938
0.257702 0.248668 0.225525
0.258343 0.249294 0.226109
0.258980 0.249917 0.226690
0.259613 0.250537 0.227268
0.260243 0.251153 0.227843
0.260869 0.251765 0.228415
0.261492 0.252375 0.228984
0.262112 0.252981 0.229551
0.262727 0.253583 0.230114
0.263340 0.254183 0.230675
0.263949 0.254779 0.231232
0.264555 0.255372 0.231787
0.265157 0.255962 0.232340
0.265757 0.256549 0.232889
0.266353 0.257133 0.233436
0.266946 0.257713 0.233980
0.267535 0.258291 0.234521
0.268122 0.258865 0.235060
0.268705 0.259437 0.235596
0.269286 0.260006 0.236130
0.269863 0.260572 0.236661
0.270438 0.261135 0.237190
0.271009 0.261695 0.237716
0.271578 0.262252 0.238239
0.272144 0.262807 0.238760
0.272706 0.263358 0.239279
0.273266 0.263907 0.239795
0.273824 0.264454 0.240309
0.274378 0.264997 0.240820
0.274930 0.265538 0.241330
0.275478 0.266077 0.241836
0.276025 0.266613 0.242341
0.276568 0.267146 0.242843
0.277109 0.267676 0.243343
0.277647 0.268205 0.243841
0.278183 0.268730 0.244336
0.278716 0.269253 0.244830
0.279247 0.269774 0.245321
0.279775 0.270292 0.245810
0.280300 0.270808 0.246297
0.280823 0.271322 0.246781
0.281344 0.271833 0.247264
0.281862 0.272342 0.247744
0.282378 0.272848 0.248223
0.282891 0.273352 0.248699
0.283402 0.273854 0.249174
0.283911 0.274354 0.249646
0.284417 0.274851 0.250116
0.284921 0.275346 0.250584
0.285423 0.275839 0.251051
0.285922 0.276330 0.251515
0.286420 0.276819 0.251978
0.286915 0.277305 0.252438
0.287408 0.277790 0.252897
0.287898 0.278272 0.253354
0.288387 0.278752 0.253809
0.288873 0.279230 0.254262
0.289357 0.279706 0.254713
0.289840 0.280180 0.255162
0.290320 0.280652 0.255610
0.290798 0.281122 0.256056
0.291274 0.281590 0.256500
0.291747 0.282056 0.256942
0.292219 0.282520 0.257382
0.292689 0.282983 0.257821
0.293157 0.283443 0.258258
0.293623 0.283901 0.258693
0.294087 0.284358 0.259127
0.294549 0.284812 0.259559
0.295009 0.285265 0.259989
0.295468 0.285716 0.260417
0.295924 0.286165 0.260844
0.296379 0.286612 0.261270
0.296831 0.287058 0.261693
0.297282 0.287502 0.262115
0.297731 0.287944 0.262536
0.298178 0.288384 0.262955
0.298624 0.288822 0.263372
0.299067 0.289259 0.263788
0.299509 0.289694 0.264202
0.299949 0.290127 0.264614
0.300388 0.290559 0.265026
0.300824 0.290989 0.265435
0.301259 0.291417 0.265843
0.301692 0.291844 0.266250
0.302124 0.292269 0.266655
0.302554 0.292692 0.267059
0.302982 0.293114 0.267461
0.303409 0.293534 0.267861
0.303833 0.293953 0.268261
0.304257 0.294370 0.268659
0.304679 0.294785 0.269055
0.305099 0.295199 0.269450
0.305517 0.295612 0.269844
0.305934 0.296023 0.270236
0.306350 0.296432 0.270627
0.306763 0.296840 0.271016
0.307176 0.297246 0.271404
0.307586 0.297651 0.271791
0.307996 0.298054 0.272176
0.308404 0.298456 0.272560
0.308810 0.298857 0.272943
0.309215 0.299256 0.273325
0.309618 0.299653 0.273705
0.310020 0.300050 0.274084
0.310420 0.300444 0.274461
0.310819 0.300838 0.274837
0.311217 0.301230 0.275212
0.311613 0.301621 0.275586
0.312008 0.302010 0.275959
0.312401 0.302398 0.276330
0.312793 0.302784 0.276700
0.313183 0.303169 0.277069
0.313573 0.303553 0.277436
0.313960 0.303936 0.277802
0.314347 0.304317 0.278168
0.314732 0.304697 0.278532
0.315116 0.305076 0.278894
0.315498 0.305453 0.279256
0.315879 0.305829 0.279616
0.316259 0.306204 0.279975
0.316638 0.306577 0.280334
0.317015 0.306950 0.280690
0.317391 0.307321 0.281046
0.317766 0.307691 0.281401
0.318139 0.308059 0.281754
0.318512 0.308426 0.282107
0.318883 0.308793 0.282458
0.319252 0.309158 0.282808
0.319621 0.309521 0.283157
0.319988 0.309884 0.283505
0.320354 0.310245 0.283852
0.320719 0.310605 0.284198
0.321083 0.310964 0.284543
0.321445 0.311322 0.284886
0.321807 0.311679 0.285229
0.322167 0.312035 0.285570
0.322526 0.312389 0.285911
0.322884 0.312742 0.286250
0.323240 0.313095 0.286589
0.323596 0.313446 0.286926
0.323950 0.313796 0.287262
0.324303 0.314145 0.287598
0.324656 0.314492 0.287932
0.325007 0.314839 0.288265
0.325357 0.315185 0.288598
0.325705 0.315529 0.288929
0.326053 0.315873 0.289260
0.326400 0.316215 0.289589
0.326745 0.316557 0.289917
0.327090 0.316897 0.290245
0.327433 0.317236 0.290571
0.327776 0.317575 0.290897
0.328117 0.317912 0.291221
0.328457 0.318248 0.291545
0.328796 0.318583 0.291868
0.329135 0.318917 0.292189
0.329472 0.319251 0.292510
0.329808 0.319583 0.292830
0.330143 0.319914 0.293149
0.330477 0.320244 0.293467
0.330810 0.320573 0.293784
0.331143 0.320902 0.294100
0.331474 0.321229 0.294416
0.331804 0.321555 0.294730
0.332133 0.321881 0.295044
0.332461 0.322205 0.295356
0.332788 0.322528 0.295668
0.333115 0.322851 0.295979
0.333497 0.323229 0.296344
0.333909 0.323636 0.296736
0.334320 0.324043 0.297128
0.334731 0.324449 0.297520
0.335141 0.324854 0.297911
0.335550 0.325259 0.298302
0.335959 0.325663 0.298692
0.336367 0.326067 0.299081
0.336775 0.326470 0.299470
0.337182 0.326872 0.299858
0.337588 0.327274 0.300246
0.337994 0.327675 0.300634
0.338399 0.328076 0.301021
0.338804 0.328476 0.301407
0.339208 0.328876 0.301793
0.339611 0.329275 0.302179
0.340014 0.329673 0.302564
0.340416 0.330071 0.302948
0.340818 0.330469 0.303332
0.341219 0.330866 0.303716
0.341619 0.331262 0.304099
0.342019 0.331658 0.304481
0.342419 0.332053 0.304863
0.342818 0.332448 0.305245
0.343216 0.332842 0.305626
0.343614 0.333235 0.306007
0.344011 0.333629 0.306387
0.344408 0.334021 0.306767
0.344804 0.334413 0.307146
0.345200 0.334805 0.307525
0.345595 0.335196 0.307903
0.345989 0.335586 0.308281
0.346383 0.335976 0.308659
0.346777 0.336366 0.309036
0.347170 0.336755 0.309412
0.347562 0.337143 0.309788
0.347954 0.337531 0.310164
0.348345 0.337918 0.310539
0.348736 0.338305 0.310914
0.349126 0.338692 0.311288
0.349516 0.339078 0.311662
0.349906 0.339463 0.312036
0.350294 0.339848 0.312409
0.350683 0.340233 0.312781
0.351071 0.340617 0.313154
0.351458 0.341000 0.313525
0.351845 0.341383 0.313897
0.352231 0.341766 0.314268
0.352617 0.342148 0.314638
0.353002 0.342530 0.315008
0.353387 0.342911 0.315378
0.353771 0.343291 0.315747
0.354155 0.343672 0.316116
0.354538 0.344051 0.316484
0.354921 0.344431 0.316852
0.355304 0.344810 0.317220
0.355686 0.345188 0.317587
0.356067 0.345566 0.317954
0.356448 0.345943 0.318320
0.356829 0.346320 0.318686
0.357209 0.346697 0.319051
0.357588 0.347073 0.319417
0.357968 0.347449 0.319781
0.358346 0.347824 0.320146
0.358725 0.348199 0.320510
0.359102 0.348573 0.320873
0.359480 0.348947 0.321236
0.359856 0.349320 0.321599
0.360233 0.349693 0.321962
0.360609 0.350066 0.322324
0.360984 0.350438 0.322685
0.361359 0.350810 0.323046
0.361734 0.351181 0.323407
0.362108 0.351552 0.323768
0.362482 0.351922 0.324128
0.362855 0.352292 0.324488
0.363228 0.352662 0.324847
0.363601 0.353031 0.325206
0.363973 0.353400 0.325565
0.364344 0.353769 0.325923
0.364716 0.354136 0.326281
0.365086 0.354504 0.326638
0.365457 0.354871 0.326996
0.365827 0.355238 0.327352
0.366196 0.355604 0.327709
0.366565 0.355970 0.328065
0.366934 0.356336 0.328421
0.367302 0.356701 0.328776
0.367670 0.357066 0.329131
0.368037 0.357430 0.329486
0.368404 0.357794 0.329840
0.368771 0.358158 0.330194
0.369137 0.358521 0.330547
0.369503 0.358883 0.330901
0.369869 0.359246 0.331254
0.370234 0.359608 0.331606
0.370598 0.359970 0.331958
0.370962 0.360331 0.332310
0.371326 0.360692 0.332662
0.371690 0.361052 0.333013
0.372053 0.361412 0.333364
0.372415 0.361772 0.333714
0.372778 0.362131 0.334065
0.373140 0.362490 0.334414
0.373501 0.362849 0.334764
0.373862 0.363207 0.335113
0.374223 0.363565 0.335462
0.374583 0.363923 0.335811
0.374943 0.364280 0.336159
0.375303 0.364637 0.336507
0.375662 0.364993 0.336854
0.376021 0.365349 0.337201
0.376380 0.365705 0.337548
0.376738 0.366060 0.337895
0.377096 0.366415 0.338241
0.377453 0.366770 0.338587
0.377810 0.367124 0.338933
0.378167 0.367478 0.339278
0.378523 0.367832 0.339623
0.378879 0.368185 0.339968
0.379235 0.368538 0.340312
0.379590 0.368890 0.340656
0.379945 0.369243 0.341000
0.380299 0.369594 0.341343
0.380653 0.369946 0.341687
0.381007 0.370297 0.342029
0.381361 0.370648 0.342372
0.381714 0.370999 0.342714
0.382067 0.371349 0.343056
0.382419 0.371699 0.343398
0.382771 0.372048 0.343739
0.383123 0.372397 0.344080
0.383474 0.372746 0.344421
0.383826 0.373095 0.344761
0.384176 0.373443 0.345102
0.384527 0.373791 0.345441
0.384877 0.374138 0.345781
0.385227 0.374486 0.346120
0.385576 0.374832 0.346459
0.385925 0.375179 0.346798
0.386274 0.375525 0.347136
0.386622 0.375871 0.347475
0.386970 0.376217 0.347812
0.387318 0.376562 0.348150
0.387666 0.376907 0.348487
0.388013 0.377252 0.348824
0.388360 0.377596 0.349161
0.388706 0.377940 0.349497
0.389052 0.378284 0.349833
0.389398 0.378628 0.350169
0.389744 0.378971 0.350505
0.390089 0.379314 0.350840
0.390434 0.379656 0.351175
0.390778 0.379998 0.351510
0.391123 0.380340 0.351845
0.391467 0.380682 0.352179
0.391810 0.381023 0.352513
0.392154 0.381364 0.352846
0.392497 0.381705 0.353180
0.392839 0.382046 0.353513
0.393182 0.382386 0.353846
0.393524 0.382726 0.354178
0.393866 0.383065 0.354511
0.394207 0.383404 0.354843
0.394549 0.383743 0.355175
0.394890 0.384082 0.355506
0.395230 0.384420 0.355838
0.395571 0.384759 0.356169
0.395911 0.385096 0.356499
0.396250 0.385434 0.356830
0.396590 0.385771 0.357160
0.396929 0.386108 0.357490
0.397268 0.386445 0.357820
0.397607 0.386781 0.358150
0.397945 0.387117 0.358479
0.398283 0.387453 0.358808
0.398621 0.387789 0.359137
0.398958 0.388124 0.359465
0.399295 0.388459 0.359793
0.399632 0.388794 0.360121
0.399969 0.389129 0.360449
0.400305 0.389463 0.360777
0.400641 0.389797 0.361104
0.400977 0.390130 0.361431
0.401313 0.390464 0.361758
0.401648 0.390797 0.362084
0.401983 0.391130 0.362411
0.402317 0.391462 0.362737
0.402652 0.391795 0.363062
0.402986 0.392127 0.363388
0.403320 0.392459 0.363713
0.403654 0.392790 0.364038
0.403987 0.393122 0.364363
0.404320 0.393453 0.364688
0.404653 0.393783 0.365012
0.404985 0.394114 0.365336
0.405318 0.394444 0.365660
0.405650 0.394774 0.365984
0.405981 0.395104 0.366308
