tools/resolve/luts/NIRO Grading/Taxodia 09.26/C0240_e+2.18_r+0.19_b-0.39.cube
TITLE "NIRO BALANCE C0240 e +2.18 R +0.19 B -0.39 (lineare Verstaerkung S-Log3)"
LUT_1D_SIZE 4096
0.000000 0.000000 0.000000
0.000000 0.000000 0.000000
0.000000 0.000000 0.000000
0.000000 0.000000 0.000000
0.000000 0.000000 0.000000
0.000000 0.000000 0.000000
0.000000 0.000000 0.000000
0.000000 0.000000 0.000000
0.000000 0.000000 0.000000
0.000000 0.000000 0.000000
0.000000 0.000000 0.000000
0.000000 0.000000 0.000000
0.000000 0.000000 0.000000
0.000000 0.000000 0.000000
0.000000 0.000000 0.000000
0.000000 0.000000 0.000000
0.000000 0.000000 0.000000
0.000000 0.000000 0.000000
0.000000 0.000000 0.000000
0.000000 0.000000 0.000000
0.000000 0.000000 0.000000
0.000000 0.000000 0.000000
0.000000 0.000000 0.000000
0.000000 0.000000 0.000000
0.000000 0.000000 0.000000
0.000000 0.000000 0.000000
0.000000 0.000000 0.000000
0.000000 0.000000 0.000000
0.000000 0.000000 0.000000
0.000000 0.000000 0.000000
0.000000 0.000000 0.000000
0.000000 0.000000 0.000000
0.000000 0.000000 0.000000
0.000000 0.000000 0.000000
0.000000 0.000000 0.000000
0.000000 0.000000 0.000000
0.000000 0.000000 0.000000
0.000000 0.000000 0.000000
0.000000 0.000000 0.000000
0.000000 0.000000 0.000000
0.000000 0.000000 0.000000
0.000000 0.000000 0.000000
0.000000 0.000000 0.000000
0.000000 0.000000 0.000000
0.000000 0.000000 0.000000
0.000000 0.000000 0.000000
0.000000 0.000000 0.000000
0.000000 0.000000 0.000000
0.000000 0.000000 0.000000
0.000000 0.000000 0.000000
0.000000 0.000000 0.000000
0.000000 0.000000 0.000000
0.000000 0.000000 0.000000
0.000000 0.000000 0.000000
0.000000 0.000000 0.000000
0.000000 0.000000 0.000000
0.000000 0.000000 0.000000
0.000000 0.000000 0.000000
0.000000 0.000000 0.000000
0.000000 0.000000 0.000000
0.000000 0.000000 0.000000
0.000000 0.000000 0.000000
0.000000 0.000000 0.000000
0.000000 0.000000 0.000000
0.000000 0.000000 0.000000
0.000000 0.000000 0.000000
0.000000 0.000000 0.000000
0.000000 0.000000 0.000000
0.000000 0.000000 0.000000
0.000000 0.000000 0.000000
0.000000 0.000000 0.000000
0.000000 0.000000 0.000000
0.000000 0.000000 0.000000
0.000000 0.000000 0.000000
0.000000 0.000000 0.000000
0.000000 0.000000 0.000000
0.000000 0.000000 0.000000
0.000000 0.000000 0.000000
0.000000 0.000000 0.000000
0.000000 0.000000 0.000000
0.000000 0.000000 0.000000
0.000000 0.000000 0.000000
0.000000 0.000000 0.000000
0.000000 0.000000 0.000000
0.000000 0.000000 0.000000
0.000000 0.000000 0.000000
0.000000 0.000000 0.000000
0.000000 0.000000 0.000000
0.000000 0.000000 0.000000
0.000000 0.000000 0.000000
0.000000 0.000000 0.000000
0.000000 0.000000 0.000000
0.000000 0.000000 0.000000
0.000000 0.000000 0.000000
0.000000 0.000000 0.000000
0.000000 0.000000 0.000000
0.000000 0.000000 0.000000
0.000000 0.000000 0.000000
0.000000 0.000000 0.000000
0.000000 0.000000 0.000000
0.000000 0.000000 0.000000
0.000000 0.000000 0.000000
0.000000 0.000000 0.000000
0.000000 0.000000 0.000000
0.000000 0.000000 0.000000
0.000000 0.000000 0.000000
0.000000 0.000000 0.000000
0.000000 0.000000 0.000000
0.000000 0.000000 0.000000
0.000000 0.000000 0.000000
0.000000 0.000000 0.000000
0.000000 0.000000 0.000000
0.000000 0.000000 0.000000
0.000000 0.000000 0.000000
0.000000 0.000000 0.000000
0.000000 0.000000 0.000000
0.000000 0.000000 0.000000
0.000000 0.000000 0.000000
0.000000 0.000000 0.000000
0.000000 0.000000 0.000000
0.000000 0.000000 0.000000
0.000000 0.000000 0.000000
0.000000 0.000000 0.000000
0.000000 0.000000 0.000000
0.000000 0.000000 0.000000
0.000000 0.000000 0.000000
0.000000 0.000000 0.000000
0.000000 0.000000 0.000000
0.000000 0.000000 0.000000
0.000000 0.000000 0.000000
0.000000 0.000000 0.000000
0.000000 0.000000 0.000000
0.000000 0.000000 0.000000
0.000000 0.000000 0.000000
0.000000 0.000000 0.000000
0.000000 0.000000 0.000000
0.000000 0.000000 0.000000
0.000000 0.000000 0.000000
0.000000 0.000000 0.000000
0.000000 0.000000 0.000000
0.000000 0.000000 0.000000
0.000000 0.000000 0.000000
0.000000 0.000000 0.000000
0.000000 0.000000 0.000000
0.000000 0.000000 0.000000
0.000000 0.000000 0.000000
0.000000 0.000000 0.000000
0.000000 0.000000 0.000000
0.000000 0.000000 0.000000
0.000000 0.000000 0.000000
0.000000 0.000000 0.000000
0.000000 0.000000 0.000000
0.000000 0.000000 0.000000
0.000000 0.000000 0.000000
0.000000 0.000000 0.000000
0.000000 0.000000 0.000000
0.000000 0.000000 0.000000
0.000000 0.000000 0.000000
0.000000 0.000000 0.000000
0.000000 0.000000 0.000000
0.000000 0.000000 0.000000
0.000000 0.000000 0.000000
0.000000 0.000000 0.000000
0.000000 0.000000 0.000000
0.000000 0.000000 0.000000
0.000000 0.000000 0.000000
0.000000 0.000000 0.000000
0.000000 0.000000 0.000000
0.000000 0.000000 0.000000
0.000000 0.000000 0.000000
0.000000 0.000000 0.000000
0.000000 0.000000 0.000000
0.000000 0.000000 0.000000
0.000000 0.000000 0.000000
0.000000 0.000000 0.000000
0.000000 0.000000 0.000000
0.000000 0.000000 0.000000
0.000000 0.000000 0.000000
0.000000 0.000000 0.000000
0.000000 0.000000 0.000000
0.000000 0.000000 0.000000
0.000000 0.000000 0.000000
0.000000 0.000000 0.000000
0.000000 0.000000 0.000000
0.000000 0.000000 0.000000
0.000000 0.000000 0.000000
0.000000 0.000000 0.000000
0.000000 0.000000 0.000000
0.000000 0.000000 0.000000
0.000000 0.000000 0.000000
0.000000 0.000000 0.000000
0.000000 0.000000 0.000000
0.000000 0.000000 0.000000
0.000000 0.000000 0.000000
0.000000 0.000000 0.000000
0.000000 0.000000 0.000000
0.000000 0.000000 0.000000
0.000000 0.000000 0.000000
0.000000 0.000000 0.000000
0.000000 0.000000 0.000000
0.000000 0.000000 0.000000
0.000000 0.000000 0.000000
0.000000 0.000000 0.000000
0.000000 0.000000 0.000000
0.000000 0.000000 0.000000
0.000000 0.000000 0.000000
0.000000 0.000000 0.000000
0.000000 0.000000 0.000000
0.000000 0.000000 0.000000
0.000000 0.000000 0.000000
0.000000 0.000000 0.000000
0.000000 0.000000 0.000000
0.000000 0.000000 0.000000
0.000000 0.000000 0.000000
0.000000 0.000000 0.000000
0.000000 0.000000 0.000000
0.000000 0.000000 0.000000
0.000000 0.000000 0.000000
0.000000 0.000000 0.000000
0.000000 0.000000 0.000000
0.000000 0.000000 0.000000
0.000000 0.000000 0.000000
0.000000 0.000000 0.000000
0.000000 0.000000 0.000000
0.000000 0.000000 0.000000
0.000000 0.000000 0.000000
0.000000 0.000000 0.000000
0.000000 0.000000 0.000000
0.000000 0.000000 0.000000
0.000000 0.000000 0.000000
0.000000 0.000000 0.000000
0.000000 0.000000 0.000000
0.000000 0.000000 0.000000
0.000000 0.000000 0.000000
0.000000 0.000000 0.000000
0.000000 0.000000 0.000000
0.000000 0.000000 0.000000
0.000000 0.000000 0.000000
0.000000 0.000000 0.000000
0.000000 0.000000 0.000000
0.000000 0.000000 0.000000
0.000000 0.000000 0.000000
0.000000 0.000000 0.000000
0.000000 0.000000 0.000000
0.000000 0.000000 0.000000
0.000000 0.000000 0.000000
0.000000 0.000000 0.000000
0.000000 0.000000 0.000000
0.000000 0.000000 0.000000
0.000000 0.000000 0.000000
0.000000 0.000000 0.000000
0.000000 0.000000 0.000000
0.000000 0.000000 0.000000
0.000000 0.000000 0.000000
0.000000 0.000000 0.000000
0.000000 0.000000 0.000000
0.000000 0.000000 0.000000
0.000000 0.000000 0.000000
0.000000 0.000000 0.000000
0.000000 0.000000 0.000000
0.000000 0.000000 0.000000
0.000000 0.000000 0.000000
0.000000 0.000000 0.000000
0.000000 0.000000 0.000000
0.000000 0.000000 0.000000
0.000000 0.000000 0.000000
0.000000 0.000000 0.000000
0.000000 0.000000 0.000000
0.000000 0.000000 0.000000
0.000000 0.000000 0.000000
0.000000 0.000000 0.000000
0.000000 0.000000 0.000260
0.000000 0.000000 0.001107
0.000000 0.000000 0.001955
0.000000 0.000000 0.002802
0.000000 0.000000 0.003650
0.000000 0.000000 0.004497
0.000000 0.000000 0.005345
0.000000 0.000000 0.006192
0.000000 0.000000 0.007039
0.000000 0.000000 0.007887
0.000000 0.000000 0.008734
0.000000 0.000000 0.009582
0.000000 0.000000 0.010429
0.000000 0.000000 0.011276
0.000000 0.000000 0.012124
0.000000 0.000000 0.012971
0.000000 0.000000 0.013819
0.000000 0.000000 0.014666
0.000000 0.000000 0.015513
0.000000 0.000000 0.016361
0.000000 0.000000 0.017208
0.000000 0.000000 0.018056
0.000000 0.000000 0.018903
0.000000 0.000000 0.019751
0.000000 0.000000 0.020598
0.000000 0.000000 0.021445
0.000000 0.000452 0.022293
0.000000 0.001562 0.023140
0.000000 0.002671 0.023988
0.000000 0.003781 0.024835
0.000000 0.004891 0.025682
0.000000 0.006000 0.026530
0.000000 0.007110 0.027377
0.000000 0.008220 0.028225
0.000000 0.009329 0.029072
0.000000 0.010439 0.029920
0.000167 0.011549 0.030767
0.001432 0.012658 0.031614
0.002697 0.013768 0.032462
0.003962 0.014878 0.033309
0.005227 0.015987 0.034157
0.006492 0.017097 0.035004
0.007757 0.018207 0.035851
0.009022 0.019316 0.036699
0.010287 0.020426 0.037546
0.011552 0.021536 0.038394
0.012817 0.022645 0.039241
0.014082 0.023755 0.040088
0.015347 0.024865 0.040936
0.016612 0.025975 0.041783
0.017877 0.027084 0.042631
0.019142 0.028194 0.043478
0.020407 0.029304 0.044326
0.021672 0.030413 0.045173
0.022937 0.031523 0.046020
0.024202 0.032633 0.046868
0.025467 0.033742 0.047715
0.026732 0.034852 0.048563
0.027997 0.035962 0.049410
0.029262 0.037071 0.050257
0.030527 0.038181 0.051105
0.031792 0.039291 0.051952
0.033057 0.040400 0.052800
0.034322 0.041510 0.053647
0.035587 0.042620 0.054494
0.036852 0.043729 0.055342
0.038117 0.044839 0.056189
0.039382 0.045949 0.057037
0.040647 0.047058 0.057884
0.041912 0.048168 0.058732
0.043177 0.049278 0.059579
0.044442 0.050387 0.060426
0.045707 0.051497 0.061274
0.046972 0.052607 0.062121
0.048237 0.053716 0.062969
0.049502 0.054826 0.063816
0.050767 0.055936 0.064663
0.052032 0.057045 0.065511
0.053297 0.058155 0.066358
0.054562 0.059265 0.067206
0.055827 0.060374 0.068053
0.057092 0.061484 0.068900
0.058357 0.062594 0.069748
0.059622 0.063703 0.070595
0.060887 0.064813 0.071443
0.062152 0.065923 0.072290
0.063417 0.067032 0.073138
0.064682 0.068142 0.073985
0.065947 0.069252 0.074832
0.067212 0.070361 0.075680
0.068477 0.071471 0.076527
0.069742 0.072581 0.077375
0.071007 0.073691 0.078222
0.072272 0.074800 0.079069
0.073537 0.075910 0.079917
0.074802 0.077020 0.080764
0.076067 0.078129 0.081612
0.077332 0.079239 0.082459
0.078597 0.080349 0.083307
0.079862 0.081458 0.084154
0.081127 0.082568 0.085001
0.082392 0.083678 0.085849
0.083657 0.084787 0.086696
0.084922 0.085897 0.087544
0.086187 0.087007 0.088391
0.087452 0.088116 0.089238
0.088717 0.089226 0.090086
0.089982 0.090336 0.090933
0.091247 0.091445 0.091781
0.092512 0.092555 0.092628
0.093777 0.093665 0.093475
0.095042 0.094774 0.094323
0.096307 0.095884 0.095170
0.097572 0.096994 0.096018
0.098837 0.098103 0.096865
0.100102 0.099213 0.097713
0.101367 0.100323 0.098560
0.102632 0.101432 0.099407
0.103897 0.102542 0.100255
0.105162 0.103652 0.101102
0.106427 0.104761 0.101950
0.107692 0.105871 0.102797
0.108957 0.106981 0.103644
0.110222 0.108090 0.104492
0.111487 0.109200 0.105339
0.112752 0.110310 0.106187
0.114017 0.111419 0.107034
0.115282 0.112529 0.107881
0.116547 0.113639 0.108729
0.117812 0.114748 0.109576
0.119077 0.115858 0.110424
0.120342 0.116968 0.111271
0.121607 0.118077 0.112119
0.122872 0.119187 0.112966
0.124137 0.120297 0.113813
0.125402 0.121407 0.114661
0.126667 0.122516 0.115508
0.127932 0.123626 0.116356
0.129197 0.124736 0.117203
0.130462 0.125845 0.118050
0.131727 0.126955 0.118898
0.132992 0.128065 0.119745
0.134257 0.129174 0.120593
0.135522 0.130284 0.121440
0.136787 0.131394 0.122287
0.138052 0.132503 0.123135
0.139317 0.133613 0.123982
0.140582 0.134723 0.124830
0.141847 0.135832 0.125677
0.143112 0.136942 0.126525
0.144377 0.138052 0.127372
0.145642 0.139161 0.128219
0.146907 0.140271 0.129067
0.148172 0.141381 0.129914
0.149437 0.142490 0.130762
0.150702 0.143600 0.131609
0.151967 0.144710 0.132456
0.153232 0.145819 0.133304
0.154497 0.146929 0.134151
0.155762 0.148039 0.134999
0.157027 0.149148 0.135846
0.158292 0.150258 0.136693
0.159557 0.151368 0.137541
0.160822 0.152477 0.138388
0.162087 0.153587 0.139236
0.163352 0.154697 0.140083
0.164617 0.155806 0.140931
0.165882 0.156916 0.141778
0.167147 0.158026 0.142625
0.168187 0.159135 0.143473
0.169173 0.160245 0.144320
0.170151 0.161355 0.145168
0.171120 0.162464 0.146015
0.172080 0.163574 0.146862
0.173032 0.164684 0.147710
0.173977 0.165793 0.148557
0.174913 0.166903 0.149405
0.175841 0.167874 0.150252
0.176762 0.168742 0.151100
0.177675 0.169603 0.151947
0.178581 0.170458 0.152794
0.179480 0.171306 0.153642
0.180371 0.172148 0.154489
0.181255 0.172983 0.155337
0.182132 0.173812 0.156184
0.183002 0.174635 0.157031
0.183866 0.175452 0.157879
0.184723 0.176263 0.158726
0.185573 0.177068 0.159574
0.186417 0.177867 0.160421
0.187254 0.178661 0.161268
0.188085 0.179449 0.162116
0.188910 0.180231 0.162963
0.189729 0.181008 0.163811
0.190542 0.181780 0.164658
0.191349 0.182546 0.165506
0.192150 0.183307 0.166353
0.192945 0.184062 0.167200
0.193735 0.184813 0.167901
0.194519 0.185559 0.168565
0.195298 0.186299 0.169224
0.196071 0.187035 0.169880
0.196839 0.187766 0.170531
0.197602 0.188492 0.171179
0.198359 0.189213 0.171823
0.199112 0.189930 0.172464
0.199859 0.190642 0.173100
0.200601 0.191350 0.173733
0.201338 0.192053 0.174363
0.202071 0.192751 0.174989
0.202798 0.193446 0.175611
0.203521 0.194136 0.176230
0.204239 0.194821 0.176845
0.204953 0.195503 0.177458
0.205662 0.196180 0.178066
0.206367 0.196854 0.178672
0.207067 0.197523 0.179274
0.207763 0.198188 0.179873
0.208454 0.198849 0.180469
0.209141 0.199506 0.181061
0.209824 0.200160 0.181650
0.210503 0.200809 0.182237
0.211177 0.201455 0.182820
0.211848 0.202097 0.183400
0.212514 0.202736 0.183977
0.213177 0.203371 0.184551
0.213835 0.204002 0.185122
0.214490 0.204629 0.185691
0.215141 0.205253 0.186256
0.215788 0.205874 0.186818
0.216431 0.206491 0.187378
0.217071 0.207105 0.187935
0.217707 0.207715 0.188489
0.218339 0.208322 0.189040
0.218968 0.208926 0.189589
0.219593 0.209526 0.190135
0.220215 0.210123 0.190678
0.220833 0.210717 0.191219
0.221448 0.211308 0.191757
0.222059 0.211896 0.192292
0.222667 0.212480 0.192825
0.223272 0.213062 0.193355
0.223873 0.213640 0.193883
0.224472 0.214216 0.194408
0.225067 0.214789 0.194931
0.225659 0.215358 0.195451
0.226247 0.215925 0.195969
0.226833 0.216489 0.196484
0.227415 0.217050 0.196997
0.227995 0.217608 0.197508
0.228571 0.218163 0.198017
0.229145 0.218716 0.198523
0.229716 0.219266 0.199026
0.230283 0.219813 0.199528
0.230848 0.220357 0.200027
0.231410 0.220899 0.200524
0.231969 0.221438 0.201019
0.232525 0.221975 0.201512
0.233079 0.222509 0.202002
0.233629 0.223040 0.202490
0.234177 0.223569 0.202976
0.234723 0.224096 0.203460
0.235265 0.224619 0.203942
0.235806 0.225141 0.204422
0.236343 0.225660 0.204900
0.236878 0.226176 0.205376
0.237410 0.226691 0.205849
0.237940 0.227203 0.206321
0.238467 0.227712 0.206791
0.238992 0.228219 0.207258
0.239514 0.228724 0.207724
0.240034 0.229227 0.208188
0.240551 0.229727 0.208650
0.241066 0.230225 0.209110
0.241579 0.230721 0.209568
0.242089 0.231214 0.210024
0.242597 0.231706 0.210478
0.243103 0.232195 0.210931
0.243606 0.232682 0.211381
0.244107 0.233167 0.211830
0.244606 0.233650 0.212277
0.245102 0.234131 0.212722
0.245597 0.234610 0.213166
0.246089 0.235086 0.213607
0.246579 0.235561 0.214047
0.247067 0.236034 0.214485
0.247552 0.236504 0.214922
0.248036 0.236973 0.215356
0.248517 0.237439 0.215790
0.248997 0.237904 0.216221
0.249474 0.238367 0.216651
0.249949 0.238828 0.217079
0.250423 0.239287 0.217505
0.250894 0.239744 0.217930
0.251363 0.240199 0.218353
0.251830 0.240652 0.218774
0.252296 0.241104 0.219194
0.252759 0.241553 0.219613
0.253221 0.242001 0.220029
0.253680 0.242447 0.220445
0.254138 0.242891 0.220858
0.254594 0.243334 0.221270
0.255048 0.243775 0.221681
0.255500 0.244214 0.222090
0.255950 0.244651 0.222498
0.256398 0.245086 0.222904
0.256845 0.245520 0.223308
0.257290 0.245952 0.223712
0.257733 0.246383 0.224113
0.258174 0.246812 0.224514
0.258614 0.247239 0.224912
0.259051 0.247664 0.225310
0.259488 0.248088 0.225706
0.259922 0.248510 0.226100
0.260355 0.248931 0.226493
0.260786 0.249350 0.226885
0.261215 0.249768 0.227276
0.261643 0.250184 0.227665
0.262069 0.250598 0.228052
0.262493 0.251011 0.228439
0.262916 0.251422 0.228824
0.263337 0.251832 0.229207
0.263757 0.252240 0.229590
0.264175 0.252647 0.229971
0.264591 0.253052 0.230350
0.265006 0.253456 0.230729
0.265419 0.253859 0.231106
0.265831 0.254260 0.231482
0.266242 0.254659 0.231856
0.266650 0.255057 0.232230
0.267058 0.255454 0.232602
0.267463 0.255849 0.232973
0.267868 0.256243 0.233342
0.268271 0.256635 0.233711
0.268672 0.257026 0.234078
0.269072 0.257416 0.234444
0.269471 0.257804 0.234808
0.269868 0.258191 0.235172
0.270263 0.258577 0.235534
0.270658 0.258961 0.235895
0.271050 0.259344 0.236256
0.271442 0.259726 0.236614
0.271832 0.260106 0.236972
0.272221 0.260485 0.237329
0.272608 0.260863 0.237684
0.272994 0.261239 0.238038
0.273379 0.261614 0.238391
0.273762 0.261988 0.238743
0.274144 0.262361 0.239094
0.274525 0.262732 0.239444
0.274905 0.263103 0.239793
0.275283 0.263472 0.240140
0.275660 0.263839 0.240487
0.276035 0.264206 0.240832
0.276410 0.264571 0.241177
0.276783 0.264935 0.241520
0.277154 0.265298 0.241862
0.277525 0.265660 0.242204
0.277894 0.266020 0.242544
0.278262 0.266380 0.242883
0.278629 0.266738 0.243221
0.278995 0.267095 0.243558
0.279360 0.267451 0.243894
0.279723 0.267806 0.244229
0.280085 0.268159 0.244563
0.280446 0.268512 0.244896
0.280806 0.268863 0.245228
0.281164 0.269214 0.245559
0.281522 0.269563 0.245889
0.281878 0.269911 0.246218
0.282233 0.270258 0.246546
0.282587 0.270604 0.246873
0.282940 0.270949 0.247200
0.283292 0.271293 0.247525
0.283643 0.271636 0.247849
0.283992 0.271977 0.248172
0.284341 0.272318 0.248495
0.284688 0.272657 0.248816
0.285034 0.272996 0.249137
0.285380 0.273334 0.249456
0.285724 0.273670 0.249775
0.286067 0.274006 0.250093
0.286409 0.274340 0.250410
0.286750 0.274674 0.250726
0.287090 0.275006 0.251041
0.287429 0.275338 0.251355
0.287767 0.275668 0.251668
0.288104 0.275998 0.251980
0.288439 0.276326 0.252292
0.288774 0.276654 0.252603
0.289108 0.276980 0.252912
0.289441 0.277306 0.253221
0.289773 0.277631 0.253529
0.290103 0.277954 0.253837
0.290433 0.278277 0.254143
0.290762 0.278599 0.254448
0.291090 0.278920 0.254753
0.291417 0.279240 0.255057
0.291743 0.279559 0.255360
0.292068 0.279877 0.255662
0.292392 0.280195 0.255964
0.292715 0.280511 0.256264
0.293037 0.280826 0.256564
0.293359 0.281141 0.256863
0.293679 0.281455 0.257161
0.293998 0.281768 0.257458
0.294317 0.282080 0.257755
0.294634 0.282391 0.258051
0.294951 0.282701 0.258346
0.295267 0.283010 0.258640
0.295582 0.283319 0.258933
0.295896 0.283626 0.259226
0.296209 0.283933 0.259518
0.296521 0.284239 0.259809
0.296832 0.284544 0.260099
0.297197 0.284902 0.260440
0.297591 0.285287 0.260806
0.297983 0.285672 0.261173
0.298375 0.286056 0.261539
0.298767 0.286440 0.261904
0.299158 0.286823 0.262269
0.299548 0.287206 0.262634
0.299938 0.287588 0.262998
0.300328 0.287970 0.263362
0.300717 0.288351 0.263726
0.301105 0.288732 0.264089
0.301493 0.289113 0.264452
0.301880 0.289493 0.264814
0.302267 0.289872 0.265176
0.302654 0.290251 0.265538
0.303040 0.290630 0.265899
0.303425 0.291008 0.266260
0.303810 0.291386 0.266620
0.304195 0.291763 0.266981
0.304579 0.292140 0.267340
0.304962 0.292516 0.267700
0.305345 0.292892 0.268059
0.305728 0.293267 0.268417
0.306110 0.293642 0.268775
0.306492 0.294017 0.269133
0.306873 0.294391 0.269491
0.307253 0.294765 0.269848
0.307634 0.295138 0.270205
0.308013 0.295511 0.270561
0.308393 0.295883 0.270917
0.308771 0.296255 0.271273
0.309150 0.296627 0.271628
0.309528 0.296998 0.271983
0.309905 0.297369 0.272338
0.310282 0.297739 0.272692
0.310659 0.298109 0.273046
0.311035 0.298478 0.273400
0.311411 0.298847 0.273753
0.311786 0.299216 0.274106
0.312161 0.299584 0.274458
0.312535 0.299952 0.274811
0.312909 0.300319 0.275163
0.313282 0.300686 0.275514
0.313655 0.301052 0.275865
0.314028 0.301419 0.276216
0.314400 0.301784 0.276567
0.314772 0.302150 0.276917
0.315143 0.302515 0.277267
0.315514 0.302879 0.277616
0.315884 0.303243 0.277965
0.316254 0.303607 0.278314
0.316624 0.303971 0.278663
0.316993 0.304333 0.279011
0.317362 0.304696 0.279359
0.317730 0.305058 0.279706
0.318098 0.305420 0.280054
0.318466 0.305782 0.280400
0.318833 0.306143 0.280747
0.319200 0.306503 0.281093
0.319566 0.306864 0.281439
0.319932 0.307224 0.281785
0.320298 0.307583 0.282130
0.320663 0.307942 0.282475
0.321028 0.308301 0.282820
0.321392 0.308660 0.283164
0.321756 0.309018 0.283508
0.322119 0.309375 0.283852
0.322483 0.309733 0.284195
0.322845 0.310090 0.284539
0.323208 0.310446 0.284881
0.323570 0.310803 0.285224
0.323931 0.311158 0.285566
0.324293 0.311514 0.285908
0.324654 0.311869 0.286250
0.325014 0.312224 0.286591
0.325374 0.312578 0.286932
0.325734 0.312933 0.287273
0.326093 0.313286 0.287613
0.326452 0.313640 0.287953
0.326811 0.313993 0.288293
0.327169 0.314346 0.288633
0.327527 0.314698 0.288972
0.327885 0.315050 0.289311
0.328242 0.315402 0.289650
0.328598 0.315753 0.289988
0.328955 0.316104 0.290326
0.329311 0.316455 0.290664
0.329667 0.316805 0.291002
0.330022 0.317155 0.291339
0.330377 0.317505 0.291676
0.330732 0.317854 0.292013
0.331086 0.318203 0.292349
0.331440 0.318552 0.292685
0.331794 0.318900 0.293021
0.332147 0.319248 0.293357
0.332500 0.319596 0.293692
0.332852 0.319944 0.294027
0.333204 0.320291 0.294362
0.333556 0.320637 0.294696
0.333908 0.320984 0.295030
0.334259 0.321330 0.295364
0.334610 0.321676 0.295698
0.334960 0.322021 0.296031
0.335311 0.322366 0.296365
0.335660 0.322711 0.296697
0.336010 0.323056 0.297030
0.336359 0.323400 0.297362
0.336708 0.323744 0.297694
0.337057 0.324088 0.298026
0.337405 0.324431 0.298358
0.337753 0.324774 0.298689
0.338100 0.325117 0.299020
0.338447 0.325459 0.299351
0.338794 0.325801 0.299681
0.339141 0.326143 0.300012
0.339487 0.326484 0.300342
0.339833 0.326826 0.300671
0.340179 0.327166 0.301001
0.340524 0.327507 0.301330
0.340869 0.327847 0.301659
0.341214 0.328187 0.301988
0.341558 0.328527 0.302316
0.341902 0.328866 0.302645
0.342246 0.329206 0.302973
0.342589 0.329544 0.303300
0.342933 0.329883 0.303628
0.343275 0.330221 0.303955
0.343618 0.330559 0.304282
0.343960 0.330897 0.304609
0.344302 0.331234 0.304936
0.344644 0.331571 0.305262
0.344985 0.331908 0.305588
0.345326 0.332245 0.305914
0.345667 0.332581 0.306239
0.346007 0.332917 0.306565
0.346348 0.333253 0.306890
0.346687 0.333588 0.307215
0.347027 0.333924 0.307539
0.347366 0.334258 0.307864
0.347705 0.334593 0.308188
0.348044 0.334927 0.308512
0.348382 0.335262 0.308835
0.348720 0.335595 0.309159
0.349058 0.335929 0.309482
0.349396 0.336262 0.309805
0.349733 0.336595 0.310128
0.350070 0.336928 0.310450
0.350407 0.337260 0.310773
0.350743 0.337593 0.311095
0.351079 0.337925 0.311417
0.351415 0.338256 0.311738
0.351751 0.338588 0.312060
0.352086 0.338919 0.312381
0.352421 0.339250 0.312702
0.352756 0.339581 0.313022
0.353090 0.339911 0.313343
0.353425 0.340241 0.313663
0.353759 0.340571 0.313983
0.354092 0.340901 0.314303
0.354426 0.341230 0.314623
0.354759 0.341559 0.314942
0.355092 0.341888 0.315262
0.355424 0.342217 0.315581
0.355757 0.342545 0.315899
0.356089 0.342873 0.316218
0.356421 0.343201 0.316536
0.356752 0.343529 0.316854
0.357083 0.343856 0.317172
0.357414 0.344183 0.317490
0.357745 0.344510 0.317808
0.358076 0.344837 0.318125
0.358406 0.345163 0.318442
0.358736 0.345489 0.318759
0.359066 0.345815 0.319076
0.359395 0.346141 0.319392
0.359725 0.346466 0.319708
0.360054 0.346792 0.320024
0.360382 0.347117 0.320340
0.360711 0.347441 0.320656
0.361039 0.347766 0.320971
0.361367 0.348090 0.321287
0.361695 0.348414 0.321602
0.362022 0.348738 0.321916
0.362350 0.349062 0.322231
0.362677 0.349385 0.322546
0.363003 0.349708 0.322860
0.363330 0.350031 0.323174
0.363656 0.350354 0.323488
0.363982 0.350676 0.323801
0.364308 0.350998 0.324115
0.364634 0.351320 0.324428
0.364959 0.351642 0.324741
0.365284 0.351964 0.325054
0.365609 0.352285 0.325367
0.365934 0.352606 0.325679
0.366258 0.352927 0.325992
0.366582 0.353247 0.326304
0.366906 0.353568 0.326616
0.367230 0.353888 0.326927
