tools/resolve/luts/NIRO Grading/Taxodia 09.26/C0257_e+3.32_r+0.07_b-0.09.cube
TITLE "NIRO BALANCE C0257 e +3.32 R +0.07 B -0.09 (lineare Verstaerkung S-Log3)"
LUT_1D_SIZE 4096
0.000000 0.000000 0.000000
0.000000 0.000000 0.000000
0.000000 0.000000 0.000000
0.000000 0.000000 0.000000
0.000000 0.000000 0.000000
0.000000 0.000000 0.000000
0.000000 0.000000 0.000000
0.000000 0.000000 0.000000
0.000000 0.000000 0.000000
0.000000 0.000000 0.000000
0.000000 0.000000 0.000000
0.000000 0.000000 0.000000
0.000000 0.000000 0.000000
0.000000 0.000000 0.000000
0.000000 0.000000 0.000000
0.000000 0.000000 0.000000
0.000000 0.000000 0.000000
0.000000 0.000000 0.000000
0.000000 0.000000 0.000000
0.000000 0.000000 0.000000
0.000000 0.000000 0.000000
0.000000 0.000000 0.000000
0.000000 0.000000 0.000000
0.000000 0.000000 0.000000
0.000000 0.000000 0.000000
0.000000 0.000000 0.000000
0.000000 0.000000 0.000000
0.000000 0.000000 0.000000
0.000000 0.000000 0.000000
0.000000 0.000000 0.000000
0.000000 0.000000 0.000000
0.000000 0.000000 0.000000
0.000000 0.000000 0.000000
0.000000 0.000000 0.000000
0.000000 0.000000 0.000000
0.000000 0.000000 0.000000
0.000000 0.000000 0.000000
0.000000 0.000000 0.000000
0.000000 0.000000 0.000000
0.000000 0.000000 0.000000
0.000000 0.000000 0.000000
0.000000 0.000000 0.000000
0.000000 0.000000 0.000000
0.000000 0.000000 0.000000
0.000000 0.000000 0.000000
0.000000 0.000000 0.000000
0.000000 0.000000 0.000000
0.000000 0.000000 0.000000
0.000000 0.000000 0.000000
0.000000 0.000000 0.000000
0.000000 0.000000 0.000000
0.000000 0.000000 0.000000
0.000000 0.000000 0.000000
0.000000 0.000000 0.000000
0.000000 0.000000 0.000000
0.000000 0.000000 0.000000
0.000000 0.000000 0.000000
0.000000 0.000000 0.000000
0.000000 0.000000 0.000000
0.000000 0.000000 0.000000
0.000000 0.000000 0.000000
0.000000 0.000000 0.000000
0.000000 0.000000 0.000000
0.000000 0.000000 0.000000
0.000000 0.000000 0.000000
0.000000 0.000000 0.000000
0.000000 0.000000 0.000000
0.000000 0.000000 0.000000
0.000000 0.000000 0.000000
0.000000 0.000000 0.000000
0.000000 0.000000 0.000000
0.000000 0.000000 0.000000
0.000000 0.000000 0.000000
0.000000 0.000000 0.000000
0.000000 0.000000 0.000000
0.000000 0.000000 0.000000
0.000000 0.000000 0.000000
0.000000 0.000000 0.000000
0.000000 0.000000 0.000000
0.000000 0.000000 0.000000
0.000000 0.000000 0.000000
0.000000 0.000000 0.000000
0.000000 0.000000 0.000000
0.000000 0.000000 0.000000
0.000000 0.000000 0.000000
0.000000 0.000000 0.000000
0.000000 0.000000 0.000000
0.000000 0.000000 0.000000
0.000000 0.000000 0.000000
0.000000 0.000000 0.000000
0.000000 0.000000 0.000000
0.000000 0.000000 0.000000
0.000000 0.000000 0.000000
0.000000 0.000000 0.000000
0.000000 0.000000 0.000000
0.000000 0.000000 0.000000
0.000000 0.000000 0.000000
0.000000 0.000000 0.000000
0.000000 0.000000 0.000000
0.000000 0.000000 0.000000
0.000000 0.000000 0.000000
0.000000 0.000000 0.000000
0.000000 0.000000 0.000000
0.000000 0.000000 0.000000
0.000000 0.000000 0.000000
0.000000 0.000000 0.000000
0.000000 0.000000 0.000000
0.000000 0.000000 0.000000
0.000000 0.000000 0.000000
0.000000 0.000000 0.000000
0.000000 0.000000 0.000000
0.000000 0.000000 0.000000
0.000000 0.000000 0.000000
0.000000 0.000000 0.000000
0.000000 0.000000 0.000000
0.000000 0.000000 0.000000
0.000000 0.000000 0.000000
0.000000 0.000000 0.000000
0.000000 0.000000 0.000000
0.000000 0.000000 0.000000
0.000000 0.000000 0.000000
0.000000 0.000000 0.000000
0.000000 0.000000 0.000000
0.000000 0.000000 0.000000
0.000000 0.000000 0.000000
0.000000 0.000000 0.000000
0.000000 0.000000 0.000000
0.000000 0.000000 0.000000
0.000000 0.000000 0.000000
0.000000 0.000000 0.000000
0.000000 0.000000 0.000000
0.000000 0.000000 0.000000
0.000000 0.000000 0.000000
0.000000 0.000000 0.000000
0.000000 0.000000 0.000000
0.000000 0.000000 0.000000
0.000000 0.000000 0.000000
0.000000 0.000000 0.000000
0.000000 0.000000 0.000000
0.000000 0.000000 0.000000
0.000000 0.000000 0.000000
0.000000 0.000000 0.000000
0.000000 0.000000 0.000000
0.000000 0.000000 0.000000
0.000000 0.000000 0.000000
0.000000 0.000000 0.000000
0.000000 0.000000 0.000000
0.000000 0.000000 0.000000
0.000000 0.000000 0.000000
0.000000 0.000000 0.000000
0.000000 0.000000 0.000000
0.000000 0.000000 0.000000
0.000000 0.000000 0.000000
0.000000 0.000000 0.000000
0.000000 0.000000 0.000000
0.000000 0.000000 0.000000
0.000000 0.000000 0.000000
0.000000 0.000000 0.000000
0.000000 0.000000 0.000000
0.000000 0.000000 0.000000
0.000000 0.000000 0.000000
0.000000 0.000000 0.000000
0.000000 0.000000 0.000000
0.000000 0.000000 0.000000
0.000000 0.000000 0.000000
0.000000 0.000000 0.000000
0.000000 0.000000 0.000000
0.000000 0.000000 0.000000
0.000000 0.000000 0.000000
0.000000 0.000000 0.000000
0.000000 0.000000 0.000000
0.000000 0.000000 0.000000
0.000000 0.000000 0.000000
0.000000 0.000000 0.000000
0.000000 0.000000 0.000000
0.000000 0.000000 0.000000
0.000000 0.000000 0.000000
0.000000 0.000000 0.000000
0.000000 0.000000 0.000000
0.000000 0.000000 0.000000
0.000000 0.000000 0.000000
0.000000 0.000000 0.000000
0.000000 0.000000 0.000000
0.000000 0.000000 0.000000
0.000000 0.000000 0.000000
0.000000 0.000000 0.000000
0.000000 0.000000 0.000000
0.000000 0.000000 0.000000
0.000000 0.000000 0.000000
0.000000 0.000000 0.000000
0.000000 0.000000 0.000000
0.000000 0.000000 0.000000
0.000000 0.000000 0.000000
0.000000 0.000000 0.000000
0.000000 0.000000 0.000000
0.000000 0.000000 0.000000
0.000000 0.000000 0.000000
0.000000 0.000000 0.000000
0.000000 0.000000 0.000000
0.000000 0.000000 0.000000
0.000000 0.000000 0.000000
0.000000 0.000000 0.000000
0.000000 0.000000 0.000000
0.000000 0.000000 0.000000
0.000000 0.000000 0.000000
0.000000 0.000000 0.000000
0.000000 0.000000 0.000000
0.000000 0.000000 0.000000
0.000000 0.000000 0.000000
0.000000 0.000000 0.000000
0.000000 0.000000 0.000000
0.000000 0.000000 0.000000
0.000000 0.000000 0.000000
0.000000 0.000000 0.000000
0.000000 0.000000 0.000000
0.000000 0.000000 0.000000
0.000000 0.000000 0.000000
0.000000 0.000000 0.000000
0.000000 0.000000 0.000000
0.000000 0.000000 0.000000
0.000000 0.000000 0.000000
0.000000 0.000000 0.000000
0.000000 0.000000 0.000000
0.000000 0.000000 0.000000
0.000000 0.000000 0.000000
0.000000 0.000000 0.000000
0.000000 0.000000 0.000000
0.000000 0.000000 0.000000
0.000000 0.000000 0.000000
0.000000 0.000000 0.000000
0.000000 0.000000 0.000000
0.000000 0.000000 0.000000
0.000000 0.000000 0.000000
0.000000 0.000000 0.000000
0.000000 0.000000 0.000000
0.000000 0.000000 0.000000
0.000000 0.000000 0.000000
0.000000 0.000000 0.000000
0.000000 0.000000 0.000000
0.000000 0.000000 0.000000
0.000000 0.000000 0.000000
0.000000 0.000000 0.000000
0.000000 0.000000 0.000000
0.000000 0.000000 0.000000
0.000000 0.000000 0.000000
0.000000 0.000000 0.000000
0.000000 0.000000 0.000000
0.000000 0.000000 0.000000
0.000000 0.000000 0.000000
0.000000 0.000000 0.000000
0.000000 0.000000 0.000000
0.000000 0.000000 0.000000
0.000000 0.000000 0.000000
0.000000 0.000000 0.000000
0.000000 0.000000 0.000000
0.000000 0.000000 0.000000
0.000000 0.000000 0.000000
0.000000 0.000000 0.000000
0.000000 0.000000 0.000000
0.000000 0.000000 0.000000
0.000000 0.000000 0.000000
0.000000 0.000000 0.000000
0.000000 0.000000 0.000000
0.000000 0.000000 0.000000
0.000000 0.000000 0.000000
0.000000 0.000000 0.000000
0.000000 0.000000 0.000000
0.000000 0.000000 0.000000
0.000000 0.000000 0.000000
0.000000 0.000000 0.000000
0.000000 0.000000 0.000000
0.000000 0.000000 0.000000
0.000000 0.000000 0.000000
0.000000 0.000000 0.000000
0.000000 0.000000 0.000000
0.000000 0.000000 0.000000
0.000000 0.000000 0.000000
0.000000 0.000000 0.000000
0.000000 0.000000 0.000000
0.000000 0.000000 0.000000
0.000000 0.000000 0.000000
0.000000 0.000000 0.000000
0.000000 0.000000 0.000000
0.000000 0.000000 0.000000
0.000000 0.000000 0.000000
0.000000 0.000000 0.000000
0.000000 0.000000 0.000000
0.000000 0.000000 0.000000
0.000000 0.000000 0.000000
0.000000 0.000000 0.000000
0.000000 0.000000 0.000000
0.000000 0.000000 0.000000
0.000000 0.000000 0.000000
0.000000 0.000000 0.000000
0.000000 0.000000 0.000000
0.000000 0.000000 0.000000
0.000000 0.000000 0.000000
0.000000 0.000000 0.000000
0.000000 0.000000 0.000000
0.000000 0.000000 0.000000
0.000000 0.000000 0.000000
0.000000 0.000000 0.000000
0.000000 0.000000 0.000000
0.000000 0.000000 0.000000
0.000000 0.000000 0.000000
0.000000 0.000000 0.000000
0.000000 0.000000 0.000000
0.000000 0.000000 0.000000
0.000000 0.000000 0.000000
0.000000 0.000000 0.000000
0.000000 0.000000 0.000000
0.000000 0.000000 0.000000
0.000000 0.000000 0.000000
0.000000 0.000000 0.000000
0.000000 0.000000 0.000000
0.000000 0.000000 0.000000
0.000000 0.000000 0.000000
0.000000 0.000000 0.000000
0.000000 0.000000 0.000000
0.000000 0.000000 0.000000
0.000000 0.000000 0.000000
0.000000 0.000000 0.000000
0.000000 0.000000 0.000000
0.000000 0.000000 0.000000
0.000000 0.000000 0.000000
0.000000 0.000000 0.000000
0.000000 0.000000 0.000000
0.000000 0.000000 0.000000
0.000000 0.000000 0.000000
0.000000 0.000000 0.000000
0.000000 0.000000 0.000000
0.000000 0.000000 0.000000
0.000000 0.000000 0.000000
0.000000 0.000000 0.000000
0.000000 0.000000 0.000000
0.000000 0.000000 0.000000
0.000000 0.000000 0.000000
0.000000 0.000000 0.000000
0.000000 0.000000 0.000000
0.000000 0.000000 0.000000
0.000000 0.000000 0.000319
0.000000 0.000000 0.002617
0.000000 0.000000 0.004915
0.000000 0.001699 0.007212
0.000000 0.004144 0.009510
0.001986 0.006590 0.011808
0.004562 0.009035 0.014105
0.007138 0.011481 0.016403
0.009714 0.013926 0.018700
0.012290 0.016372 0.020998
0.014866 0.018817 0.023296
0.017442 0.021263 0.025593
0.020018 0.023708 0.027891
0.022594 0.026154 0.030188
0.025170 0.028600 0.032486
0.027746 0.031045 0.034784
0.030322 0.033491 0.037081
0.032898 0.035936 0.039379
0.035474 0.038382 0.041677
0.038050 0.040827 0.043974
0.040626 0.043273 0.046272
0.043202 0.045718 0.048569
0.045778 0.048164 0.050867
0.048354 0.050609 0.053165
0.050930 0.053055 0.055462
0.053506 0.055500 0.057760
0.056082 0.057946 0.060057
0.058658 0.060391 0.062355
0.061234 0.062837 0.064653
0.063810 0.065282 0.066950
0.066386 0.067728 0.069248
0.068962 0.070173 0.071545
0.071538 0.072619 0.073843
0.074114 0.075064 0.076141
0.076690 0.077510 0.078438
0.079266 0.079955 0.080736
0.081842 0.082401 0.083034
0.084418 0.084846 0.085331
0.086994 0.087292 0.087629
0.089570 0.089737 0.089926
0.092146 0.092183 0.092224
0.094722 0.094628 0.094522
0.097298 0.097074 0.096819
0.099874 0.099519 0.099117
0.102450 0.101965 0.101414
0.105027 0.104410 0.103712
0.107603 0.106856 0.106010
0.110179 0.109301 0.108307
0.112755 0.111747 0.110605
0.115331 0.114192 0.112903
0.117907 0.116638 0.115200
0.120483 0.119083 0.117498
0.123059 0.121529 0.119795
0.125635 0.123974 0.122093
0.128211 0.126420 0.124391
0.130787 0.128866 0.126688
0.133363 0.131311 0.128986
0.135939 0.133757 0.131283
0.138515 0.136202 0.133581
0.141091 0.138648 0.135879
0.143667 0.141093 0.138176
0.146243 0.143539 0.140474
0.148819 0.145984 0.142772
0.151395 0.148430 0.145069
0.153971 0.150875 0.147367
0.156547 0.153321 0.149664
0.159123 0.155766 0.151962
0.161699 0.158212 0.154260
0.164275 0.160657 0.156557
0.166851 0.163103 0.158855
0.168979 0.165548 0.161152
0.170964 0.167859 0.163450
0.172914 0.169763 0.165748
0.174830 0.171635 0.167900
0.176714 0.173477 0.169689
0.178567 0.175288 0.171450
0.180389 0.177070 0.173183
0.182182 0.178823 0.174890
0.183946 0.180550 0.176571
0.185683 0.182250 0.178227
0.187392 0.183925 0.179859
0.189076 0.185574 0.181467
0.190735 0.187200 0.183052
0.192369 0.188802 0.184614
0.193980 0.190381 0.186155
0.195568 0.191938 0.187675
0.197133 0.193473 0.189175
0.198676 0.194988 0.190654
0.200199 0.196482 0.192114
0.201700 0.197956 0.193555
0.203182 0.199411 0.194977
0.204644 0.200848 0.196382
0.206087 0.202265 0.197769
0.207512 0.203665 0.199139
0.208918 0.205048 0.200492
0.210307 0.206414 0.201829
0.211679 0.207762 0.203150
0.213034 0.209095 0.204455
0.214373 0.210412 0.205745
0.215696 0.211714 0.207021
0.217003 0.213000 0.208282
0.218295 0.214272 0.209529
0.219572 0.215529 0.210761
0.220834 0.216772 0.211981
0.222083 0.218002 0.213187
0.223317 0.219217 0.214380
0.224538 0.220420 0.215561
0.225746 0.221610 0.216729
0.226941 0.222787 0.217885
0.228122 0.223952 0.219029
0.229292 0.225105 0.220161
0.230449 0.226246 0.221282
0.231595 0.227375 0.222391
0.232728 0.228493 0.223490
0.233850 0.229600 0.224578
0.234961 0.230696 0.225655
0.236061 0.231781 0.226723
0.237151 0.232856 0.227779
0.238229 0.233921 0.228826
0.239297 0.234975 0.229863
0.240355 0.236019 0.230891
0.241403 0.237054 0.231909
0.242442 0.238079 0.232918
0.243470 0.239095 0.233918
0.244489 0.240101 0.234908
0.245499 0.241099 0.235891
0.246500 0.242087 0.236864
0.247492 0.243067 0.237829
0.248475 0.244038 0.238786
0.249449 0.245001 0.239734
0.250415 0.245956 0.240675
0.251373 0.246902 0.241607
0.252322 0.247840 0.242532
0.253264 0.248771 0.243449
0.254197 0.249694 0.244359
0.255123 0.250609 0.245261
0.256041 0.251517 0.246156
0.256951 0.252417 0.247044
0.257855 0.253310 0.247925
0.258750 0.254196 0.248798
0.259639 0.255075 0.249665
0.260521 0.255947 0.250526
0.261395 0.256813 0.251379
0.262263 0.257671 0.252227
0.263124 0.258523 0.253067
0.263979 0.259369 0.253902
0.264826 0.260208 0.254730
0.265668 0.261041 0.255552
0.266503 0.261867 0.256368
0.267332 0.262688 0.257178
0.268155 0.263502 0.257982
0.268972 0.264311 0.258781
0.269782 0.265114 0.259574
0.270587 0.265911 0.260361
0.271386 0.266702 0.261142
0.272180 0.267488 0.261918
0.272967 0.268268 0.262689
0.273750 0.269042 0.263454
0.274526 0.269812 0.264215
0.275298 0.270576 0.264970
0.276064 0.271335 0.265720
0.276824 0.272088 0.266464
0.277580 0.272837 0.267204
0.278330 0.273580 0.267939
0.279076 0.274319 0.268669
0.279816 0.275053 0.269395
0.280552 0.275782 0.270115
0.281283 0.276506 0.270831
0.282008 0.277225 0.271543
0.282730 0.277940 0.272250
0.283446 0.278650 0.272952
0.284158 0.279356 0.273650
0.284866 0.280058 0.274344
0.285569 0.280754 0.275033
0.286267 0.281447 0.275718
0.286961 0.282135 0.276399
0.287651 0.282819 0.277076
0.288337 0.283499 0.277749
0.289018 0.284175 0.278417
0.289695 0.284846 0.279082
0.290368 0.285514 0.279743
0.291037 0.286178 0.280399
0.291703 0.286837 0.281052
0.292364 0.287493 0.281701
0.293021 0.288145 0.282346
0.293674 0.288793 0.282988
0.294324 0.289437 0.283626
0.294969 0.290078 0.284260
0.295611 0.290715 0.284891
0.296250 0.291348 0.285518
0.296884 0.291978 0.286141
0.297515 0.292604 0.286761
0.298143 0.293226 0.287378
0.298767 0.293846 0.287991
0.299387 0.294461 0.288601
0.300004 0.295074 0.289207
0.300618 0.295683 0.289811
0.301228 0.296288 0.290411
0.301835 0.296891 0.291007
0.302438 0.297490 0.291601
0.303039 0.298086 0.292191
0.303636 0.298678 0.292778
0.304230 0.299268 0.293363
0.304820 0.299854 0.293944
0.305408 0.300438 0.294522
0.305992 0.301018 0.295097
0.306574 0.301595 0.295669
0.307152 0.302170 0.296238
0.307728 0.302741 0.296804
0.308300 0.303309 0.297368
0.308870 0.303875 0.297928
0.309436 0.304438 0.298486
0.310000 0.304998 0.299041
0.310561 0.305555 0.299593
0.311119 0.306109 0.300143
0.311674 0.306660 0.300690
0.312227 0.307209 0.301234
0.312777 0.307755 0.301775
0.313324 0.308298 0.302314
0.313868 0.308839 0.302850
0.314410 0.309377 0.303384
0.314949 0.309913 0.303915
0.315485 0.310446 0.304443
0.316019 0.310976 0.304969
0.316551 0.311504 0.305493
0.317079 0.312030 0.306014
0.317606 0.312552 0.306533
0.318130 0.313073 0.307049
0.318651 0.313591 0.307563
0.319170 0.314107 0.308074
0.319686 0.314620 0.308583
0.320201 0.315131 0.309090
0.320712 0.315639 0.309595
0.321222 0.316145 0.310097
0.321729 0.316649 0.310597
0.322234 0.317151 0.311095
0.322736 0.317650 0.311590
0.323236 0.318148 0.312083
0.323734 0.318643 0.312575
0.324230 0.319135 0.313064
0.324724 0.319626 0.313550
0.325215 0.320114 0.314035
0.325704 0.320601 0.314518
0.326191 0.321085 0.314998
0.326676 0.321567 0.315477
0.327159 0.322047 0.315953
0.327640 0.322525 0.316427
0.328118 0.323000 0.316900
0.328595 0.323474 0.317370
0.329070 0.323946 0.317838
0.329542 0.324416 0.318305
0.330013 0.324884 0.318769
0.330481 0.325350 0.319231
0.330948 0.325813 0.319692
0.331412 0.326275 0.320151
0.331875 0.326736 0.320607
0.332336 0.327194 0.321062
0.332795 0.327650 0.321515
0.333252 0.328104 0.321967
0.333707 0.328557 0.322416
0.334160 0.329008 0.322864
0.334612 0.329457 0.323309
0.335061 0.329904 0.323753
0.335509 0.330349 0.324196
0.335955 0.330793 0.324636
0.336399 0.331234 0.325075
0.336842 0.331674 0.325512
0.337282 0.332113 0.325947
0.337721 0.332549 0.326381
0.338158 0.332984 0.326812
0.338594 0.333417 0.327243
0.339028 0.333849 0.327671
0.339460 0.334278 0.328098
0.339890 0.334707 0.328523
0.340319 0.335133 0.328947
0.340746 0.335558 0.329369
0.341171 0.335981 0.329790
0.341595 0.336403 0.330208
0.342017 0.336823 0.330626
0.342438 0.337241 0.331041
0.342857 0.337658 0.331456
0.343275 0.338073 0.331868
0.343690 0.338487 0.332279
0.344105 0.338899 0.332689
0.344518 0.339310 0.333097
0.344929 0.339719 0.333504
0.345339 0.340127 0.333909
0.345747 0.340533 0.334312
0.346154 0.340938 0.334714
0.346559 0.341341 0.335115
0.346963 0.341743 0.335514
0.347365 0.342143 0.335912
0.347766 0.342542 0.336309
0.348165 0.342940 0.336704
0.348563 0.343336 0.337097
0.348960 0.343730 0.337490
0.349355 0.344124 0.337880
0.349749 0.344516 0.338270
0.350141 0.344906 0.338658
0.350532 0.345295 0.339045
0.350922 0.345683 0.339430
0.351310 0.346069 0.339814
0.351697 0.346454 0.340197
0.352083 0.346838 0.340578
0.352467 0.347221 0.340959
0.352850 0.347602 0.341337
0.353231 0.347981 0.341715
0.353612 0.348360 0.342091
0.353991 0.348737 0.342466
0.354368 0.349113 0.342840
0.354745 0.349488 0.343212
0.355120 0.349861 0.343584
0.355494 0.350233 0.343954
0.355866 0.350604 0.344322
0.356238 0.350974 0.344690
0.356608 0.351342 0.345056
0.356977 0.351710 0.345421
0.357344 0.352076 0.345785
0.357711 0.352440 0.346148
0.358076 0.352804 0.346510
0.358440 0.353167 0.346870
0.358803 0.353528 0.347229
0.359165 0.353888 0.347587
0.359525 0.354247 0.347944
0.359885 0.354605 0.348300
0.360243 0.354961 0.348655
0.360600 0.355317 0.349008
0.360956 0.355671 0.349360
0.361311 0.356024 0.349712
0.361664 0.356376 0.350062
0.362017 0.356727 0.350411
0.362368 0.357077 0.350759
0.362718 0.357426 0.351106
0.363068 0.357774 0.351452
0.363416 0.358120 0.351796
0.363763 0.358466 0.352140
0.364109 0.358810 0.352483
0.364453 0.359154 0.352824
0.364797 0.359496 0.353165
0.365140 0.359837 0.353504
0.365482 0.360177 0.353842
0.365822 0.360517 0.354180
0.366162 0.360855 0.354516
0.366500 0.361192 0.354852
0.366838 0.361528 0.355186
0.367174 0.361863 0.355519
0.367569 0.362256 0.355910
0.367993 0.362679 0.356331
0.368417 0.363101 0.356751
0.368841 0.363522 0.357170
0.369263 0.363943 0.357589
0.369685 0.364364 0.358007
0.370106 0.364783 0.358424
0.370527 0.365202 0.358841
0.370947 0.365620 0.359257
0.371366 0.366038 0.359672
0.371785 0.366455 0.360087
0.372202 0.366871 0.360501
0.372620 0.367286 0.360915
0.373036 0.367701 0.361328
0.373452 0.368116 0.361740
0.373868 0.368529 0.362152
0.374282 0.368942 0.362563
0.374696 0.369355 0.362973
0.375110 0.369767 0.363383
0.375522 0.370178 0.363792
0.375935 0.370588 0.364201
0.376346 0.370998 0.364609
0.376757 0.371408 0.365016
0.377167 0.371817 0.365423
0.377577 0.372225 0.365829
0.377986 0.372632 0.366235
0.378395 0.373039 0.366640
0.378802 0.373445 0.367044
0.379210 0.373851 0.367448
0.379616 0.374256 0.367851
0.380022 0.374661 0.368254
0.380428 0.375065 0.368656
0.380833 0.375468 0.369058
0.381237 0.375871 0.369459
0.381641 0.376273 0.369859
0.382044 0.376675 0.370259
0.382447 0.377076 0.370658
0.382849 0.377477 0.371057
0.383250 0.377877 0.371455
0.383651 0.378276 0.371853
0.384051 0.378675 0.372250
0.384451 0.379073 0.372646
0.384850 0.379471 0.373042
0.385249 0.379868 0.373438
0.385647 0.380265 0.373833
0.386044 0.380661 0.374227
0.386441 0.381057 0.374621
0.386838 0.381452 0.375014
0.387234 0.381846 0.375407
0.387629 0.382240 0.375799
0.388024 0.382634 0.376191
0.388418 0.383027 0.376582
0.388812 0.383419 0.376973
0.389205 0.383811 0.377363
0.389598 0.384203 0.377753
0.389990 0.384593 0.378142
0.390382 0.384984 0.378531
0.390773 0.385373 0.378919
0.391163 0.385763 0.379307
0.391553 0.386152 0.379694
0.391943 0.386540 0.380080
0.392332 0.386928 0.380467
0.392721 0.387315 0.380852
0.393109 0.387702 0.381237
0.393496 0.388088 0.381622
0.393883 0.388474 0.382006
0.394270 0.388859 0.382390
0.394656 0.389244 0.382773
0.395042 0.389628 0.383156
0.395427 0.390012 0.383538
0.395811 0.390396 0.383920
0.396195 0.390778 0.384302
0.396579 0.391161 0.384682
0.396962 0.391543 0.385063
0.397345 0.391924 0.385443
0.397727 0.392305 0.385822
0.398109 0.392686 0.386201
0.398490 0.393066 0.386580
0.398871 0.393445 0.386958
0.399251 0.393825 0.387336
0.399631 0.394203 0.387713
0.400010 0.394582 0.388090
0.400389 0.394959 0.388466
0.400768 0.395337 0.388842
0.401146 0.395713 0.389217
0.401523 0.396090 0.389592
0.401900 0.396466 0.389967
0.402277 0.396841 0.390341
0.402653 0.397216 0.390714
0.403029 0.397591 0.391087
0.403404 0.397965 0.391460
0.403779 0.398339 0.391833
0.404154 0.398712 0.392205
0.404528 0.399085 0.392576
0.404901 0.399458 0.392947
0.405274 0.399830 0.393318
0.405647 0.400201 0.393688
0.406019 0.400572 0.394058
0.406391 0.400943 0.394427
0.406763 0.401314 0.394796
0.407134 0.401683 0.395165
0.407504 0.402053 0.395533
0.407874 0.402422 0.395901
0.408244 0.402791 0.396268
0.408613 0.403159 0.396635
0.408982 0.403527 0.397001
0.409351 0.403894 0.397367
0.409719 0.404261 0.397733
0.410086 0.404628 0.398098
0.410454 0.404994 0.398463
0.410820 0.405360 0.398828
0.411187 0.405725 0.399192
0.411553 0.406090 0.399556
0.411919 0.406455 0.399919
0.412284 0.406819 0.400282
0.412649 0.407183 0.400645
0.413013 0.407546 0.401007
0.413377 0.407909 0.401368
0.413741 0.408272 0.401730
0.414104 0.408634 0.402091
0.414467 0.408996 0.402452
0.414829 0.409358 0.402812
0.415191 0.409719 0.403172
0.415553 0.410080 0.403531
0.415915 0.410440 0.403890
0.416275 0.410800 0.404249
0.416636 0.411160 0.404608
0.416996 0.411519 0.404966
0.417356 0.411878 0.405323
0.417716 0.412236 0.405681
0.418075 0.412594 0.406038
0.418433 0.412952 0.406394
0.418792 0.413310 0.406750
0.419150 0.413667 0.407106
0.419507 0.414023 0.407462
0.419864 0.414380 0.407817
0.420221 0.414736 0.408172
0.420578 0.415091 0.408526
0.420934 0.415446 0.408880
0.421290 0.415801 0.409234
0.421645 0.416156 0.409587
0.422000 0.416510 0.409940
0.422355 0.416864 0.410293
0.422709 0.417217 0.410646
0.423063 0.417570 0.410998
0.423417 0.417923 0.411349
0.423770 0.418276 0.411701
0.424123 0.418628 0.412052
0.424476 0.418980 0.412402
0.424828 0.419331 0.412753
0.425180 0.419682 0.413103
0.425532 0.420033 0.413452
0.425883 0.420383 0.413802
0.426234 0.420733 0.414150
0.426585 0.421083 0.414499
0.426935 0.421432 0.414848
0.427285 0.421782 0.415196
0.427635 0.422130 0.415543
0.427984 0.422479 0.415891
0.428333 0.422827 0.416238
0.428681 0.423175 0.416584
0.429030 0.423522 0.416931
0.429378 0.423869 0.417277
0.429725 0.424216 0.417623
0.430072 0.424562 0.417968
0.430419 0.424909 0.418313
0.430766 0.425254 0.418658
0.431112 0.425600 0.419003
0.431458 0.425945 0.419347
0.431804 0.426290 0.419691
0.432150 0.426635 0.420034
0.432495 0.426979 0.420377
0.432839 0.427323 0.420720
0.433184 0.427667 0.421063
0.433528 0.428010 0.421406
0.433872 0.428353 0.421748
0.434215 0.428696 0.422089
0.434559 0.429038 0.422431
0.434902 0.429380 0.422772
0.435244 0.429722 0.423113
0.435586 0.430064 0.423453
0.435928 0.430405 0.423794
0.436270 0.430746 0.424134
0.436612 0.431087 0.424473
0.436953 0.431427 0.424813
0.437293 0.431767 0.425152
0.437634 0.432107 0.425491
0.437974 0.432446 0.425829
0.438314 0.432785 0.426167
0.438654 0.433124 0.426505
0.438993 0.433463 0.426843
0.439332 0.433801 0.427180
0.439671 0.434139 0.427518
0.440009 0.434477 0.427854
0.440348 0.434814 0.428191
0.440685 0.435152 0.428527
0.441023 0.435489 0.428863
0.441360 0.435825 0.429199
0.441697 0.436161 0.429534
