tools/resolve/luts/NIRO Grading/Taxodia 09.26/C0255_e+3.45_r+0.04_b-0.02.cube
TITLE "NIRO BALANCE C0255 e +3.45 R +0.04 B -0.02 (lineare Verstaerkung S-Log3)"
LUT_1D_SIZE 4096
0.000000 0.000000 0.000000
0.000000 0.000000 0.000000
0.000000 0.000000 0.000000
0.000000 0.000000 0.000000
0.000000 0.000000 0.000000
0.000000 0.000000 0.000000
0.000000 0.000000 0.000000
0.000000 0.000000 0.000000
0.000000 0.000000 0.000000
0.000000 0.000000 0.000000
0.000000 0.000000 0.000000
0.000000 0.000000 0.000000
0.000000 0.000000 0.000000
0.000000 0.000000 0.000000
0.000000 0.000000 0.000000
0.000000 0.000000 0.000000
0.000000 0.000000 0.000000
0.000000 0.000000 0.000000
0.000000 0.000000 0.000000
0.000000 0.000000 0.000000
0.000000 0.000000 0.000000
0.000000 0.000000 0.000000
0.000000 0.000000 0.000000
0.000000 0.000000 0.000000
0.000000 0.000000 0.000000
0.000000 0.000000 0.000000
0.000000 0.000000 0.000000
0.000000 0.000000 0.000000
0.000000 0.000000 0.000000
0.000000 0.000000 0.000000
0.000000 0.000000 0.000000
0.000000 0.000000 0.000000
0.000000 0.000000 0.000000
0.000000 0.000000 0.000000
0.000000 0.000000 0.000000
0.000000 0.000000 0.000000
0.000000 0.000000 0.000000
0.000000 0.000000 0.000000
0.000000 0.000000 0.000000
0.000000 0.000000 0.000000
0.000000 0.000000 0.000000
0.000000 0.000000 0.000000
0.000000 0.000000 0.000000
0.000000 0.000000 0.000000
0.000000 0.000000 0.000000
0.000000 0.000000 0.000000
0.000000 0.000000 0.000000
0.000000 0.000000 0.000000
0.000000 0.000000 0.000000
0.000000 0.000000 0.000000
0.000000 0.000000 0.000000
0.000000 0.000000 0.000000
0.000000 0.000000 0.000000
0.000000 0.000000 0.000000
0.000000 0.000000 0.000000
0.000000 0.000000 0.000000
0.000000 0.000000 0.000000
0.000000 0.000000 0.000000
0.000000 0.000000 0.000000
0.000000 0.000000 0.000000
0.000000 0.000000 0.000000
0.000000 0.000000 0.000000
0.000000 0.000000 0.000000
0.000000 0.000000 0.000000
0.000000 0.000000 0.000000
0.000000 0.000000 0.000000
0.000000 0.000000 0.000000
0.000000 0.000000 0.000000
0.000000 0.000000 0.000000
0.000000 0.000000 0.000000
0.000000 0.000000 0.000000
0.000000 0.000000 0.000000
0.000000 0.000000 0.000000
0.000000 0.000000 0.000000
0.000000 0.000000 0.000000
0.000000 0.000000 0.000000
0.000000 0.000000 0.000000
0.000000 0.000000 0.000000
0.000000 0.000000 0.000000
0.000000 0.000000 0.000000
0.000000 0.000000 0.000000
0.000000 0.000000 0.000000
0.000000 0.000000 0.000000
0.000000 0.000000 0.000000
0.000000 0.000000 0.000000
0.000000 0.000000 0.000000
0.000000 0.000000 0.000000
0.000000 0.000000 0.000000
0.000000 0.000000 0.000000
0.000000 0.000000 0.000000
0.000000 0.000000 0.000000
0.000000 0.000000 0.000000
0.000000 0.000000 0.000000
0.000000 0.000000 0.000000
0.000000 0.000000 0.000000
0.000000 0.000000 0.000000
0.000000 0.000000 0.000000
0.000000 0.000000 0.000000
0.000000 0.000000 0.000000
0.000000 0.000000 0.000000
0.000000 0.000000 0.000000
0.000000 0.000000 0.000000
0.000000 0.000000 0.000000
0.000000 0.000000 0.000000
0.000000 0.000000 0.000000
0.000000 0.000000 0.000000
0.000000 0.000000 0.000000
0.000000 0.000000 0.000000
0.000000 0.000000 0.000000
0.000000 0.000000 0.000000
0.000000 0.000000 0.000000
0.000000 0.000000 0.000000
0.000000 0.000000 0.000000
0.000000 0.000000 0.000000
0.000000 0.000000 0.000000
0.000000 0.000000 0.000000
0.000000 0.000000 0.000000
0.000000 0.000000 0.000000
0.000000 0.000000 0.000000
0.000000 0.000000 0.000000
0.000000 0.000000 0.000000
0.000000 0.000000 0.000000
0.000000 0.000000 0.000000
0.000000 0.000000 0.000000
0.000000 0.000000 0.000000
0.000000 0.000000 0.000000
0.000000 0.000000 0.000000
0.000000 0.000000 0.000000
0.000000 0.000000 0.000000
0.000000 0.000000 0.000000
0.000000 0.000000 0.000000
0.000000 0.000000 0.000000
0.000000 0.000000 0.000000
0.000000 0.000000 0.000000
0.000000 0.000000 0.000000
0.000000 0.000000 0.000000
0.000000 0.000000 0.000000
0.000000 0.000000 0.000000
0.000000 0.000000 0.000000
0.000000 0.000000 0.000000
0.000000 0.000000 0.000000
0.000000 0.000000 0.000000
0.000000 0.000000 0.000000
0.000000 0.000000 0.000000
0.000000 0.000000 0.000000
0.000000 0.000000 0.000000
0.000000 0.000000 0.000000
0.000000 0.000000 0.000000
0.000000 0.000000 0.000000
0.000000 0.000000 0.000000
0.000000 0.000000 0.000000
0.000000 0.000000 0.000000
0.000000 0.000000 0.000000
0.000000 0.000000 0.000000
0.000000 0.000000 0.000000
0.000000 0.000000 0.000000
0.000000 0.000000 0.000000
0.000000 0.000000 0.000000
0.000000 0.000000 0.000000
0.000000 0.000000 0.000000
0.000000 0.000000 0.000000
0.000000 0.000000 0.000000
0.000000 0.000000 0.000000
0.000000 0.000000 0.000000
0.000000 0.000000 0.000000
0.000000 0.000000 0.000000
0.000000 0.000000 0.000000
0.000000 0.000000 0.000000
0.000000 0.000000 0.000000
0.000000 0.000000 0.000000
0.000000 0.000000 0.000000
0.000000 0.000000 0.000000
0.000000 0.000000 0.000000
0.000000 0.000000 0.000000
0.000000 0.000000 0.000000
0.000000 0.000000 0.000000
0.000000 0.000000 0.000000
0.000000 0.000000 0.000000
0.000000 0.000000 0.000000
0.000000 0.000000 0.000000
0.000000 0.000000 0.000000
0.000000 0.000000 0.000000
0.000000 0.000000 0.000000
0.000000 0.000000 0.000000
0.000000 0.000000 0.000000
0.000000 0.000000 0.000000
0.000000 0.000000 0.000000
0.000000 0.000000 0.000000
0.000000 0.000000 0.000000
0.000000 0.000000 0.000000
0.000000 0.000000 0.000000
0.000000 0.000000 0.000000
0.000000 0.000000 0.000000
0.000000 0.000000 0.000000
0.000000 0.000000 0.000000
0.000000 0.000000 0.000000
0.000000 0.000000 0.000000
0.000000 0.000000 0.000000
0.000000 0.000000 0.000000
0.000000 0.000000 0.000000
0.000000 0.000000 0.000000
0.000000 0.000000 0.000000
0.000000 0.000000 0.000000
0.000000 0.000000 0.000000
0.000000 0.000000 0.000000
0.000000 0.000000 0.000000
0.000000 0.000000 0.000000
0.000000 0.000000 0.000000
0.000000 0.000000 0.000000
0.000000 0.000000 0.000000
0.000000 0.000000 0.000000
0.000000 0.000000 0.000000
0.000000 0.000000 0.000000
0.000000 0.000000 0.000000
0.000000 0.000000 0.000000
0.000000 0.000000 0.000000
0.000000 0.000000 0.000000
0.000000 0.000000 0.000000
0.000000 0.000000 0.000000
0.000000 0.000000 0.000000
0.000000 0.000000 0.000000
0.000000 0.000000 0.000000
0.000000 0.000000 0.000000
0.000000 0.000000 0.000000
0.000000 0.000000 0.000000
0.000000 0.000000 0.000000
0.000000 0.000000 0.000000
0.000000 0.000000 0.000000
0.000000 0.000000 0.000000
0.000000 0.000000 0.000000
0.000000 0.000000 0.000000
0.000000 0.000000 0.000000
0.000000 0.000000 0.000000
0.000000 0.000000 0.000000
0.000000 0.000000 0.000000
0.000000 0.000000 0.000000
0.000000 0.000000 0.000000
0.000000 0.000000 0.000000
0.000000 0.000000 0.000000
0.000000 0.000000 0.000000
0.000000 0.000000 0.000000
0.000000 0.000000 0.000000
0.000000 0.000000 0.000000
0.000000 0.000000 0.000000
0.000000 0.000000 0.000000
0.000000 0.000000 0.000000
0.000000 0.000000 0.000000
0.000000 0.000000 0.000000
0.000000 0.000000 0.000000
0.000000 0.000000 0.000000
0.000000 0.000000 0.000000
0.000000 0.000000 0.000000
0.000000 0.000000 0.000000
0.000000 0.000000 0.000000
0.000000 0.000000 0.000000
0.000000 0.000000 0.000000
0.000000 0.000000 0.000000
0.000000 0.000000 0.000000
0.000000 0.000000 0.000000
0.000000 0.000000 0.000000
0.000000 0.000000 0.000000
0.000000 0.000000 0.000000
0.000000 0.000000 0.000000
0.000000 0.000000 0.000000
0.000000 0.000000 0.000000
0.000000 0.000000 0.000000
0.000000 0.000000 0.000000
0.000000 0.000000 0.000000
0.000000 0.000000 0.000000
0.000000 0.000000 0.000000
0.000000 0.000000 0.000000
0.000000 0.000000 0.000000
0.000000 0.000000 0.000000
0.000000 0.000000 0.000000
0.000000 0.000000 0.000000
0.000000 0.000000 0.000000
0.000000 0.000000 0.000000
0.000000 0.000000 0.000000
0.000000 0.000000 0.000000
0.000000 0.000000 0.000000
0.000000 0.000000 0.000000
0.000000 0.000000 0.000000
0.000000 0.000000 0.000000
0.000000 0.000000 0.000000
0.000000 0.000000 0.000000
0.000000 0.000000 0.000000
0.000000 0.000000 0.000000
0.000000 0.000000 0.000000
0.000000 0.000000 0.000000
0.000000 0.000000 0.000000
0.000000 0.000000 0.000000
0.000000 0.000000 0.000000
0.000000 0.000000 0.000000
0.000000 0.000000 0.000000
0.000000 0.000000 0.000000
0.000000 0.000000 0.000000
0.000000 0.000000 0.000000
0.000000 0.000000 0.000000
0.000000 0.000000 0.000000
0.000000 0.000000 0.000000
0.000000 0.000000 0.000000
0.000000 0.000000 0.000000
0.000000 0.000000 0.000000
0.000000 0.000000 0.000000
0.000000 0.000000 0.000000
0.000000 0.000000 0.000000
0.000000 0.000000 0.000000
0.000000 0.000000 0.000000
0.000000 0.000000 0.000000
0.000000 0.000000 0.000000
0.000000 0.000000 0.000000
0.000000 0.000000 0.000000
0.000000 0.000000 0.000000
0.000000 0.000000 0.000000
0.000000 0.000000 0.000000
0.000000 0.000000 0.000000
0.000000 0.000000 0.000000
0.000000 0.000000 0.000000
0.000000 0.000000 0.000000
0.000000 0.000000 0.000000
0.000000 0.000000 0.000000
0.000000 0.000000 0.000000
0.000000 0.000000 0.000000
0.000000 0.000000 0.000000
0.000000 0.000000 0.000000
0.000000 0.000000 0.000000
0.000000 0.000000 0.000000
0.000000 0.000000 0.000000
0.000000 0.000000 0.000000
0.000000 0.000000 0.000000
0.000000 0.000000 0.000000
0.000000 0.000000 0.000000
0.000000 0.000000 0.000000
0.000000 0.000000 0.000000
0.000000 0.000000 0.000000
0.000000 0.000000 0.000000
0.000000 0.000000 0.000000
0.000000 0.000000 0.000000
0.000000 0.000000 0.000000
0.000000 0.000000 0.000000
0.000000 0.000000 0.000000
0.000000 0.000000 0.000000
0.000000 0.000000 0.000000
0.000000 0.000000 0.000000
0.000000 0.000000 0.000000
0.000000 0.000000 0.000141
0.000000 0.001448 0.002769
0.001683 0.004115 0.005398
0.004423 0.006782 0.008026
0.007163 0.009449 0.010654
0.009903 0.012116 0.013283
0.012643 0.014783 0.015911
0.015383 0.017449 0.018539
0.018123 0.020116 0.021167
0.020863 0.022783 0.023796
0.023603 0.025450 0.026424
0.026343 0.028117 0.029052
0.029083 0.030784 0.031681
0.031822 0.033450 0.034309
0.034562 0.036117 0.036937
0.037302 0.038784 0.039566
0.040042 0.041451 0.042194
0.042782 0.044118 0.044822
0.045522 0.046785 0.047451
0.048262 0.049452 0.050079
0.051002 0.052118 0.052707
0.053742 0.054785 0.055336
0.056482 0.057452 0.057964
0.059222 0.060119 0.060592
0.061962 0.062786 0.063220
0.064702 0.065453 0.065849
0.067441 0.068120 0.068477
0.070181 0.070786 0.071105
0.072921 0.073453 0.073734
0.075661 0.076120 0.076362
0.078401 0.078787 0.078990
0.081141 0.081454 0.081619
0.083881 0.084121 0.084247
0.086621 0.086787 0.086875
0.089361 0.089454 0.089504
0.092101 0.092121 0.092132
0.094841 0.094788 0.094760
0.097581 0.097455 0.097389
0.100321 0.100122 0.100017
0.103061 0.102789 0.102645
0.105800 0.105455 0.105273
0.108540 0.108122 0.107902
0.111280 0.110789 0.110530
0.114020 0.113456 0.113158
0.116760 0.116123 0.115787
0.119500 0.118790 0.118415
0.122240 0.121457 0.121043
0.124980 0.124123 0.123672
0.127720 0.126790 0.126300
0.130460 0.129457 0.128928
0.133200 0.132124 0.131557
0.135940 0.134791 0.134185
0.138680 0.137458 0.136813
0.141419 0.140124 0.139442
0.144159 0.142791 0.142070
0.146899 0.145458 0.144698
0.149639 0.148125 0.147326
0.152379 0.150792 0.149955
0.155119 0.153459 0.152583
0.157859 0.156126 0.155211
0.160599 0.158792 0.157840
0.163339 0.161459 0.160468
0.166079 0.164126 0.163096
0.168505 0.166793 0.165725
0.170624 0.169005 0.168141
0.172704 0.171058 0.170181
0.174745 0.173075 0.172184
0.176749 0.175056 0.174152
0.178718 0.177002 0.176086
0.180652 0.178914 0.177986
0.182554 0.180794 0.179855
0.184423 0.182643 0.181692
0.186261 0.184461 0.183500
0.188070 0.186250 0.185278
0.189849 0.188011 0.187029
0.191600 0.189744 0.188753
0.193324 0.191451 0.190450
0.195022 0.193131 0.192121
0.196694 0.194787 0.193768
0.198342 0.196418 0.195391
0.199965 0.198026 0.196990
0.201565 0.199611 0.198566
0.203142 0.201173 0.200121
0.204697 0.202714 0.201654
0.206231 0.204234 0.203166
0.207744 0.205733 0.204658
0.209236 0.207212 0.206130
0.210708 0.208672 0.207583
0.212162 0.210113 0.209017
0.213596 0.211535 0.210433
0.215012 0.212939 0.211830
0.216411 0.214326 0.213211
0.217792 0.215696 0.214575
0.219156 0.217049 0.215922
0.220503 0.218386 0.217252
0.221835 0.219706 0.218568
0.223150 0.221012 0.219867
0.224450 0.222302 0.221152
0.225735 0.223577 0.222422
0.227006 0.224838 0.223678
0.228262 0.226085 0.224919
0.229504 0.227317 0.226147
0.230732 0.228537 0.227361
0.231946 0.229743 0.228563
0.233148 0.230936 0.229751
0.234337 0.232116 0.230927
0.235513 0.233284 0.232090
0.236677 0.234440 0.233242
0.237828 0.235584 0.234381
0.238968 0.236716 0.235509
0.240097 0.237837 0.236626
0.241214 0.238946 0.237732
0.242320 0.240045 0.238826
0.243414 0.241133 0.239910
0.244499 0.242210 0.240984
0.245572 0.243277 0.242047
0.246636 0.244334 0.243100
0.247689 0.245380 0.244143
0.248733 0.246417 0.245177
0.249767 0.247445 0.246201
0.250791 0.248463 0.247215
0.251806 0.249472 0.248221
0.252811 0.250471 0.249217
0.253808 0.251462 0.250205
0.254796 0.252444 0.251184
0.255775 0.253417 0.252154
0.256745 0.254382 0.253116
0.257707 0.255339 0.254069
0.258661 0.256287 0.255015
0.259607 0.257228 0.255952
0.260545 0.258160 0.256882
0.261474 0.259085 0.257804
0.262397 0.260002 0.258718
0.263311 0.260912 0.259625
0.264218 0.261814 0.260525
0.265118 0.262709 0.261417
0.266010 0.263597 0.262302
0.266896 0.264477 0.263180
0.267774 0.265351 0.264051
0.268646 0.266218 0.264916
0.269510 0.267078 0.265774
0.270368 0.267932 0.266625
0.271220 0.268779 0.267470
0.272065 0.269620 0.268308
0.272903 0.270454 0.269140
0.273735 0.271282 0.269966
0.274561 0.272104 0.270786
0.275381 0.272920 0.271600
0.276195 0.273730 0.272408
0.277003 0.274534 0.273210
0.277806 0.275333 0.274006
0.278602 0.276125 0.274797
0.279393 0.276912 0.275582
0.280178 0.277694 0.276361
0.280958 0.278470 0.277135
0.281732 0.279241 0.277904
0.282501 0.280006 0.278667
0.283264 0.280766 0.279426
0.284023 0.281521 0.280179
0.284776 0.282271 0.280927
0.285524 0.283016 0.281670
0.286267 0.283755 0.282408
0.287005 0.284490 0.283141
0.287739 0.285221 0.283869
0.288467 0.285946 0.284593
0.289191 0.286667 0.285312
0.289910 0.287383 0.286026
0.290624 0.288094 0.286736
0.291334 0.288801 0.287441
0.292040 0.289503 0.288142
0.292740 0.290201 0.288838
0.293437 0.290895 0.289530
0.294129 0.291584 0.290218
0.294817 0.292269 0.290902
0.295501 0.292950 0.291581
0.296180 0.293627 0.292256
0.296855 0.294299 0.292927
0.297527 0.294968 0.293594
0.298194 0.295632 0.294257
0.298857 0.296293 0.294917
0.299516 0.296950 0.295572
0.300172 0.297603 0.296223
0.300823 0.298252 0.296871
0.301471 0.298897 0.297515
0.302115 0.299538 0.298155
0.302755 0.300176 0.298792
0.303392 0.300810 0.299424
0.304025 0.301441 0.300054
0.304654 0.302068 0.300679
0.305280 0.302691 0.301302
0.305902 0.303311 0.301920
0.306521 0.303928 0.302536
0.307137 0.304541 0.303148
0.307749 0.305151 0.303756
0.308357 0.305757 0.304361
0.308963 0.306361 0.304963
0.309565 0.306961 0.305562
0.310163 0.307557 0.306158
0.310759 0.308151 0.306750
0.311351 0.308741 0.307339
0.311941 0.309328 0.307925
0.312527 0.309912 0.308508
0.313110 0.310493 0.309088
0.313690 0.311072 0.309665
0.314267 0.311647 0.310239
0.314841 0.312219 0.310810
0.315412 0.312788 0.311378
0.315980 0.313354 0.311944
0.316546 0.313917 0.312506
0.317108 0.314478 0.313065
0.317668 0.315036 0.313622
0.318224 0.315591 0.314176
0.318778 0.316143 0.314727
0.319330 0.316692 0.315276
0.319878 0.317239 0.315821
0.320424 0.317783 0.316364
0.320967 0.318324 0.316905
0.321508 0.318863 0.317443
0.322046 0.319399 0.317978
0.322581 0.319933 0.318511
0.323114 0.320464 0.319041
0.323644 0.320992 0.319568
0.324171 0.321519 0.320093
0.324697 0.322042 0.320616
0.325219 0.322563 0.321136
0.325740 0.323082 0.321654
0.326257 0.323598 0.322169
0.326773 0.324112 0.322682
0.327286 0.324623 0.323193
0.327797 0.325132 0.323701
0.328305 0.325639 0.324207
0.328811 0.326144 0.324711
0.329315 0.326646 0.325212
0.329816 0.327146 0.325711
0.330315 0.327644 0.326208
0.330812 0.328139 0.326703
0.331307 0.328632 0.327195
0.331799 0.329123 0.327686
0.332290 0.329612 0.328174
0.332778 0.330099 0.328660
0.333264 0.330584 0.329144
0.333748 0.331066 0.329626
0.334230 0.331547 0.330105
0.334710 0.332025 0.330583
0.335187 0.332502 0.331059
0.335663 0.332976 0.331532
0.336137 0.333448 0.332004
0.336608 0.333919 0.332473
0.337078 0.334387 0.332941
0.337546 0.334853 0.333407
0.338011 0.335318 0.333870
0.338475 0.335780 0.334332
0.338937 0.336241 0.334792
0.339397 0.336699 0.335250
0.339855 0.337156 0.335706
0.340311 0.337611 0.336160
0.340765 0.338064 0.336612
0.341218 0.338515 0.337063
0.341668 0.338964 0.337512
0.342117 0.339412 0.337959
0.342564 0.339858 0.338404
0.343009 0.340302 0.338847
0.343452 0.340744 0.339289
0.343894 0.341184 0.339728
0.344334 0.341623 0.340166
0.344772 0.342060 0.340603
0.345208 0.342495 0.341037
0.345643 0.342929 0.341470
0.346076 0.343361 0.341902
0.346507 0.343791 0.342331
0.346937 0.344219 0.342759
0.347365 0.344646 0.343185
0.347791 0.345072 0.343610
0.348216 0.345495 0.344033
0.348639 0.345917 0.344455
0.349060 0.346338 0.344874
0.349480 0.346757 0.345293
0.349899 0.347174 0.345709
0.350315 0.347590 0.346125
0.350731 0.348004 0.346538
0.351144 0.348416 0.346950
0.351556 0.348827 0.347361
0.351967 0.349237 0.347770
0.352376 0.349645 0.348177
0.352784 0.350052 0.348583
0.353190 0.350457 0.348988
0.353594 0.350860 0.349391
0.353997 0.351262 0.349793
0.354399 0.351663 0.350193
0.354799 0.352062 0.350591
0.355198 0.352460 0.350989
0.355595 0.352857 0.351385
0.355991 0.353252 0.351779
0.356386 0.353645 0.352172
0.356779 0.354037 0.352564
0.357171 0.354428 0.352954
0.357561 0.354818 0.353343
0.357950 0.355206 0.353731
0.358338 0.355593 0.354117
0.358724 0.355978 0.354502
0.359109 0.356362 0.354886
0.359492 0.356745 0.355268
0.359875 0.357126 0.355649
0.360256 0.357506 0.356028
0.360635 0.357885 0.356407
0.361014 0.358263 0.356784
0.361391 0.358639 0.357160
0.361767 0.359014 0.357534
0.362141 0.359388 0.357907
0.362515 0.359760 0.358279
0.362887 0.360131 0.358650
0.363257 0.360501 0.359020
0.363627 0.360870 0.359388
0.363995 0.361238 0.359755
0.364362 0.361604 0.360121
0.364728 0.361969 0.360486
0.365093 0.362333 0.360849
0.365457 0.362696 0.361212
0.365819 0.363057 0.361573
0.366180 0.363418 0.361933
0.366540 0.363777 0.362291
0.366899 0.364135 0.362649
0.367257 0.364492 0.363005
0.367613 0.364848 0.363361
0.367968 0.365202 0.363715
0.368323 0.365556 0.364068
0.368676 0.365908 0.364420
0.369028 0.366259 0.364771
0.369379 0.366609 0.365121
0.369728 0.366958 0.365469
0.370077 0.367306 0.365817
0.370425 0.367653 0.366163
0.370771 0.367999 0.366509
0.371117 0.368344 0.366853
0.371461 0.368687 0.367196
0.371804 0.369030 0.367539
0.372146 0.369372 0.367880
0.372488 0.369712 0.368220
0.372828 0.370051 0.368559
0.373167 0.370390 0.368897
0.373505 0.370727 0.369234
0.373901 0.371123 0.369629
0.374328 0.371549 0.370054
0.374754 0.371974 0.370479
0.375179 0.372398 0.370903
0.375603 0.372822 0.371326
0.376027 0.373245 0.371748
0.376450 0.373667 0.372170
0.376873 0.374089 0.372592
0.377295 0.374509 0.373012
0.377716 0.374930 0.373432
0.378136 0.375349 0.373851
0.378556 0.375768 0.374270
0.378975 0.376187 0.374687
0.379394 0.376604 0.375105
0.379811 0.377021 0.375521
0.380229 0.377438 0.375937
0.380645 0.377853 0.376352
0.381061 0.378268 0.376767
0.381476 0.378683 0.377181
0.381891 0.379097 0.377594
0.382305 0.379510 0.378007
0.382718 0.379922 0.378419
0.383131 0.380334 0.378831
0.383543 0.380746 0.379242
0.383954 0.381156 0.379652
0.384365 0.381566 0.380062
0.384775 0.381976 0.380471
0.385185 0.382385 0.380879
0.385594 0.382793 0.381287
0.386002 0.383201 0.381694
0.386410 0.383608 0.382101
0.386817 0.384014 0.382507
0.387224 0.384420 0.382912
0.387630 0.384825 0.383317
0.388035 0.385230 0.383721
0.388440 0.385634 0.384125
0.388844 0.386037 0.384528
0.389248 0.386440 0.384931
0.389651 0.386843 0.385333
0.390053 0.387244 0.385734
0.390455 0.387646 0.386135
0.390856 0.388046 0.386535
0.391257 0.388446 0.386935
0.391657 0.388846 0.387334
0.392057 0.389245 0.387733
0.392456 0.389643 0.388131
0.392855 0.390041 0.388528
0.393253 0.390439 0.388925
0.393650 0.390835 0.389322
0.394047 0.391232 0.389718
0.394443 0.391627 0.390113
0.394839 0.392022 0.390508
0.395234 0.392417 0.390902
0.395629 0.392811 0.391296
0.396023 0.393205 0.391689
0.396417 0.393598 0.392081
0.396810 0.393990 0.392474
0.397203 0.394382 0.392865
0.397595 0.394774 0.393256
0.397986 0.395164 0.393647
0.398377 0.395555 0.394037
0.398768 0.395945 0.394427
0.399158 0.396334 0.394816
0.399547 0.396723 0.395204
0.399936 0.397111 0.395592
0.400325 0.397499 0.395980
0.400713 0.397887 0.396367
0.401100 0.398274 0.396753
0.401487 0.398660 0.397139
0.401874 0.399046 0.397525
0.402260 0.399431 0.397910
0.402645 0.399816 0.398295
0.403030 0.400201 0.398679
0.403415 0.400584 0.399062
0.403799 0.400968 0.399445
0.404182 0.401351 0.399828
0.404566 0.401733 0.400210
0.404948 0.402115 0.400592
0.405330 0.402497 0.400973
0.405712 0.402878 0.401354
0.406093 0.403259 0.401734
0.406474 0.403639 0.402114
0.406854 0.404018 0.402493
0.407234 0.404398 0.402872
0.407613 0.404776 0.403251
0.407992 0.405155 0.403629
0.408370 0.405533 0.404006
0.408748 0.405910 0.404383
0.409126 0.406287 0.404760
0.409503 0.406663 0.405136
0.409879 0.407039 0.405512
0.410256 0.407415 0.405887
0.410631 0.407790 0.406262
0.411007 0.408165 0.406636
0.411381 0.408539 0.407010
0.411756 0.408913 0.407384
0.412130 0.409286 0.407757
0.412503 0.409659 0.408130
0.412876 0.410032 0.408502
0.413249 0.410404 0.408874
0.413621 0.410776 0.409245
0.413993 0.411147 0.409616
0.414364 0.411518 0.409987
0.414735 0.411888 0.410357
0.415105 0.412258 0.410726
0.415476 0.412628 0.411096
0.415845 0.412997 0.411465
0.416214 0.413365 0.411833
0.416583 0.413734 0.412201
0.416952 0.414102 0.412569
0.417320 0.414469 0.412936
0.417687 0.414836 0.413303
0.418054 0.415203 0.413669
0.418421 0.415569 0.414035
0.418788 0.415935 0.414401
0.419154 0.416301 0.414766
0.419519 0.416666 0.415131
0.419884 0.417030 0.415495
0.420249 0.417395 0.415859
0.420613 0.417759 0.416223
0.420977 0.418122 0.416586
0.421341 0.418485 0.416949
0.421704 0.418848 0.417311
0.422067 0.419210 0.417674
0.422429 0.419572 0.418035
0.422791 0.419934 0.418397
0.423153 0.420295 0.418757
0.423514 0.420656 0.419118
0.423875 0.421016 0.419478
0.424236 0.421376 0.419838
0.424596 0.421736 0.420197
0.424956 0.422095 0.420556
0.425315 0.422454 0.420915
0.425674 0.422813 0.421273
0.426033 0.423171 0.421631
0.426391 0.423529 0.421989
0.426749 0.423886 0.422346
0.427107 0.424243 0.422703
0.427464 0.424600 0.423060
0.427821 0.424956 0.423416
0.428177 0.425312 0.423772
0.428533 0.425668 0.424127
0.428889 0.426023 0.424482
0.429244 0.426378 0.424837
0.429599 0.426733 0.425191
0.429954 0.427087 0.425545
0.430308 0.427441 0.425899
0.430662 0.427795 0.426252
0.431016 0.428148 0.426605
0.431369 0.428501 0.426958
0.431722 0.428853 0.427310
0.432075 0.429205 0.427662
0.432427 0.429557 0.428013
0.432779 0.429909 0.428365
0.433130 0.430260 0.428716
0.433481 0.430611 0.429066
0.433832 0.430961 0.429416
0.434183 0.431311 0.429766
0.434533 0.431661 0.430116
0.434883 0.432010 0.430465
0.435233 0.432360 0.430814
0.435582 0.432708 0.431163
0.435931 0.433057 0.431511
0.436279 0.433405 0.431859
0.436627 0.433753 0.432206
0.436975 0.434100 0.432554
0.437323 0.434448 0.432901
0.437670 0.434794 0.433247
0.438017 0.435141 0.433594
0.438364 0.435487 0.433940
0.438710 0.435833 0.434285
0.439056 0.436179 0.434631
0.439402 0.436524 0.434976
0.439747 0.436869 0.435321
0.440092 0.437214 0.435665
0.440437 0.437558 0.436009
0.440781 0.437902 0.436353
0.441125 0.438246 0.436696
0.441469 0.438589 0.437040
0.441812 0.438932 0.437383
0.442156 0.439275 0.437725
0.442498 0.439617 0.438067
0.442841 0.439960 0.438409
0.443183 0.440302 0.438751
0.443525 0.440643 0.439092
0.443867 0.440984 0.439434
0.444208 0.441325 0.439774
0.444549 0.441666 0.440115
0.444890 0.442006 0.440455
0.445231 0.442347 0.440795
0.445571 0.442686 0.441135
0.445911 0.443026 0.441474
0.446250 0.443365 0.441813
0.446589 0.443704 0.442152
0.446928 0.444043 0.442490
0.447267 0.444381 0.442828
0.447606 0.444719 0.443166
0.447944 0.445057 0.443504
0.448282 0.445394 0.443841
