tools/resolve/luts/NIRO Grading/Taxodia 09.26/C0250_e+2.81_r+0.10_b-0.09.cube
TITLE "NIRO BALANCE C0250 e +2.81 R +0.10 B -0.09 (lineare Verstaerkung S-Log3)"
LUT_1D_SIZE 4096
0.000000 0.000000 0.000000
0.000000 0.000000 0.000000
0.000000 0.000000 0.000000
0.000000 0.000000 0.000000
0.000000 0.000000 0.000000
0.000000 0.000000 0.000000
0.000000 0.000000 0.000000
0.000000 0.000000 0.000000
0.000000 0.000000 0.000000
0.000000 0.000000 0.000000
0.000000 0.000000 0.000000
0.000000 0.000000 0.000000
0.000000 0.000000 0.000000
0.000000 0.000000 0.000000
0.000000 0.000000 0.000000
0.000000 0.000000 0.000000
0.000000 0.000000 0.000000
0.000000 0.000000 0.000000
0.000000 0.000000 0.000000
0.000000 0.000000 0.000000
0.000000 0.000000 0.000000
0.000000 0.000000 0.000000
0.000000 0.000000 0.000000
0.000000 0.000000 0.000000
0.000000 0.000000 0.000000
0.000000 0.000000 0.000000
0.000000 0.000000 0.000000
0.000000 0.000000 0.000000
0.000000 0.000000 0.000000
0.000000 0.000000 0.000000
0.000000 0.000000 0.000000
0.000000 0.000000 0.000000
0.000000 0.000000 0.000000
0.000000 0.000000 0.000000
0.000000 0.000000 0.000000
0.000000 0.000000 0.000000
0.000000 0.000000 0.000000
0.000000 0.000000 0.000000
0.000000 0.000000 0.000000
0.000000 0.000000 0.000000
0.000000 0.000000 0.000000
0.000000 0.000000 0.000000
0.000000 0.000000 0.000000
0.000000 0.000000 0.000000
0.000000 0.000000 0.000000
0.000000 0.000000 0.000000
0.000000 0.000000 0.000000
0.000000 0.000000 0.000000
0.000000 0.000000 0.000000
0.000000 0.000000 0.000000
0.000000 0.000000 0.000000
0.000000 0.000000 0.000000
0.000000 0.000000 0.000000
0.000000 0.000000 0.000000
0.000000 0.000000 0.000000
0.000000 0.000000 0.000000
0.000000 0.000000 0.000000
0.000000 0.000000 0.000000
0.000000 0.000000 0.000000
0.000000 0.000000 0.000000
0.000000 0.000000 0.000000
0.000000 0.000000 0.000000
0.000000 0.000000 0.000000
0.000000 0.000000 0.000000
0.000000 0.000000 0.000000
0.000000 0.000000 0.000000
0.000000 0.000000 0.000000
0.000000 0.000000 0.000000
0.000000 0.000000 0.000000
0.000000 0.000000 0.000000
0.000000 0.000000 0.000000
0.000000 0.000000 0.000000
0.000000 0.000000 0.000000
0.000000 0.000000 0.000000
0.000000 0.000000 0.000000
0.000000 0.000000 0.000000
0.000000 0.000000 0.000000
0.000000 0.000000 0.000000
0.000000 0.000000 0.000000
0.000000 0.000000 0.000000
0.000000 0.000000 0.000000
0.000000 0.000000 0.000000
0.000000 0.000000 0.000000
0.000000 0.000000 0.000000
0.000000 0.000000 0.000000
0.000000 0.000000 0.000000
0.000000 0.000000 0.000000
0.000000 0.000000 0.000000
0.000000 0.000000 0.000000
0.000000 0.000000 0.000000
0.000000 0.000000 0.000000
0.000000 0.000000 0.000000
0.000000 0.000000 0.000000
0.000000 0.000000 0.000000
0.000000 0.000000 0.000000
0.000000 0.000000 0.000000
0.000000 0.000000 0.000000
0.000000 0.000000 0.000000
0.000000 0.000000 0.000000
0.000000 0.000000 0.000000
0.000000 0.000000 0.000000
0.000000 0.000000 0.000000
0.000000 0.000000 0.000000
0.000000 0.000000 0.000000
0.000000 0.000000 0.000000
0.000000 0.000000 0.000000
0.000000 0.000000 0.000000
0.000000 0.000000 0.000000
0.000000 0.000000 0.000000
0.000000 0.000000 0.000000
0.000000 0.000000 0.000000
0.000000 0.000000 0.000000
0.000000 0.000000 0.000000
0.000000 0.000000 0.000000
0.000000 0.000000 0.000000
0.000000 0.000000 0.000000
0.000000 0.000000 0.000000
0.000000 0.000000 0.000000
0.000000 0.000000 0.000000
0.000000 0.000000 0.000000
0.000000 0.000000 0.000000
0.000000 0.000000 0.000000
0.000000 0.000000 0.000000
0.000000 0.000000 0.000000
0.000000 0.000000 0.000000
0.000000 0.000000 0.000000
0.000000 0.000000 0.000000
0.000000 0.000000 0.000000
0.000000 0.000000 0.000000
0.000000 0.000000 0.000000
0.000000 0.000000 0.000000
0.000000 0.000000 0.000000
0.000000 0.000000 0.000000
0.000000 0.000000 0.000000
0.000000 0.000000 0.000000
0.000000 0.000000 0.000000
0.000000 0.000000 0.000000
0.000000 0.000000 0.000000
0.000000 0.000000 0.000000
0.000000 0.000000 0.000000
0.000000 0.000000 0.000000
0.000000 0.000000 0.000000
0.000000 0.000000 0.000000
0.000000 0.000000 0.000000
0.000000 0.000000 0.000000
0.000000 0.000000 0.000000
0.000000 0.000000 0.000000
0.000000 0.000000 0.000000
0.000000 0.000000 0.000000
0.000000 0.000000 0.000000
0.000000 0.000000 0.000000
0.000000 0.000000 0.000000
0.000000 0.000000 0.000000
0.000000 0.000000 0.000000
0.000000 0.000000 0.000000
0.000000 0.000000 0.000000
0.000000 0.000000 0.000000
0.000000 0.000000 0.000000
0.000000 0.000000 0.000000
0.000000 0.000000 0.000000
0.000000 0.000000 0.000000
0.000000 0.000000 0.000000
0.000000 0.000000 0.000000
0.000000 0.000000 0.000000
0.000000 0.000000 0.000000
0.000000 0.000000 0.000000
0.000000 0.000000 0.000000
0.000000 0.000000 0.000000
0.000000 0.000000 0.000000
0.000000 0.000000 0.000000
0.000000 0.000000 0.000000
0.000000 0.000000 0.000000
0.000000 0.000000 0.000000
0.000000 0.000000 0.000000
0.000000 0.000000 0.000000
0.000000 0.000000 0.000000
0.000000 0.000000 0.000000
0.000000 0.000000 0.000000
0.000000 0.000000 0.000000
0.000000 0.000000 0.000000
0.000000 0.000000 0.000000
0.000000 0.000000 0.000000
0.000000 0.000000 0.000000
0.000000 0.000000 0.000000
0.000000 0.000000 0.000000
0.000000 0.000000 0.000000
0.000000 0.000000 0.000000
0.000000 0.000000 0.000000
0.000000 0.000000 0.000000
0.000000 0.000000 0.000000
0.000000 0.000000 0.000000
0.000000 0.000000 0.000000
0.000000 0.000000 0.000000
0.000000 0.000000 0.000000
0.000000 0.000000 0.000000
0.000000 0.000000 0.000000
0.000000 0.000000 0.000000
0.000000 0.000000 0.000000
0.000000 0.000000 0.000000
0.000000 0.000000 0.000000
0.000000 0.000000 0.000000
0.000000 0.000000 0.000000
0.000000 0.000000 0.000000
0.000000 0.000000 0.000000
0.000000 0.000000 0.000000
0.000000 0.000000 0.000000
0.000000 0.000000 0.000000
0.000000 0.000000 0.000000
0.000000 0.000000 0.000000
0.000000 0.000000 0.000000
0.000000 0.000000 0.000000
0.000000 0.000000 0.000000
0.000000 0.000000 0.000000
0.000000 0.000000 0.000000
0.000000 0.000000 0.000000
0.000000 0.000000 0.000000
0.000000 0.000000 0.000000
0.000000 0.000000 0.000000
0.000000 0.000000 0.000000
0.000000 0.000000 0.000000
0.000000 0.000000 0.000000
0.000000 0.000000 0.000000
0.000000 0.000000 0.000000
0.000000 0.000000 0.000000
0.000000 0.000000 0.000000
0.000000 0.000000 0.000000
0.000000 0.000000 0.000000
0.000000 0.000000 0.000000
0.000000 0.000000 0.000000
0.000000 0.000000 0.000000
0.000000 0.000000 0.000000
0.000000 0.000000 0.000000
0.000000 0.000000 0.000000
0.000000 0.000000 0.000000
0.000000 0.000000 0.000000
0.000000 0.000000 0.000000
0.000000 0.000000 0.000000
0.000000 0.000000 0.000000
0.000000 0.000000 0.000000
0.000000 0.000000 0.000000
0.000000 0.000000 0.000000
0.000000 0.000000 0.000000
0.000000 0.000000 0.000000
0.000000 0.000000 0.000000
0.000000 0.000000 0.000000
0.000000 0.000000 0.000000
0.000000 0.000000 0.000000
0.000000 0.000000 0.000000
0.000000 0.000000 0.000000
0.000000 0.000000 0.000000
0.000000 0.000000 0.000000
0.000000 0.000000 0.000000
0.000000 0.000000 0.000000
0.000000 0.000000 0.000000
0.000000 0.000000 0.000000
0.000000 0.000000 0.000000
0.000000 0.000000 0.000000
0.000000 0.000000 0.000000
0.000000 0.000000 0.000000
0.000000 0.000000 0.000000
0.000000 0.000000 0.000000
0.000000 0.000000 0.000000
0.000000 0.000000 0.000000
0.000000 0.000000 0.000000
0.000000 0.000000 0.000000
0.000000 0.000000 0.000000
0.000000 0.000000 0.000000
0.000000 0.000000 0.000000
0.000000 0.000000 0.000000
0.000000 0.000000 0.000000
0.000000 0.000000 0.000000
0.000000 0.000000 0.000000
0.000000 0.000000 0.000000
0.000000 0.000000 0.000000
0.000000 0.000000 0.000000
0.000000 0.000000 0.000000
0.000000 0.000000 0.000000
0.000000 0.000000 0.000000
0.000000 0.000000 0.000000
0.000000 0.000000 0.000000
0.000000 0.000000 0.000000
0.000000 0.000000 0.000000
0.000000 0.000000 0.000000
0.000000 0.000000 0.000000
0.000000 0.000000 0.000000
0.000000 0.000000 0.000000
0.000000 0.000000 0.000000
0.000000 0.000000 0.000000
0.000000 0.000000 0.000000
0.000000 0.000000 0.000000
0.000000 0.000000 0.000000
0.000000 0.000000 0.000000
0.000000 0.000000 0.000000
0.000000 0.000000 0.000000
0.000000 0.000000 0.000000
0.000000 0.000000 0.000000
0.000000 0.000000 0.000000
0.000000 0.000000 0.000000
0.000000 0.000000 0.000000
0.000000 0.000000 0.000000
0.000000 0.000000 0.000000
0.000000 0.000000 0.000000
0.000000 0.000000 0.000000
0.000000 0.000000 0.000000
0.000000 0.000000 0.000000
0.000000 0.000000 0.000000
0.000000 0.000000 0.000000
0.000000 0.000000 0.000000
0.000000 0.000000 0.000000
0.000000 0.000000 0.000000
0.000000 0.000000 0.000000
0.000000 0.000000 0.000000
0.000000 0.000000 0.000000
0.000000 0.000000 0.000000
0.000000 0.000000 0.000000
0.000000 0.000000 0.000000
0.000000 0.000000 0.000000
0.000000 0.000000 0.000000
0.000000 0.000000 0.000000
0.000000 0.000000 0.000000
0.000000 0.000000 0.000000
0.000000 0.000000 0.000000
0.000000 0.000000 0.000000
0.000000 0.000000 0.000577
0.000000 0.000000 0.002188
0.000000 0.000000 0.003799
0.000000 0.000000 0.005410
0.000000 0.001686 0.007022
0.000000 0.003397 0.008633
0.000000 0.005108 0.010244
0.000516 0.006820 0.011855
0.002353 0.008531 0.013466
0.004190 0.010242 0.015078
0.006026 0.011954 0.016689
0.007863 0.013665 0.018300
0.009700 0.015377 0.019911
0.011536 0.017088 0.021522
0.013373 0.018799 0.023134
0.015210 0.020511 0.024745
0.017047 0.022222 0.026356
0.018883 0.023933 0.027967
0.020720 0.025645 0.029578
0.022557 0.027356 0.031190
0.024394 0.029067 0.032801
0.026230 0.030779 0.034412
0.028067 0.032490 0.036023
0.029904 0.034201 0.037634
0.031740 0.035913 0.039246
0.033577 0.037624 0.040857
0.035414 0.039335 0.042468
0.037251 0.041047 0.044079
0.039087 0.042758 0.045690
0.040924 0.044469 0.047302
0.042761 0.046181 0.048913
0.044598 0.047892 0.050524
0.046434 0.049604 0.052135
0.048271 0.051315 0.053746
0.050108 0.053026 0.055358
0.051944 0.054738 0.056969
0.053781 0.056449 0.058580
0.055618 0.058160 0.060191
0.057455 0.059872 0.061802
0.059291 0.061583 0.063414
0.061128 0.063294 0.065025
0.062965 0.065006 0.066636
0.064802 0.066717 0.068247
0.066638 0.068428 0.069858
0.068475 0.070140 0.071470
0.070312 0.071851 0.073081
0.072148 0.073562 0.074692
0.073985 0.075274 0.076303
0.075822 0.076985 0.077914
0.077659 0.078697 0.079526
0.079495 0.080408 0.081137
0.081332 0.082119 0.082748
0.083169 0.083831 0.084359
0.085006 0.085542 0.085970
0.086842 0.087253 0.087582
0.088679 0.088965 0.089193
0.090516 0.090676 0.090804
0.092352 0.092387 0.092415
0.094189 0.094099 0.094026
0.096026 0.095810 0.095638
0.097863 0.097521 0.097249
0.099699 0.099233 0.098860
0.101536 0.100944 0.100471
0.103373 0.102655 0.102082
0.105210 0.104367 0.103694
0.107046 0.106078 0.105305
0.108883 0.107790 0.106916
0.110720 0.109501 0.108527
0.112556 0.111212 0.110138
0.114393 0.112924 0.111750
0.116230 0.114635 0.113361
0.118067 0.116346 0.114972
0.119903 0.118058 0.116583
0.121740 0.119769 0.118194
0.123577 0.121480 0.119806
0.125413 0.123192 0.121417
0.127250 0.124903 0.123028
0.129087 0.126614 0.124639
0.130924 0.128326 0.126250
0.132760 0.130037 0.127862
0.134597 0.131748 0.129473
0.136434 0.133460 0.131084
0.138271 0.135171 0.132695
0.140107 0.136883 0.134306
0.141944 0.138594 0.135918
0.143781 0.140305 0.137529
0.145617 0.142017 0.139140
0.147454 0.143728 0.140751
0.149291 0.145439 0.142362
0.151128 0.147151 0.143974
0.152964 0.148862 0.145585
0.154801 0.150573 0.147196
0.156638 0.152285 0.148807
0.158475 0.153996 0.150418
0.160311 0.155707 0.152030
0.162148 0.157419 0.153641
0.163985 0.159130 0.155252
0.165821 0.160841 0.156863
0.167595 0.162553 0.158475
0.169032 0.164264 0.160086
0.170450 0.165975 0.161697
0.171851 0.167618 0.163308
0.173234 0.168957 0.164919
0.174599 0.170280 0.166531
0.175949 0.171587 0.167975
0.177282 0.172879 0.169232
0.178599 0.174156 0.170475
0.179901 0.175419 0.171704
0.181188 0.176668 0.172920
0.182460 0.177902 0.174122
0.183718 0.179123 0.175312
0.184961 0.180331 0.176489
0.186191 0.181526 0.177654
0.187407 0.182708 0.178806
0.188610 0.183878 0.179947
0.189800 0.185035 0.181076
0.190978 0.186181 0.182194
0.192143 0.187314 0.183300
0.193296 0.188437 0.184396
0.194438 0.189548 0.185481
0.195567 0.190648 0.186556
0.196686 0.191737 0.187620
0.197793 0.192816 0.188674
0.198889 0.193884 0.189718
0.199974 0.194942 0.190752
0.201049 0.195991 0.191777
0.202114 0.197029 0.192793
0.203168 0.198058 0.193799
0.204213 0.199077 0.194796
0.205248 0.200087 0.195785
0.206273 0.201088 0.196764
0.207289 0.202080 0.197735
0.208296 0.203063 0.198698
0.209294 0.204038 0.199652
0.210282 0.205004 0.200599
0.211262 0.205961 0.201537
0.212234 0.206911 0.202467
0.213197 0.207852 0.203390
0.214152 0.208786 0.204305
0.215098 0.209712 0.205213
0.216037 0.210630 0.206113
0.216968 0.211540 0.207006
0.217891 0.212444 0.207892
0.218806 0.213339 0.208771
0.219714 0.214228 0.209642
0.220615 0.215110 0.210508
0.221508 0.215985 0.211366
0.222394 0.216852 0.212218
0.223273 0.217714 0.213063
0.224146 0.218568 0.213902
0.225011 0.219416 0.214735
0.225870 0.220258 0.215561
0.226722 0.221093 0.216382
0.227568 0.221922 0.217196
0.228407 0.222745 0.218005
0.229240 0.223562 0.218807
0.230067 0.224372 0.219604
0.230887 0.225177 0.220395
0.231702 0.225976 0.221181
0.232511 0.226770 0.221961
0.233314 0.227558 0.222735
0.234111 0.228340 0.223505
0.234902 0.229117 0.224269
0.235688 0.229888 0.225027
0.236468 0.230654 0.225781
0.237243 0.231415 0.226529
0.238012 0.232171 0.227273
0.238777 0.232921 0.228011
0.239536 0.233667 0.228745
0.240289 0.234407 0.229474
0.241038 0.235143 0.230198
0.241782 0.235874 0.230917
0.242521 0.236600 0.231632
0.243254 0.237321 0.232342
0.243983 0.238037 0.233048
0.244708 0.238749 0.233749
0.245427 0.239457 0.234446
0.246142 0.240160 0.235138
0.246853 0.240859 0.235826
0.247559 0.241553 0.236510
0.248260 0.242243 0.237190
0.248957 0.242928 0.237866
0.249650 0.243610 0.238537
0.250338 0.244287 0.239205
0.251022 0.244960 0.239868
0.251702 0.245629 0.240528
0.252378 0.246294 0.241183
0.253050 0.246955 0.241835
0.253717 0.247613 0.242483
0.254381 0.248266 0.243127
0.255041 0.248916 0.243768
0.255696 0.249561 0.244405
0.256348 0.250203 0.245038
0.256997 0.250842 0.245668
0.257641 0.251476 0.246294
0.258282 0.252107 0.246916
0.258919 0.252735 0.247535
0.259552 0.253359 0.248151
0.260182 0.253979 0.248763
0.260808 0.254596 0.249372
0.261431 0.255210 0.249978
0.262050 0.255820 0.250580
0.262666 0.256427 0.251179
0.263278 0.257031 0.251775
0.263887 0.257631 0.252367
0.264493 0.258228 0.252957
0.265095 0.258822 0.253543
0.265695 0.259413 0.254127
0.266291 0.260001 0.254707
0.266883 0.260585 0.255284
0.267473 0.261167 0.255858
0.268060 0.261745 0.256430
0.268643 0.262321 0.256998
0.269223 0.262893 0.257564
0.269801 0.263463 0.258126
0.270375 0.264029 0.258686
0.270947 0.264593 0.259243
0.271515 0.265154 0.259797
0.272081 0.265712 0.260348
0.272644 0.266267 0.260897
0.273203 0.266820 0.261443
0.273761 0.267370 0.261987
0.274315 0.267917 0.262527
0.274866 0.268461 0.263065
0.275415 0.269003 0.263601
0.275961 0.269542 0.264134
0.276505 0.270079 0.264664
0.277046 0.270613 0.265192
0.277584 0.271144 0.265717
0.278119 0.271673 0.266240
0.278652 0.272199 0.266760
0.279183 0.272723 0.267278
0.279711 0.273245 0.267794
0.280236 0.273763 0.268307
0.280759 0.274280 0.268818
0.281280 0.274794 0.269327
0.281798 0.275306 0.269833
0.282314 0.275815 0.270337
0.282827 0.276323 0.270838
0.283338 0.276827 0.271338
0.283846 0.277330 0.271835
0.284353 0.277830 0.272330
0.284857 0.278328 0.272822
0.285358 0.278824 0.273313
0.285858 0.279317 0.273801
0.286355 0.279809 0.274287
0.286850 0.280298 0.274771
0.287343 0.280785 0.275253
0.287833 0.281270 0.275733
0.288322 0.281753 0.276211
0.288808 0.282234 0.276687
0.289292 0.282712 0.277161
0.289775 0.283189 0.277633
0.290255 0.283664 0.278102
0.290733 0.284136 0.278570
0.291208 0.284607 0.279036
0.291682 0.285075 0.279500
0.292154 0.285542 0.279962
0.292624 0.286007 0.280422
0.293092 0.286469 0.280880
0.293558 0.286930 0.281336
0.294022 0.287389 0.281791
0.294484 0.287846 0.282243
0.294944 0.288301 0.282694
0.295402 0.288755 0.283143
0.295858 0.289206 0.283590
0.296313 0.289656 0.284035
0.296766 0.290103 0.284478
0.297216 0.290549 0.284920
0.297665 0.290994 0.285360
0.298112 0.291436 0.285798
0.298558 0.291877 0.286235
0.299001 0.292316 0.286670
0.299443 0.292753 0.287103
0.299883 0.293188 0.287534
0.300322 0.293622 0.287964
0.300758 0.294054 0.288392
0.301193 0.294485 0.288819
0.301626 0.294913 0.289243
0.302058 0.295341 0.289667
0.302488 0.295766 0.290088
0.302916 0.296190 0.290508
0.303342 0.296612 0.290927
0.303767 0.297033 0.291343
0.304190 0.297452 0.291759
0.304612 0.297869 0.292172
0.305032 0.298285 0.292585
0.305451 0.298700 0.292995
0.305868 0.299112 0.293405
0.306283 0.299524 0.293812
0.306697 0.299934 0.294218
0.307109 0.300342 0.294623
0.307520 0.300749 0.295026
0.307929 0.301154 0.295428
0.308337 0.301558 0.295828
0.308743 0.301960 0.296227
0.309148 0.302361 0.296625
0.309551 0.302760 0.297021
0.309953 0.303158 0.297415
0.310353 0.303555 0.297809
0.310752 0.303950 0.298200
0.311150 0.304344 0.298591
0.311546 0.304736 0.298980
0.311940 0.305127 0.299368
0.312334 0.305517 0.299754
0.312726 0.305905 0.300139
0.313116 0.306292 0.300523
0.313505 0.306678 0.300905
0.313893 0.307062 0.301286
0.314280 0.307445 0.301666
0.314665 0.307827 0.302044
0.315048 0.308207 0.302422
0.315431 0.308586 0.302798
0.315812 0.308964 0.303172
0.316192 0.309340 0.303546
0.316570 0.309715 0.303918
0.316948 0.310089 0.304289
0.317324 0.310462 0.304658
0.317698 0.310833 0.305027
0.318072 0.311203 0.305394
0.318444 0.311572 0.305760
0.318815 0.311940 0.306125
0.319185 0.312306 0.306488
0.319553 0.312672 0.306851
0.319920 0.313036 0.307212
0.320286 0.313399 0.307572
0.320651 0.313760 0.307931
0.321015 0.314121 0.308289
0.321377 0.314480 0.308645
0.321739 0.314838 0.309001
0.322099 0.315195 0.309355
0.322458 0.315551 0.309708
0.322816 0.315906 0.310060
0.323172 0.316260 0.310411
0.323528 0.316612 0.310761
0.323882 0.316964 0.311110
0.324235 0.317314 0.311457
0.324587 0.317663 0.311804
0.324938 0.318011 0.312150
0.325288 0.318358 0.312494
0.325637 0.318704 0.312837
0.325985 0.319049 0.313180
0.326331 0.319393 0.313521
0.326677 0.319736 0.313861
0.327021 0.320077 0.314200
0.327365 0.320418 0.314538
0.327707 0.320758 0.314875
0.328049 0.321096 0.315212
0.328389 0.321434 0.315547
0.328728 0.321770 0.315881
0.329066 0.322106 0.316214
0.329403 0.322440 0.316546
0.329739 0.322774 0.316877
0.330075 0.323106 0.317207
0.330409 0.323437 0.317536
0.330742 0.323768 0.317864
0.331074 0.324097 0.318191
0.331405 0.324426 0.318518
0.331735 0.324754 0.318843
0.332064 0.325080 0.319167
0.332392 0.325406 0.319490
0.332720 0.325730 0.319813
0.333046 0.326054 0.320134
0.333428 0.326434 0.320511
0.333840 0.326842 0.320917
0.334251 0.327250 0.321322
0.334662 0.327658 0.321727
0.335072 0.328065 0.322131
0.335481 0.328471 0.322535
0.335890 0.328877 0.322937
0.336298 0.329282 0.323340
0.336706 0.329686 0.323742
0.337113 0.330090 0.324143
0.337519 0.330493 0.324543
0.337925 0.330896 0.324943
0.338330 0.331298 0.325343
0.338734 0.331700 0.325742
0.339138 0.332101 0.326140
0.339542 0.332501 0.326538
0.339945 0.332901 0.326935
0.340347 0.333301 0.327332
0.340748 0.333699 0.327728
0.341150 0.334098 0.328124
0.341550 0.334495 0.328519
0.341950 0.334893 0.328914
0.342349 0.335289 0.329308
0.342748 0.335685 0.329701
0.343147 0.336081 0.330094
0.343544 0.336476 0.330487
0.343942 0.336870 0.330879
0.344338 0.337264 0.331270
0.344734 0.337657 0.331661
0.345130 0.338050 0.332051
0.345525 0.338442 0.332441
0.345920 0.338834 0.332830
0.346313 0.339226 0.333219
0.346707 0.339616 0.333608
0.347100 0.340007 0.333996
0.347492 0.340396 0.334383
0.347884 0.340785 0.334770
0.348275 0.341174 0.335156
0.348666 0.341562 0.335542
0.349057 0.341950 0.335927
0.349446 0.342337 0.336312
0.349836 0.342724 0.336697
0.350224 0.343110 0.337080
0.350613 0.343496 0.337464
0.351001 0.343881 0.337847
0.351388 0.344266 0.338229
0.351775 0.344650 0.338611
0.352161 0.345034 0.338993
0.352547 0.345417 0.339374
0.352932 0.345800 0.339754
0.353317 0.346182 0.340135
0.353701 0.346564 0.340514
0.354085 0.346946 0.340893
0.354468 0.347327 0.341272
0.354851 0.347707 0.341650
0.355234 0.348087 0.342028
0.355615 0.348467 0.342406
0.355997 0.348846 0.342782
0.356378 0.349224 0.343159
0.356758 0.349602 0.343535
0.357138 0.349980 0.343910
0.357518 0.350357 0.344286
0.357897 0.350734 0.344660
0.358276 0.351110 0.345034
0.358654 0.351486 0.345408
0.359032 0.351862 0.345782
0.359409 0.352237 0.346155
0.359786 0.352611 0.346527
0.360162 0.352985 0.346899
0.360538 0.353359 0.347271
0.360914 0.353732 0.347642
0.361289 0.354105 0.348013
0.361663 0.354478 0.348383
0.362038 0.354849 0.348753
0.362411 0.355221 0.349123
0.362785 0.355592 0.349492
0.363158 0.355963 0.349861
0.363530 0.356333 0.350229
0.363902 0.356703 0.350597
0.364274 0.357072 0.350964
0.364645 0.357441 0.351331
0.365016 0.357810 0.351698
0.365386 0.358178 0.352064
0.365756 0.358546 0.352430
0.366125 0.358913 0.352795
0.366494 0.359280 0.353161
0.366863 0.359647 0.353525
0.367231 0.360013 0.353889
0.367599 0.360379 0.354253
0.367966 0.360744 0.354617
0.368333 0.361109 0.354980
0.368700 0.361473 0.355343
0.369066 0.361838 0.355705
0.369432 0.362201 0.356067
0.369797 0.362565 0.356428
0.370162 0.362928 0.356790
0.370527 0.363290 0.357150
0.370891 0.363653 0.357511
0.371255 0.364014 0.357871
0.371618 0.364376 0.358230
0.371981 0.364737 0.358590
0.372344 0.365098 0.358949
0.372706 0.365458 0.359307
0.373068 0.365818 0.359665
0.373430 0.366177 0.360023
0.373791 0.366537 0.360381
0.374152 0.366895 0.360738
0.374512 0.367254 0.361094
0.374872 0.367612 0.361451
0.375232 0.367970 0.361807
0.375591 0.368327 0.362162
0.375950 0.368684 0.362518
0.376308 0.369041 0.362873
0.376666 0.369397 0.363227
0.377024 0.369753 0.363581
0.377381 0.370108 0.363935
0.377738 0.370463 0.364289
0.378095 0.370818 0.364642
0.378451 0.371173 0.364995
0.378807 0.371527 0.365347
0.379163 0.371881 0.365699
0.379518 0.372234 0.366051
0.379873 0.372587 0.366403
0.380228 0.372940 0.366754
0.380582 0.373292 0.367105
0.380936 0.373644 0.367455
0.381289 0.373996 0.367805
0.381642 0.374347 0.368155
0.381995 0.374698 0.368504
0.382347 0.375049 0.368853
0.382700 0.375399 0.369202
0.383051 0.375750 0.369551
0.383403 0.376099 0.369899
0.383754 0.376449 0.370247
0.384105 0.376798 0.370594
0.384455 0.377146 0.370941
0.384805 0.377495 0.371288
0.385155 0.377843 0.371635
0.385504 0.378190 0.371981
0.385853 0.378538 0.372327
0.386202 0.378885 0.372672
0.386550 0.379232 0.373018
0.386898 0.379578 0.373363
0.387246 0.379924 0.373707
0.387594 0.380270 0.374051
0.387941 0.380615 0.374395
0.388288 0.380961 0.374739
0.388634 0.381305 0.375083
0.388980 0.381650 0.375426
0.389326 0.381994 0.375768
0.389672 0.382338 0.376111
0.390017 0.382682 0.376453
0.390362 0.383025 0.376795
0.390706 0.383368 0.377137
0.391051 0.383711 0.377478
0.391394 0.384053 0.377819
0.391738 0.384395 0.378159
0.392082 0.384737 0.378500
0.392425 0.385079 0.378840
0.392767 0.385420 0.379180
0.393110 0.385761 0.379519
0.393452 0.386101 0.379858
0.393794 0.386442 0.380197
0.394135 0.386782 0.380536
0.394476 0.387121 0.380874
0.394817 0.387461 0.381212
0.395158 0.387800 0.381550
0.395498 0.388139 0.381888
0.395838 0.388477 0.382225
0.396178 0.388815 0.382562
0.396518 0.389153 0.382898
0.396857 0.389491 0.383235
0.397196 0.389829 0.383571
0.397534 0.390166 0.383907
0.397873 0.390503 0.384242
0.398211 0.390839 0.384577
0.398548 0.391175 0.384912
0.398886 0.391511 0.385247
0.399223 0.391847 0.385582
0.399560 0.392183 0.385916
0.399896 0.392518 0.386250
0.400233 0.392853 0.386583
0.400569 0.393187 0.386917
0.400905 0.393522 0.387250
0.401240 0.393856 0.387583
0.401575 0.394190 0.387915
0.401910 0.394523 0.388247
0.402245 0.394856 0.388579
0.402579 0.395189 0.388911
0.402913 0.395522 0.389243
0.403247 0.395855 0.389574
0.403581 0.396187 0.389905
0.403914 0.396519 0.390236
0.404247 0.396851 0.390566
0.404580 0.397182 0.390896
0.404913 0.397513 0.391226
0.405245 0.397844 0.391556
0.405577 0.398175 0.391885
0.405909 0.398505 0.392215
