tools/resolve/luts/NIRO Grading/Taxodia 09.26/C0254_e+3.20_r+0.08_b-0.02.cube
TITLE "NIRO BALANCE C0254 e +3.20 R +0.08 B -0.02 (lineare Verstaerkung S-Log3)"
LUT_1D_SIZE 4096
0.000000 0.000000 0.000000
0.000000 0.000000 0.000000
0.000000 0.000000 0.000000
0.000000 0.000000 0.000000
0.000000 0.000000 0.000000
0.000000 0.000000 0.000000
0.000000 0.000000 0.000000
0.000000 0.000000 0.000000
0.000000 0.000000 0.000000
0.000000 0.000000 0.000000
0.000000 0.000000 0.000000
0.000000 0.000000 0.000000
0.000000 0.000000 0.000000
0.000000 0.000000 0.000000
0.000000 0.000000 0.000000
0.000000 0.000000 0.000000
0.000000 0.000000 0.000000
0.000000 0.000000 0.000000
0.000000 0.000000 0.000000
0.000000 0.000000 0.000000
0.000000 0.000000 0.000000
0.000000 0.000000 0.000000
0.000000 0.000000 0.000000
0.000000 0.000000 0.000000
0.000000 0.000000 0.000000
0.000000 0.000000 0.000000
0.000000 0.000000 0.000000
0.000000 0.000000 0.000000
0.000000 0.000000 0.000000
0.000000 0.000000 0.000000
0.000000 0.000000 0.000000
0.000000 0.000000 0.000000
0.000000 0.000000 0.000000
0.000000 0.000000 0.000000
0.000000 0.000000 0.000000
0.000000 0.000000 0.000000
0.000000 0.000000 0.000000
0.000000 0.000000 0.000000
0.000000 0.000000 0.000000
0.000000 0.000000 0.000000
0.000000 0.000000 0.000000
0.000000 0.000000 0.000000
0.000000 0.000000 0.000000
0.000000 0.000000 0.000000
0.000000 0.000000 0.000000
0.000000 0.000000 0.000000
0.000000 0.000000 0.000000
0.000000 0.000000 0.000000
0.000000 0.000000 0.000000
0.000000 0.000000 0.000000
0.000000 0.000000 0.000000
0.000000 0.000000 0.000000
0.000000 0.000000 0.000000
0.000000 0.000000 0.000000
0.000000 0.000000 0.000000
0.000000 0.000000 0.000000
0.000000 0.000000 0.000000
0.000000 0.000000 0.000000
0.000000 0.000000 0.000000
0.000000 0.000000 0.000000
0.000000 0.000000 0.000000
0.000000 0.000000 0.000000
0.000000 0.000000 0.000000
0.000000 0.000000 0.000000
0.000000 0.000000 0.000000
0.000000 0.000000 0.000000
0.000000 0.000000 0.000000
0.000000 0.000000 0.000000
0.000000 0.000000 0.000000
0.000000 0.000000 0.000000
0.000000 0.000000 0.000000
0.000000 0.000000 0.000000
0.000000 0.000000 0.000000
0.000000 0.000000 0.000000
0.000000 0.000000 0.000000
0.000000 0.000000 0.000000
0.000000 0.000000 0.000000
0.000000 0.000000 0.000000
0.000000 0.000000 0.000000
0.000000 0.000000 0.000000
0.000000 0.000000 0.000000
0.000000 0.000000 0.000000
0.000000 0.000000 0.000000
0.000000 0.000000 0.000000
0.000000 0.000000 0.000000
0.000000 0.000000 0.000000
0.000000 0.000000 0.000000
0.000000 0.000000 0.000000
0.000000 0.000000 0.000000
0.000000 0.000000 0.000000
0.000000 0.000000 0.000000
0.000000 0.000000 0.000000
0.000000 0.000000 0.000000
0.000000 0.000000 0.000000
0.000000 0.000000 0.000000
0.000000 0.000000 0.000000
0.000000 0.000000 0.000000
0.000000 0.000000 0.000000
0.000000 0.000000 0.000000
0.000000 0.000000 0.000000
0.000000 0.000000 0.000000
0.000000 0.000000 0.000000
0.000000 0.000000 0.000000
0.000000 0.000000 0.000000
0.000000 0.000000 0.000000
0.000000 0.000000 0.000000
0.000000 0.000000 0.000000
0.000000 0.000000 0.000000
0.000000 0.000000 0.000000
0.000000 0.000000 0.000000
0.000000 0.000000 0.000000
0.000000 0.000000 0.000000
0.000000 0.000000 0.000000
0.000000 0.000000 0.000000
0.000000 0.000000 0.000000
0.000000 0.000000 0.000000
0.000000 0.000000 0.000000
0.000000 0.000000 0.000000
0.000000 0.000000 0.000000
0.000000 0.000000 0.000000
0.000000 0.000000 0.000000
0.000000 0.000000 0.000000
0.000000 0.000000 0.000000
0.000000 0.000000 0.000000
0.000000 0.000000 0.000000
0.000000 0.000000 0.000000
0.000000 0.000000 0.000000
0.000000 0.000000 0.000000
0.000000 0.000000 0.000000
0.000000 0.000000 0.000000
0.000000 0.000000 0.000000
0.000000 0.000000 0.000000
0.000000 0.000000 0.000000
0.000000 0.000000 0.000000
0.000000 0.000000 0.000000
0.000000 0.000000 0.000000
0.000000 0.000000 0.000000
0.000000 0.000000 0.000000
0.000000 0.000000 0.000000
0.000000 0.000000 0.000000
0.000000 0.000000 0.000000
0.000000 0.000000 0.000000
0.000000 0.000000 0.000000
0.000000 0.000000 0.000000
0.000000 0.000000 0.000000
0.000000 0.000000 0.000000
0.000000 0.000000 0.000000
0.000000 0.000000 0.000000
0.000000 0.000000 0.000000
0.000000 0.000000 0.000000
0.000000 0.000000 0.000000
0.000000 0.000000 0.000000
0.000000 0.000000 0.000000
0.000000 0.000000 0.000000
0.000000 0.000000 0.000000
0.000000 0.000000 0.000000
0.000000 0.000000 0.000000
0.000000 0.000000 0.000000
0.000000 0.000000 0.000000
0.000000 0.000000 0.000000
0.000000 0.000000 0.000000
0.000000 0.000000 0.000000
0.000000 0.000000 0.000000
0.000000 0.000000 0.000000
0.000000 0.000000 0.000000
0.000000 0.000000 0.000000
0.000000 0.000000 0.000000
0.000000 0.000000 0.000000
0.000000 0.000000 0.000000
0.000000 0.000000 0.000000
0.000000 0.000000 0.000000
0.000000 0.000000 0.000000
0.000000 0.000000 0.000000
0.000000 0.000000 0.000000
0.000000 0.000000 0.000000
0.000000 0.000000 0.000000
0.000000 0.000000 0.000000
0.000000 0.000000 0.000000
0.000000 0.000000 0.000000
0.000000 0.000000 0.000000
0.000000 0.000000 0.000000
0.000000 0.000000 0.000000
0.000000 0.000000 0.000000
0.000000 0.000000 0.000000
0.000000 0.000000 0.000000
0.000000 0.000000 0.000000
0.000000 0.000000 0.000000
0.000000 0.000000 0.000000
0.000000 0.000000 0.000000
0.000000 0.000000 0.000000
0.000000 0.000000 0.000000
0.000000 0.000000 0.000000
0.000000 0.000000 0.000000
0.000000 0.000000 0.000000
0.000000 0.000000 0.000000
0.000000 0.000000 0.000000
0.000000 0.000000 0.000000
0.000000 0.000000 0.000000
0.000000 0.000000 0.000000
0.000000 0.000000 0.000000
0.000000 0.000000 0.000000
0.000000 0.000000 0.000000
0.000000 0.000000 0.000000
0.000000 0.000000 0.000000
0.000000 0.000000 0.000000
0.000000 0.000000 0.000000
0.000000 0.000000 0.000000
0.000000 0.000000 0.000000
0.000000 0.000000 0.000000
0.000000 0.000000 0.000000
0.000000 0.000000 0.000000
0.000000 0.000000 0.000000
0.000000 0.000000 0.000000
0.000000 0.000000 0.000000
0.000000 0.000000 0.000000
0.000000 0.000000 0.000000
0.000000 0.000000 0.000000
0.000000 0.000000 0.000000
0.000000 0.000000 0.000000
0.000000 0.000000 0.000000
0.000000 0.000000 0.000000
0.000000 0.000000 0.000000
0.000000 0.000000 0.000000
0.000000 0.000000 0.000000
0.000000 0.000000 0.000000
0.000000 0.000000 0.000000
0.000000 0.000000 0.000000
0.000000 0.000000 0.000000
0.000000 0.000000 0.000000
0.000000 0.000000 0.000000
0.000000 0.000000 0.000000
0.000000 0.000000 0.000000
0.000000 0.000000 0.000000
0.000000 0.000000 0.000000
0.000000 0.000000 0.000000
0.000000 0.000000 0.000000
0.000000 0.000000 0.000000
0.000000 0.000000 0.000000
0.000000 0.000000 0.000000
0.000000 0.000000 0.000000
0.000000 0.000000 0.000000
0.000000 0.000000 0.000000
0.000000 0.000000 0.000000
0.000000 0.000000 0.000000
0.000000 0.000000 0.000000
0.000000 0.000000 0.000000
0.000000 0.000000 0.000000
0.000000 0.000000 0.000000
0.000000 0.000000 0.000000
0.000000 0.000000 0.000000
0.000000 0.000000 0.000000
0.000000 0.000000 0.000000
0.000000 0.000000 0.000000
0.000000 0.000000 0.000000
0.000000 0.000000 0.000000
0.000000 0.000000 0.000000
0.000000 0.000000 0.000000
0.000000 0.000000 0.000000
0.000000 0.000000 0.000000
0.000000 0.000000 0.000000
0.000000 0.000000 0.000000
0.000000 0.000000 0.000000
0.000000 0.000000 0.000000
0.000000 0.000000 0.000000
0.000000 0.000000 0.000000
0.000000 0.000000 0.000000
0.000000 0.000000 0.000000
0.000000 0.000000 0.000000
0.000000 0.000000 0.000000
0.000000 0.000000 0.000000
0.000000 0.000000 0.000000
0.000000 0.000000 0.000000
0.000000 0.000000 0.000000
0.000000 0.000000 0.000000
0.000000 0.000000 0.000000
0.000000 0.000000 0.000000
0.000000 0.000000 0.000000
0.000000 0.000000 0.000000
0.000000 0.000000 0.000000
0.000000 0.000000 0.000000
0.000000 0.000000 0.000000
0.000000 0.000000 0.000000
0.000000 0.000000 0.000000
0.000000 0.000000 0.000000
0.000000 0.000000 0.000000
0.000000 0.000000 0.000000
0.000000 0.000000 0.000000
0.000000 0.000000 0.000000
0.000000 0.000000 0.000000
0.000000 0.000000 0.000000
0.000000 0.000000 0.000000
0.000000 0.000000 0.000000
0.000000 0.000000 0.000000
0.000000 0.000000 0.000000
0.000000 0.000000 0.000000
0.000000 0.000000 0.000000
0.000000 0.000000 0.000000
0.000000 0.000000 0.000000
0.000000 0.000000 0.000000
0.000000 0.000000 0.000000
0.000000 0.000000 0.000000
0.000000 0.000000 0.000000
0.000000 0.000000 0.000000
0.000000 0.000000 0.000000
0.000000 0.000000 0.000000
0.000000 0.000000 0.000000
0.000000 0.000000 0.000000
0.000000 0.000000 0.000000
0.000000 0.000000 0.000000
0.000000 0.000000 0.000000
0.000000 0.000000 0.000000
0.000000 0.000000 0.000000
0.000000 0.000000 0.000000
0.000000 0.000000 0.000000
0.000000 0.000000 0.000000
0.000000 0.000000 0.000000
0.000000 0.000000 0.000000
0.000000 0.000000 0.000000
0.000000 0.000000 0.000000
0.000000 0.000000 0.000000
0.000000 0.000000 0.000000
0.000000 0.000000 0.000000
0.000000 0.000000 0.000000
0.000000 0.000000 0.000000
0.000000 0.000000 0.000000
0.000000 0.000000 0.000000
0.000000 0.000000 0.000000
0.000000 0.000000 0.000000
0.000000 0.000000 0.000000
0.000000 0.000000 0.000000
0.000000 0.000000 0.000000
0.000000 0.000000 0.000000
0.000000 0.000000 0.000000
0.000000 0.000000 0.000000
0.000000 0.000000 0.000000
0.000000 0.000000 0.000000
0.000000 0.000000 0.000000
0.000000 0.000000 0.000000
0.000000 0.000000 0.000000
0.000000 0.000359 0.001759
0.000000 0.002600 0.003966
0.000000 0.004841 0.006173
0.002254 0.007082 0.008380
0.004621 0.009323 0.010587
0.006988 0.011564 0.012795
0.009355 0.013805 0.015002
0.011722 0.016046 0.017209
0.014090 0.018287 0.019416
0.016457 0.020528 0.021623
0.018824 0.022769 0.023830
0.021191 0.025010 0.026037
0.023558 0.027251 0.028244
0.025925 0.029492 0.030451
0.028292 0.031733 0.032658
0.030659 0.033974 0.034865
0.033027 0.036215 0.037072
0.035394 0.038456 0.039279
0.037761 0.040697 0.041486
0.040128 0.042938 0.043694
0.042495 0.045179 0.045901
0.044862 0.047420 0.048108
0.047229 0.049661 0.050315
0.049596 0.051902 0.052522
0.051964 0.054143 0.054729
0.054331 0.056384 0.056936
0.056698 0.058625 0.059143
0.059065 0.060866 0.061350
0.061432 0.063107 0.063557
0.063799 0.065348 0.065764
0.066166 0.067589 0.067971
0.068533 0.069830 0.070178
0.070901 0.072071 0.072386
0.073268 0.074312 0.074593
0.075635 0.076553 0.076800
0.078002 0.078794 0.079007
0.080369 0.081035 0.081214
0.082736 0.083276 0.083421
0.085103 0.085517 0.085628
0.087470 0.087758 0.087835
0.089838 0.089999 0.090042
0.092205 0.092240 0.092249
0.094572 0.094481 0.094456
0.096939 0.096722 0.096663
0.099306 0.098963 0.098870
0.101673 0.101204 0.101078
0.104040 0.103445 0.103285
0.106407 0.105686 0.105492
0.108775 0.107927 0.107699
0.111142 0.110168 0.109906
0.113509 0.112409 0.112113
0.115876 0.114650 0.114320
0.118243 0.116891 0.116527
0.120610 0.119132 0.118734
0.122977 0.121373 0.120941
0.125344 0.123614 0.123148
0.127712 0.125855 0.125355
0.130079 0.128096 0.127562
0.132446 0.130337 0.129770
0.134813 0.132578 0.131977
0.137180 0.134819 0.134184
0.139547 0.137060 0.136391
0.141914 0.139301 0.138598
0.144281 0.141542 0.140805
0.146649 0.143783 0.143012
0.149016 0.146024 0.145219
0.151383 0.148265 0.147426
0.153750 0.150506 0.149633
0.156117 0.152747 0.151840
0.158484 0.154988 0.154047
0.160851 0.157229 0.156254
0.163218 0.159470 0.158462
0.165586 0.161711 0.160669
0.167827 0.163951 0.162876
0.169671 0.166192 0.165083
0.171485 0.168204 0.167290
0.173270 0.169945 0.169033
0.175027 0.171659 0.170735
0.176756 0.173347 0.172412
0.178459 0.175009 0.174063
0.180136 0.176648 0.175691
0.181788 0.178262 0.177294
0.183416 0.179853 0.178875
0.185021 0.181422 0.180434
0.186602 0.182968 0.181971
0.188161 0.184494 0.183487
0.189699 0.185999 0.184983
0.191216 0.187484 0.186458
0.192712 0.188949 0.187915
0.194188 0.190395 0.189352
0.195645 0.191822 0.190772
0.197083 0.193232 0.192173
0.198503 0.194623 0.193557
0.199905 0.195998 0.194924
0.201289 0.197356 0.196274
0.202657 0.198697 0.197608
0.204007 0.200022 0.198926
0.205342 0.201332 0.200228
0.206660 0.202626 0.201516
0.207963 0.203905 0.202789
0.209251 0.205170 0.204047
0.210524 0.206421 0.205291
0.211783 0.207658 0.206522
0.213028 0.208881 0.207739
0.214259 0.210090 0.208942
0.215476 0.211287 0.210133
0.216680 0.212471 0.211311
0.217871 0.213642 0.212477
0.219050 0.214801 0.213631
0.220216 0.215949 0.214773
0.221370 0.217084 0.215903
0.222512 0.218208 0.217022
0.223643 0.219321 0.218129
0.224762 0.220422 0.219226
0.225870 0.221513 0.220312
0.226967 0.222594 0.221388
0.228053 0.223663 0.222453
0.229129 0.224723 0.223508
0.230194 0.225773 0.224553
0.231250 0.226812 0.225588
0.232295 0.227842 0.226614
0.233331 0.228863 0.227631
0.234357 0.229874 0.228638
0.235373 0.230877 0.229636
0.236381 0.231870 0.230625
0.237379 0.232854 0.231606
0.238369 0.233830 0.232577
0.239349 0.234797 0.233541
0.240322 0.235756 0.234496
0.241285 0.236707 0.235443
0.242241 0.237650 0.236382
0.243188 0.238584 0.237313
0.244127 0.239511 0.238237
0.245059 0.240430 0.239152
0.245982 0.241342 0.240061
0.246898 0.242246 0.240962
0.247807 0.243143 0.241855
0.248708 0.244033 0.242742
0.249602 0.244916 0.243621
0.250488 0.245791 0.244494
0.251368 0.246660 0.245360
0.252241 0.247522 0.246219
0.253107 0.248378 0.247071
0.253966 0.249227 0.247917
0.254819 0.250069 0.248757
0.255665 0.250905 0.249590
0.256505 0.251735 0.250417
0.257338 0.252559 0.251238
0.258166 0.253377 0.252053
0.258987 0.254188 0.252862
0.259802 0.254994 0.253665
0.260611 0.255794 0.254463
0.261414 0.256589 0.255254
0.262212 0.257377 0.256041
0.263004 0.258160 0.256821
0.263790 0.258938 0.257596
0.264571 0.259710 0.258366
0.265346 0.260477 0.259130
0.266116 0.261238 0.259890
0.266880 0.261995 0.260644
0.267640 0.262746 0.261393
0.268394 0.263492 0.262137
0.269143 0.264233 0.262876
0.269887 0.264970 0.263610
0.270626 0.265701 0.264339
0.271361 0.266428 0.265063
0.272090 0.267150 0.265783
0.272815 0.267867 0.266498
0.273535 0.268580 0.267209
0.274250 0.269288 0.267915
0.274961 0.269992 0.268617
0.275667 0.270691 0.269314
0.276369 0.271386 0.270007
0.277066 0.272076 0.270695
0.277759 0.272762 0.271380
0.278448 0.273445 0.272060
0.279132 0.274122 0.272736
0.279812 0.274796 0.273408
0.280489 0.275466 0.274076
0.281161 0.276131 0.274740
0.281829 0.276793 0.275399
0.282492 0.277451 0.276055
0.283153 0.278105 0.276708
0.283809 0.278755 0.277356
0.284461 0.279401 0.278001
0.285109 0.280044 0.278641
0.285754 0.280683 0.279279
0.286395 0.281318 0.279912
0.287032 0.281949 0.280542
0.287666 0.282578 0.281169
0.288296 0.283202 0.281791
0.288923 0.283823 0.282411
0.289546 0.284441 0.283027
0.290165 0.285055 0.283639
0.290781 0.285665 0.284249
0.291394 0.286273 0.284855
0.292003 0.286877 0.285457
0.292609 0.287478 0.286057
0.293212 0.288075 0.286653
0.293811 0.288670 0.287246
0.294408 0.289261 0.287835
0.295001 0.289849 0.288422
0.295590 0.290434 0.289006
0.296177 0.291016 0.289586
0.296761 0.291595 0.290164
0.297342 0.292171 0.290738
0.297919 0.292744 0.291310
0.298494 0.293314 0.291879
0.299065 0.293881 0.292444
0.299634 0.294445 0.293007
0.300200 0.295006 0.293567
0.300763 0.295565 0.294124
0.301323 0.296120 0.294679
0.301880 0.296673 0.295231
0.302435 0.297224 0.295780
0.302987 0.297771 0.296326
0.303536 0.298316 0.296869
0.304082 0.298858 0.297410
0.304626 0.299398 0.297949
0.305167 0.299934 0.298484
0.305705 0.300469 0.299018
0.306241 0.301000 0.299548
0.306774 0.301530 0.300076
0.307305 0.302056 0.300602
0.307833 0.302581 0.301125
0.308359 0.303102 0.301646
0.308882 0.303622 0.302164
0.309403 0.304139 0.302680
0.309921 0.304653 0.303193
0.310437 0.305165 0.303704
0.310950 0.305675 0.304213
0.311461 0.306182 0.304719
0.311970 0.306688 0.305223
0.312477 0.307190 0.305725
0.312981 0.307691 0.306225
0.313483 0.308189 0.306722
0.313982 0.308685 0.307217
0.314480 0.309179 0.307710
0.314975 0.309671 0.308201
0.315468 0.310161 0.308689
0.315959 0.310648 0.309176
0.316447 0.311133 0.309660
0.316934 0.311616 0.310142
0.317418 0.312098 0.310622
0.317900 0.312577 0.311100
0.318381 0.313053 0.311576
0.318859 0.313528 0.312050
0.319335 0.314001 0.312522
0.319809 0.314472 0.312992
0.320281 0.314941 0.313460
0.320751 0.315408 0.313926
0.321219 0.315873 0.314390
0.321685 0.316336 0.314852
0.322149 0.316797 0.315313
0.322611 0.317256 0.315771
0.323071 0.317713 0.316227
0.323530 0.318169 0.316682
0.323986 0.318622 0.317135
0.324441 0.319074 0.317586
0.324894 0.319524 0.318035
0.325345 0.319972 0.318482
0.325794 0.320418 0.318927
0.326241 0.320863 0.319371
0.326686 0.321305 0.319813
0.327130 0.321746 0.320253
0.327572 0.322185 0.320691
0.328012 0.322623 0.321128
0.328451 0.323059 0.321563
0.328888 0.323493 0.321996
0.329323 0.323925 0.322428
0.329756 0.324356 0.322858
0.330187 0.324785 0.323286
0.330617 0.325212 0.323713
0.331046 0.325638 0.324138
0.331472 0.326062 0.324561
0.331897 0.326484 0.324983
0.332321 0.326905 0.325403
0.332743 0.327325 0.325821
0.333163 0.327742 0.326238
0.333581 0.328158 0.326654
0.333998 0.328573 0.327068
0.334414 0.328986 0.327480
0.334828 0.329398 0.327891
0.335240 0.329808 0.328300
0.335651 0.330216 0.328708
0.336061 0.330623 0.329114
0.336468 0.331029 0.329519
0.336875 0.331433 0.329923
0.337280 0.331835 0.330325
0.337683 0.332236 0.330725
0.338085 0.332636 0.331124
0.338485 0.333034 0.331522
0.338884 0.333431 0.331918
0.339282 0.333826 0.332312
0.339678 0.334220 0.332706
0.340073 0.334613 0.333098
0.340466 0.335004 0.333488
0.340859 0.335394 0.333878
0.341249 0.335782 0.334265
0.341638 0.336170 0.334652
0.342026 0.336555 0.335037
0.342413 0.336940 0.335421
0.342798 0.337323 0.335803
0.343182 0.337705 0.336185
0.343564 0.338085 0.336565
0.343946 0.338464 0.336943
0.344326 0.338842 0.337320
0.344704 0.339219 0.337697
0.345082 0.339594 0.338071
0.345458 0.339968 0.338445
0.345832 0.340341 0.338817
0.346206 0.340713 0.339188
0.346578 0.341083 0.339558
0.346949 0.341452 0.339926
0.347319 0.341820 0.340294
0.347688 0.342187 0.340660
0.348055 0.342552 0.341025
0.348421 0.342916 0.341388
0.348786 0.343279 0.341751
0.349150 0.343641 0.342112
0.349513 0.344002 0.342472
0.349874 0.344362 0.342832
0.350234 0.344720 0.343189
0.350593 0.345077 0.343546
0.350951 0.345433 0.343902
0.351308 0.345788 0.344256
0.351663 0.346142 0.344609
0.352018 0.346495 0.344962
0.352371 0.346846 0.345313
0.352723 0.347197 0.345663
0.353074 0.347546 0.346011
0.353424 0.347894 0.346359
0.353773 0.348241 0.346706
0.354121 0.348588 0.347051
0.354468 0.348933 0.347396
0.354813 0.349276 0.347739
0.355158 0.349619 0.348082
0.355502 0.349961 0.348423
0.355844 0.350302 0.348763
0.356185 0.350642 0.349103
0.356526 0.350980 0.349441
0.356865 0.351318 0.349778
0.357203 0.351655 0.350114
0.357540 0.351990 0.350450
0.357877 0.352325 0.350784
0.358212 0.352659 0.351117
0.358546 0.352991 0.351449
0.358938 0.353381 0.351838
0.359360 0.353801 0.352258
0.359781 0.354220 0.352676
0.360201 0.354638 0.353094
0.360621 0.355056 0.353511
0.361040 0.355473 0.353928
0.361458 0.355890 0.354344
0.361876 0.356306 0.354759
0.362293 0.356721 0.355174
0.362710 0.357135 0.355588
0.363125 0.357549 0.356001
0.363541 0.357963 0.356414
0.363955 0.358375 0.356826
0.364369 0.358787 0.357238
0.364782 0.359199 0.357648
0.365195 0.359610 0.358059
0.365607 0.360020 0.358468
0.366018 0.360429 0.358877
0.366429 0.360838 0.359286
0.366839 0.361247 0.359694
0.367249 0.361655 0.360101
0.367658 0.362062 0.360508
0.368066 0.362468 0.360914
0.368474 0.362874 0.361319
0.368881 0.363280 0.361724
0.369287 0.363684 0.362128
0.369693 0.364089 0.362532
0.370099 0.364492 0.362935
0.370504 0.364895 0.363338
0.370908 0.365298 0.363740
0.371311 0.365700 0.364141
0.371714 0.366101 0.364542
0.372117 0.366502 0.364942
0.372519 0.366902 0.365342
0.372920 0.367302 0.365741
0.373321 0.367701 0.366140
0.373721 0.368099 0.366538
0.374121 0.368497 0.366935
0.374520 0.368895 0.367332
0.374918 0.369292 0.367729
0.375316 0.369688 0.368125
0.375714 0.370084 0.368520
0.376110 0.370479 0.368915
0.376507 0.370874 0.369309
0.376902 0.371268 0.369703
0.377298 0.371662 0.370096
0.377692 0.372055 0.370489
0.378087 0.372447 0.370881
0.378480 0.372839 0.371272
0.378873 0.373231 0.371664
0.379266 0.373622 0.372054
0.379658 0.374012 0.372444
0.380049 0.374402 0.372834
0.380440 0.374792 0.373223
0.380831 0.375181 0.373611
0.381221 0.375569 0.374000
0.381610 0.375957 0.374387
0.381999 0.376345 0.374774
0.382388 0.376732 0.375161
0.382776 0.377118 0.375547
0.383163 0.377504 0.375932
0.383550 0.377890 0.376317
0.383937 0.378275 0.376702
0.384323 0.378659 0.377086
0.384708 0.379043 0.377470
0.385093 0.379427 0.377853
0.385478 0.379810 0.378235
0.385862 0.380193 0.378618
0.386245 0.380575 0.378999
0.386628 0.380956 0.379381
0.387011 0.381338 0.379761
0.387393 0.381718 0.380142
0.387774 0.382098 0.380522
0.388156 0.382478 0.380901
0.388536 0.382858 0.381280
0.388916 0.383236 0.381658
0.389296 0.383615 0.382036
0.389676 0.383993 0.382414
0.390054 0.384370 0.382791
0.390433 0.384747 0.383168
0.390811 0.385124 0.383544
0.391188 0.385500 0.383920
0.391565 0.385876 0.384295
0.391942 0.386251 0.384670
0.392318 0.386626 0.385044
0.392693 0.387000 0.385418
0.393069 0.387374 0.385792
0.393443 0.387747 0.386165
0.393818 0.388120 0.386537
0.394192 0.388493 0.386910
0.394565 0.388865 0.387281
0.394938 0.389237 0.387653
0.395311 0.389608 0.388024
0.395683 0.389979 0.388394
0.396055 0.390350 0.388765
0.396426 0.390720 0.389134
0.396797 0.391089 0.389504
0.397167 0.391459 0.389872
0.397537 0.391828 0.390241
0.397907 0.392196 0.390609
0.398276 0.392564 0.390977
0.398645 0.392931 0.391344
0.399013 0.393299 0.391711
0.399381 0.393665 0.392077
0.399749 0.394032 0.392443
0.400116 0.394398 0.392809
0.400483 0.394763 0.393174
0.400849 0.395128 0.393539
0.401215 0.395493 0.393903
0.401581 0.395858 0.394267
0.401946 0.396222 0.394631
0.402311 0.396585 0.394994
0.402675 0.396948 0.395357
0.403039 0.397311 0.395719
0.403402 0.397674 0.396082
0.403766 0.398036 0.396443
0.404128 0.398397 0.396805
0.404491 0.398759 0.397165
0.404853 0.399119 0.397526
0.405214 0.399480 0.397886
0.405576 0.399840 0.398246
0.405937 0.400200 0.398605
0.406297 0.400559 0.398965
0.406657 0.400918 0.399323
0.407017 0.401277 0.399682
0.407376 0.401635 0.400040
0.407735 0.401993 0.400397
0.408094 0.402351 0.400754
0.408452 0.402708 0.401111
0.408810 0.403065 0.401468
0.409168 0.403421 0.401824
0.409525 0.403777 0.402180
0.409882 0.404133 0.402535
0.410238 0.404488 0.402890
0.410594 0.404843 0.403245
0.410950 0.405198 0.403599
0.411305 0.405552 0.403953
0.411660 0.405906 0.404307
0.412015 0.406260 0.404660
0.412369 0.406613 0.405013
0.412723 0.406966 0.405366
0.413077 0.407319 0.405718
0.413430 0.407671 0.406070
0.413783 0.408023 0.406422
0.414135 0.408374 0.406773
0.414488 0.408726 0.407124
0.414839 0.409076 0.407474
0.415191 0.409427 0.407825
0.415542 0.409777 0.408175
0.415893 0.410127 0.408524
0.416244 0.410477 0.408873
0.416594 0.410826 0.409222
0.416944 0.411175 0.409571
0.417293 0.411523 0.409919
0.417642 0.411871 0.410267
0.417991 0.412219 0.410615
0.418340 0.412567 0.410962
0.418688 0.412914 0.411309
0.419036 0.413261 0.411656
0.419383 0.413608 0.412002
0.419731 0.413954 0.412348
0.420077 0.414300 0.412694
0.420424 0.414646 0.413039
0.420770 0.414991 0.413384
0.421116 0.415336 0.413729
0.421462 0.415681 0.414073
0.421807 0.416025 0.414418
0.422152 0.416369 0.414761
0.422497 0.416713 0.415105
0.422841 0.417056 0.415448
0.423185 0.417400 0.415791
0.423529 0.417742 0.416134
0.423873 0.418085 0.416476
0.424216 0.418427 0.416818
0.424559 0.418769 0.417160
0.424901 0.419111 0.417501
0.425243 0.419452 0.417842
0.425585 0.419793 0.418183
0.425927 0.420134 0.418523
0.426268 0.420474 0.418864
0.426609 0.420815 0.419204
0.426950 0.421154 0.419543
0.427291 0.421494 0.419882
0.427631 0.421833 0.420222
0.427971 0.422172 0.420560
0.428310 0.422511 0.420899
0.428649 0.422849 0.421237
0.428988 0.423188 0.421575
0.429327 0.423525 0.421912
0.429665 0.423863 0.422250
0.430004 0.424200 0.422587
0.430341 0.424537 0.422924
0.430679 0.424874 0.423260
0.431016 0.425210 0.423596
0.431353 0.425547 0.423932
0.431690 0.425882 0.424268
0.432026 0.426218 0.424603
0.432363 0.426553 0.424938
0.432698 0.426888 0.425273
