tools/resolve/luts/NIRO Grading/Taxodia 09.26/C0253_e+3.16_r+0.05_b+0.12.cube
TITLE "NIRO BALANCE C0253 e +3.16 R +0.05 B +0.12 (lineare Verstaerkung S-Log3)"
LUT_1D_SIZE 4096
0.000000 0.000000 0.000000
0.000000 0.000000 0.000000
0.000000 0.000000 0.000000
0.000000 0.000000 0.000000
0.000000 0.000000 0.000000
0.000000 0.000000 0.000000
0.000000 0.000000 0.000000
0.000000 0.000000 0.000000
0.000000 0.000000 0.000000
0.000000 0.000000 0.000000
0.000000 0.000000 0.000000
0.000000 0.000000 0.000000
0.000000 0.000000 0.000000
0.000000 0.000000 0.000000
0.000000 0.000000 0.000000
0.000000 0.000000 0.000000
0.000000 0.000000 0.000000
0.000000 0.000000 0.000000
0.000000 0.000000 0.000000
0.000000 0.000000 0.000000
0.000000 0.000000 0.000000
0.000000 0.000000 0.000000
0.000000 0.000000 0.000000
0.000000 0.000000 0.000000
0.000000 0.000000 0.000000
0.000000 0.000000 0.000000
0.000000 0.000000 0.000000
0.000000 0.000000 0.000000
0.000000 0.000000 0.000000
0.000000 0.000000 0.000000
0.000000 0.000000 0.000000
0.000000 0.000000 0.000000
0.000000 0.000000 0.000000
0.000000 0.000000 0.000000
0.000000 0.000000 0.000000
0.000000 0.000000 0.000000
0.000000 0.000000 0.000000
0.000000 0.000000 0.000000
0.000000 0.000000 0.000000
0.000000 0.000000 0.000000
0.000000 0.000000 0.000000
0.000000 0.000000 0.000000
0.000000 0.000000 0.000000
0.000000 0.000000 0.000000
0.000000 0.000000 0.000000
0.000000 0.000000 0.000000
0.000000 0.000000 0.000000
0.000000 0.000000 0.000000
0.000000 0.000000 0.000000
0.000000 0.000000 0.000000
0.000000 0.000000 0.000000
0.000000 0.000000 0.000000
0.000000 0.000000 0.000000
0.000000 0.000000 0.000000
0.000000 0.000000 0.000000
0.000000 0.000000 0.000000
0.000000 0.000000 0.000000
0.000000 0.000000 0.000000
0.000000 0.000000 0.000000
0.000000 0.000000 0.000000
0.000000 0.000000 0.000000
0.000000 0.000000 0.000000
0.000000 0.000000 0.000000
0.000000 0.000000 0.000000
0.000000 0.000000 0.000000
0.000000 0.000000 0.000000
0.000000 0.000000 0.000000
0.000000 0.000000 0.000000
0.000000 0.000000 0.000000
0.000000 0.000000 0.000000
0.000000 0.000000 0.000000
0.000000 0.000000 0.000000
0.000000 0.000000 0.000000
0.000000 0.000000 0.000000
0.000000 0.000000 0.000000
0.000000 0.000000 0.000000
0.000000 0.000000 0.000000
0.000000 0.000000 0.000000
0.000000 0.000000 0.000000
0.000000 0.000000 0.000000
0.000000 0.000000 0.000000
0.000000 0.000000 0.000000
0.000000 0.000000 0.000000
0.000000 0.000000 0.000000
0.000000 0.000000 0.000000
0.000000 0.000000 0.000000
0.000000 0.000000 0.000000
0.000000 0.000000 0.000000
0.000000 0.000000 0.000000
0.000000 0.000000 0.000000
0.000000 0.000000 0.000000
0.000000 0.000000 0.000000
0.000000 0.000000 0.000000
0.000000 0.000000 0.000000
0.000000 0.000000 0.000000
0.000000 0.000000 0.000000
0.000000 0.000000 0.000000
0.000000 0.000000 0.000000
0.000000 0.000000 0.000000
0.000000 0.000000 0.000000
0.000000 0.000000 0.000000
0.000000 0.000000 0.000000
0.000000 0.000000 0.000000
0.000000 0.000000 0.000000
0.000000 0.000000 0.000000
0.000000 0.000000 0.000000
0.000000 0.000000 0.000000
0.000000 0.000000 0.000000
0.000000 0.000000 0.000000
0.000000 0.000000 0.000000
0.000000 0.000000 0.000000
0.000000 0.000000 0.000000
0.000000 0.000000 0.000000
0.000000 0.000000 0.000000
0.000000 0.000000 0.000000
0.000000 0.000000 0.000000
0.000000 0.000000 0.000000
0.000000 0.000000 0.000000
0.000000 0.000000 0.000000
0.000000 0.000000 0.000000
0.000000 0.000000 0.000000
0.000000 0.000000 0.000000
0.000000 0.000000 0.000000
0.000000 0.000000 0.000000
0.000000 0.000000 0.000000
0.000000 0.000000 0.000000
0.000000 0.000000 0.000000
0.000000 0.000000 0.000000
0.000000 0.000000 0.000000
0.000000 0.000000 0.000000
0.000000 0.000000 0.000000
0.000000 0.000000 0.000000
0.000000 0.000000 0.000000
0.000000 0.000000 0.000000
0.000000 0.000000 0.000000
0.000000 0.000000 0.000000
0.000000 0.000000 0.000000
0.000000 0.000000 0.000000
0.000000 0.000000 0.000000
0.000000 0.000000 0.000000
0.000000 0.000000 0.000000
0.000000 0.000000 0.000000
0.000000 0.000000 0.000000
0.000000 0.000000 0.000000
0.000000 0.000000 0.000000
0.000000 0.000000 0.000000
0.000000 0.000000 0.000000
0.000000 0.000000 0.000000
0.000000 0.000000 0.000000
0.000000 0.000000 0.000000
0.000000 0.000000 0.000000
0.000000 0.000000 0.000000
0.000000 0.000000 0.000000
0.000000 0.000000 0.000000
0.000000 0.000000 0.000000
0.000000 0.000000 0.000000
0.000000 0.000000 0.000000
0.000000 0.000000 0.000000
0.000000 0.000000 0.000000
0.000000 0.000000 0.000000
0.000000 0.000000 0.000000
0.000000 0.000000 0.000000
0.000000 0.000000 0.000000
0.000000 0.000000 0.000000
0.000000 0.000000 0.000000
0.000000 0.000000 0.000000
0.000000 0.000000 0.000000
0.000000 0.000000 0.000000
0.000000 0.000000 0.000000
0.000000 0.000000 0.000000
0.000000 0.000000 0.000000
0.000000 0.000000 0.000000
0.000000 0.000000 0.000000
0.000000 0.000000 0.000000
0.000000 0.000000 0.000000
0.000000 0.000000 0.000000
0.000000 0.000000 0.000000
0.000000 0.000000 0.000000
0.000000 0.000000 0.000000
0.000000 0.000000 0.000000
0.000000 0.000000 0.000000
0.000000 0.000000 0.000000
0.000000 0.000000 0.000000
0.000000 0.000000 0.000000
0.000000 0.000000 0.000000
0.000000 0.000000 0.000000
0.000000 0.000000 0.000000
0.000000 0.000000 0.000000
0.000000 0.000000 0.000000
0.000000 0.000000 0.000000
0.000000 0.000000 0.000000
0.000000 0.000000 0.000000
0.000000 0.000000 0.000000
0.000000 0.000000 0.000000
0.000000 0.000000 0.000000
0.000000 0.000000 0.000000
0.000000 0.000000 0.000000
0.000000 0.000000 0.000000
0.000000 0.000000 0.000000
0.000000 0.000000 0.000000
0.000000 0.000000 0.000000
0.000000 0.000000 0.000000
0.000000 0.000000 0.000000
0.000000 0.000000 0.000000
0.000000 0.000000 0.000000
0.000000 0.000000 0.000000
0.000000 0.000000 0.000000
0.000000 0.000000 0.000000
0.000000 0.000000 0.000000
0.000000 0.000000 0.000000
0.000000 0.000000 0.000000
0.000000 0.000000 0.000000
0.000000 0.000000 0.000000
0.000000 0.000000 0.000000
0.000000 0.000000 0.000000
0.000000 0.000000 0.000000
0.000000 0.000000 0.000000
0.000000 0.000000 0.000000
0.000000 0.000000 0.000000
0.000000 0.000000 0.000000
0.000000 0.000000 0.000000
0.000000 0.000000 0.000000
0.000000 0.000000 0.000000
0.000000 0.000000 0.000000
0.000000 0.000000 0.000000
0.000000 0.000000 0.000000
0.000000 0.000000 0.000000
0.000000 0.000000 0.000000
0.000000 0.000000 0.000000
0.000000 0.000000 0.000000
0.000000 0.000000 0.000000
0.000000 0.000000 0.000000
0.000000 0.000000 0.000000
0.000000 0.000000 0.000000
0.000000 0.000000 0.000000
0.000000 0.000000 0.000000
0.000000 0.000000 0.000000
0.000000 0.000000 0.000000
0.000000 0.000000 0.000000
0.000000 0.000000 0.000000
0.000000 0.000000 0.000000
0.000000 0.000000 0.000000
0.000000 0.000000 0.000000
0.000000 0.000000 0.000000
0.000000 0.000000 0.000000
0.000000 0.000000 0.000000
0.000000 0.000000 0.000000
0.000000 0.000000 0.000000
0.000000 0.000000 0.000000
0.000000 0.000000 0.000000
0.000000 0.000000 0.000000
0.000000 0.000000 0.000000
0.000000 0.000000 0.000000
0.000000 0.000000 0.000000
0.000000 0.000000 0.000000
0.000000 0.000000 0.000000
0.000000 0.000000 0.000000
0.000000 0.000000 0.000000
0.000000 0.000000 0.000000
0.000000 0.000000 0.000000
0.000000 0.000000 0.000000
0.000000 0.000000 0.000000
0.000000 0.000000 0.000000
0.000000 0.000000 0.000000
0.000000 0.000000 0.000000
0.000000 0.000000 0.000000
0.000000 0.000000 0.000000
0.000000 0.000000 0.000000
0.000000 0.000000 0.000000
0.000000 0.000000 0.000000
0.000000 0.000000 0.000000
0.000000 0.000000 0.000000
0.000000 0.000000 0.000000
0.000000 0.000000 0.000000
0.000000 0.000000 0.000000
0.000000 0.000000 0.000000
0.000000 0.000000 0.000000
0.000000 0.000000 0.000000
0.000000 0.000000 0.000000
0.000000 0.000000 0.000000
0.000000 0.000000 0.000000
0.000000 0.000000 0.000000
0.000000 0.000000 0.000000
0.000000 0.000000 0.000000
0.000000 0.000000 0.000000
0.000000 0.000000 0.000000
0.000000 0.000000 0.000000
0.000000 0.000000 0.000000
0.000000 0.000000 0.000000
0.000000 0.000000 0.000000
0.000000 0.000000 0.000000
0.000000 0.000000 0.000000
0.000000 0.000000 0.000000
0.000000 0.000000 0.000000
0.000000 0.000000 0.000000
0.000000 0.000000 0.000000
0.000000 0.000000 0.000000
0.000000 0.000000 0.000000
0.000000 0.000000 0.000000
0.000000 0.000000 0.000000
0.000000 0.000000 0.000000
0.000000 0.000000 0.000000
0.000000 0.000000 0.000000
0.000000 0.000000 0.000000
0.000000 0.000000 0.000000
0.000000 0.000000 0.000000
0.000000 0.000000 0.000000
0.000000 0.000000 0.000000
0.000000 0.000000 0.000000
0.000000 0.000000 0.000000
0.000000 0.000000 0.000000
0.000000 0.000000 0.000000
0.000000 0.000000 0.000000
0.000000 0.000000 0.000000
0.000000 0.000000 0.000000
0.000000 0.000000 0.000000
0.000000 0.000000 0.000000
0.000000 0.000000 0.000000
0.000000 0.000000 0.000000
0.000000 0.000000 0.000000
0.000000 0.000000 0.000000
0.000000 0.000000 0.000000
0.000000 0.000000 0.000000
0.000000 0.000000 0.000000
0.000000 0.000000 0.000000
0.000000 0.000000 0.000000
0.000000 0.000000 0.000000
0.000000 0.000000 0.000000
0.000000 0.000000 0.000000
0.000000 0.000000 0.000000
0.000000 0.000000 0.000000
0.000000 0.000000 0.000000
0.000000 0.000000 0.000000
0.000000 0.000000 0.000000
0.000000 0.000000 0.000000
0.000000 0.000000 0.000000
0.000000 0.000000 0.000000
0.000000 0.000000 0.000000
0.000000 0.000837 0.000000
0.000000 0.003013 0.000000
0.001909 0.005190 0.000000
0.004167 0.007367 0.000273
0.006426 0.009543 0.002630
0.008684 0.011720 0.004987
0.010942 0.013897 0.007345
0.013200 0.016074 0.009702
0.015458 0.018250 0.012059
0.017716 0.020427 0.014416
0.019974 0.022604 0.016774
0.022233 0.024780 0.019131
0.024491 0.026957 0.021488
0.026749 0.029134 0.023846
0.029007 0.031310 0.026203
0.031265 0.033487 0.028560
0.033523 0.035664 0.030918
0.035781 0.037840 0.033275
0.038040 0.040017 0.035632
0.040298 0.042194 0.037989
0.042556 0.044371 0.040347
0.044814 0.046547 0.042704
0.047072 0.048724 0.045061
0.049330 0.050901 0.047419
0.051588 0.053077 0.049776
0.053847 0.055254 0.052133
0.056105 0.057431 0.054491
0.058363 0.059607 0.056848
0.060621 0.061784 0.059205
0.062879 0.063961 0.061562
0.065137 0.066137 0.063920
0.067395 0.068314 0.066277
0.069654 0.070491 0.068634
0.071912 0.072667 0.070992
0.074170 0.074844 0.073349
0.076428 0.077021 0.075706
0.078686 0.079198 0.078064
0.080944 0.081374 0.080421
0.083202 0.083551 0.082778
0.085461 0.085728 0.085135
0.087719 0.087904 0.087493
0.089977 0.090081 0.089850
0.092235 0.092258 0.092207
0.094493 0.094434 0.094565
0.096751 0.096611 0.096922
0.099009 0.098788 0.099279
0.101268 0.100964 0.101637
0.103526 0.103141 0.103994
0.105784 0.105318 0.106351
0.108042 0.107495 0.108709
0.110300 0.109671 0.111066
0.112558 0.111848 0.113423
0.114816 0.114025 0.115780
0.117075 0.116201 0.118138
0.119333 0.118378 0.120495
0.121591 0.120555 0.122852
0.123849 0.122731 0.125210
0.126107 0.124908 0.127567
0.128365 0.127085 0.129924
0.130623 0.129261 0.132282
0.132882 0.131438 0.134639
0.135140 0.133615 0.136996
0.137398 0.135792 0.139353
0.139656 0.137968 0.141711
0.141914 0.140145 0.144068
0.144172 0.142322 0.146425
0.146430 0.144498 0.148783
0.148689 0.146675 0.151140
0.150947 0.148852 0.153497
0.153205 0.151028 0.155855
0.155463 0.153205 0.158212
0.157721 0.155382 0.160569
0.159979 0.157558 0.162926
0.162237 0.159735 0.165284
0.164496 0.161912 0.167582
0.166754 0.164089 0.169422
0.168656 0.166265 0.171233
0.170403 0.168210 0.173015
0.172123 0.169902 0.174768
0.173817 0.171568 0.176494
0.175485 0.173209 0.178194
0.177128 0.174826 0.179868
0.178748 0.176420 0.181518
0.180344 0.177992 0.183143
0.181918 0.179541 0.184744
0.183470 0.181069 0.186323
0.185000 0.182577 0.187880
0.186509 0.184064 0.189415
0.187999 0.185532 0.190930
0.189468 0.186980 0.192423
0.190918 0.188410 0.193898
0.192350 0.189822 0.195352
0.193763 0.191216 0.196788
0.195159 0.192592 0.198206
0.196537 0.193952 0.199606
0.197899 0.195295 0.200988
0.199244 0.196623 0.202353
0.200572 0.197934 0.203702
0.201886 0.199230 0.205034
0.203183 0.200512 0.206351
0.204466 0.201778 0.207652
0.205734 0.203031 0.208939
0.206988 0.204269 0.210210
0.208228 0.205494 0.211467
0.209454 0.206705 0.212710
0.210666 0.207904 0.213939
0.211866 0.209089 0.215155
0.213053 0.210262 0.216358
0.214227 0.211423 0.217548
0.215389 0.212572 0.218725
0.216539 0.213709 0.219889
0.217677 0.214834 0.221042
0.218803 0.215948 0.222183
0.219918 0.217051 0.223312
0.221023 0.218143 0.224430
0.222116 0.219225 0.225537
0.223198 0.220296 0.226632
0.224271 0.221357 0.227717
0.225332 0.222408 0.228792
0.226384 0.223449 0.229856
0.227426 0.224480 0.230910
0.228458 0.225502 0.231955
0.229481 0.226514 0.232989
0.230495 0.227518 0.234014
0.231499 0.228512 0.235030
0.232494 0.229498 0.236036
0.233481 0.230475 0.237033
0.234458 0.231443 0.238022
0.235427 0.232403 0.239002
0.236388 0.233355 0.239973
0.237341 0.234298 0.240935
0.238285 0.235234 0.241890
0.239222 0.236162 0.242836
0.240150 0.237082 0.243775
0.241071 0.237995 0.244705
0.241985 0.238900 0.245628
0.242891 0.239798 0.246543
0.243789 0.240688 0.247450
0.244680 0.241572 0.248351
0.245565 0.242449 0.249244
0.246442 0.243318 0.250130
0.247312 0.244181 0.251009
0.248176 0.245038 0.251881
0.249033 0.245887 0.252746
0.249883 0.246731 0.253604
0.250727 0.247568 0.254456
0.251565 0.248398 0.255302
0.252396 0.249223 0.256141
0.253221 0.250041 0.256973
0.254040 0.250854 0.257800
0.254853 0.251660 0.258620
0.255660 0.252461 0.259435
0.256462 0.253256 0.260243
0.257257 0.254045 0.261046
0.258047 0.254829 0.261843
0.258831 0.255607 0.262634
0.259610 0.256380 0.263420
0.260384 0.257148 0.264200
0.261152 0.257910 0.264974
0.261914 0.258667 0.265744
0.262672 0.259419 0.266508
0.263424 0.260166 0.267266
0.264172 0.260908 0.268020
0.264914 0.261645 0.268768
0.265651 0.262377 0.269512
0.266384 0.263104 0.270250
0.267112 0.263826 0.270984
0.267835 0.264544 0.271713
0.268553 0.265258 0.272437
0.269267 0.265966 0.273157
0.269976 0.266671 0.273871
0.270681 0.267370 0.274582
0.271381 0.268066 0.275287
0.272077 0.268757 0.275988
0.272768 0.269444 0.276685
0.273455 0.270126 0.277378
0.274138 0.270805 0.278066
0.274817 0.271479 0.278750
0.275492 0.272149 0.279430
0.276162 0.272815 0.280105
0.276829 0.273477 0.280777
0.277491 0.274136 0.281444
0.278150 0.274790 0.282108
0.278805 0.275441 0.282768
0.279456 0.276087 0.283423
0.280103 0.276730 0.284075
0.280746 0.277370 0.284723
0.281386 0.278005 0.285367
0.282022 0.278638 0.286008
0.282654 0.279266 0.286645
0.283283 0.279891 0.287278
0.283909 0.280512 0.287908
0.284530 0.281130 0.288534
0.285149 0.281745 0.289156
0.285764 0.282356 0.289775
0.286375 0.282964 0.290391
0.286983 0.283568 0.291003
0.287588 0.284170 0.291612
0.288190 0.284768 0.292218
0.288788 0.285362 0.292820
0.289383 0.285954 0.293419
0.289975 0.286543 0.294015
0.290564 0.287128 0.294608
0.291149 0.287710 0.295197
0.291732 0.288290 0.295784
0.292312 0.288866 0.296367
0.292888 0.289439 0.296947
0.293462 0.290009 0.297525
0.294032 0.290577 0.298099
0.294600 0.291141 0.298670
0.295165 0.291703 0.299239
0.295727 0.292262 0.299804
0.296286 0.292818 0.300367
0.296842 0.293371 0.300927
0.297396 0.293922 0.301484
0.297947 0.294470 0.302038
0.298495 0.295015 0.302589
0.299040 0.295557 0.303138
0.299583 0.296097 0.303684
0.300123 0.296634 0.304227
0.300661 0.297169 0.304768
0.301195 0.297701 0.305306
0.301728 0.298231 0.305842
0.302258 0.298758 0.306375
0.302785 0.299282 0.306905
0.303310 0.299804 0.307433
0.303832 0.300324 0.307958
0.304352 0.300841 0.308481
0.304869 0.301356 0.309001
0.305384 0.301868 0.309519
0.305897 0.302378 0.310035
0.306407 0.302886 0.310548
0.306915 0.303392 0.311059
0.307421 0.303895 0.311568
0.307924 0.304396 0.312074
0.308425 0.304894 0.312578
0.308924 0.305391 0.313079
0.309421 0.305885 0.313579
0.309915 0.306377 0.314076
0.310407 0.306867 0.314571
0.310897 0.307354 0.315063
0.311385 0.307840 0.315554
0.311871 0.308323 0.316042
0.312355 0.308805 0.316529
0.312836 0.309284 0.317013
0.313316 0.309761 0.317495
0.313793 0.310236 0.317975
0.314268 0.310709 0.318453
0.314742 0.311180 0.318928
0.315213 0.311650 0.319402
0.315682 0.312117 0.319874
0.316150 0.312582 0.320344
0.316615 0.313045 0.320812
0.317078 0.313506 0.321277
0.317540 0.313966 0.321741
0.318000 0.314423 0.322203
0.318457 0.314879 0.322663
0.318913 0.315333 0.323121
0.319367 0.315785 0.323578
0.319819 0.316235 0.324032
0.320269 0.316683 0.324485
0.320718 0.317130 0.324935
0.321165 0.317574 0.325384
0.321609 0.318017 0.325831
0.322053 0.318458 0.326277
0.322494 0.318898 0.326720
0.322933 0.319336 0.327162
0.323371 0.319771 0.327602
0.323807 0.320206 0.328040
0.324242 0.320638 0.328477
0.324675 0.321069 0.328911
0.325106 0.321498 0.329345
0.325535 0.321926 0.329776
0.325963 0.322352 0.330206
0.326389 0.322776 0.330634
0.326813 0.323199 0.331060
0.327236 0.323620 0.331485
0.327657 0.324039 0.331908
0.328077 0.324457 0.332330
0.328495 0.324874 0.332750
0.328912 0.325288 0.333168
0.329326 0.325702 0.333585
0.329740 0.326113 0.334001
0.330152 0.326524 0.334414
0.330562 0.326932 0.334827
0.330971 0.327339 0.335237
0.331378 0.327745 0.335646
0.331784 0.328149 0.336054
0.332188 0.328552 0.336460
0.332591 0.328953 0.336865
0.332993 0.329353 0.337268
0.333393 0.329752 0.337670
0.333791 0.330149 0.338070
0.334188 0.330544 0.338469
0.334584 0.330938 0.338867
0.334978 0.331331 0.339263
0.335371 0.331723 0.339657
0.335763 0.332113 0.340051
0.336153 0.332501 0.340442
0.336542 0.332889 0.340833
0.336929 0.333274 0.341222
0.337315 0.333659 0.341610
0.337700 0.334042 0.341996
0.338083 0.334424 0.342381
0.338466 0.334805 0.342765
0.338846 0.335184 0.343147
0.339226 0.335562 0.343528
0.339604 0.335939 0.343908
0.339981 0.336315 0.344287
0.340356 0.336689 0.344664
0.340731 0.337062 0.345040
0.341104 0.337434 0.345414
0.341476 0.337804 0.345788
0.341846 0.338173 0.346160
0.342216 0.338541 0.346531
0.342584 0.338908 0.346901
0.342951 0.339274 0.347269
0.343317 0.339638 0.347636
0.343681 0.340001 0.348002
0.344044 0.340363 0.348367
0.344407 0.340724 0.348731
0.344768 0.341084 0.349093
0.345127 0.341443 0.349454
0.345486 0.341800 0.349814
0.345843 0.342156 0.350173
0.346200 0.342511 0.350531
0.346555 0.342865 0.350888
0.346909 0.343218 0.351243
0.347262 0.343570 0.351597
0.347614 0.343920 0.351951
0.347965 0.344270 0.352303
0.348314 0.344618 0.352654
0.348663 0.344966 0.353003
0.349010 0.345312 0.353352
0.349356 0.345657 0.353700
0.349702 0.346001 0.354046
0.350046 0.346344 0.354392
0.350389 0.346686 0.354736
0.350731 0.347027 0.355080
0.351072 0.347367 0.355422
0.351412 0.347706 0.355763
0.351751 0.348043 0.356104
0.352089 0.348380 0.356443
0.352426 0.348716 0.356781
0.352762 0.349051 0.357118
0.353096 0.349384 0.357454
0.353430 0.349717 0.357789
0.353763 0.350049 0.358123
0.354153 0.350438 0.358515
0.354573 0.350856 0.358936
0.354993 0.351274 0.359357
0.355411 0.351692 0.359778
0.355829 0.352109 0.360197
0.356247 0.352525 0.360616
0.356664 0.352940 0.361034
0.357080 0.353355 0.361452
0.357495 0.353769 0.361869
0.357910 0.354183 0.362285
0.358324 0.354595 0.362701
0.358738 0.355008 0.363116
0.359151 0.355419 0.363530
0.359563 0.355830 0.363944
0.359975 0.356241 0.364357
0.360386 0.356651 0.364770
0.360796 0.357060 0.365182
0.361206 0.357468 0.365593
0.361615 0.357876 0.366004
0.362024 0.358284 0.366414
0.362432 0.358690 0.366823
0.362839 0.359097 0.367232
0.363246 0.359502 0.367640
0.363652 0.359907 0.368048
0.364058 0.360312 0.368455
0.364463 0.360715 0.368861
0.364868 0.361119 0.369267
0.365271 0.361521 0.369672
0.365675 0.361924 0.370077
0.366078 0.362325 0.370481
0.366480 0.362726 0.370884
0.366881 0.363126 0.371287
0.367282 0.363526 0.371690
0.367683 0.363926 0.372091
0.368083 0.364324 0.372493
0.368482 0.364722 0.372893
0.368881 0.365120 0.373293
0.369279 0.365517 0.373693
0.369677 0.365914 0.374092
0.370074 0.366310 0.374490
0.370470 0.366705 0.374888
0.370866 0.367100 0.375285
0.371262 0.367494 0.375682
0.371657 0.367888 0.376078
0.372051 0.368282 0.376474
0.372445 0.368674 0.376869
0.372838 0.369067 0.377263
0.373231 0.369458 0.377657
0.373623 0.369850 0.378051
0.374015 0.370240 0.378444
0.374406 0.370631 0.378836
0.374797 0.371020 0.379228
0.375187 0.371409 0.379620
0.375577 0.371798 0.380011
0.375966 0.372186 0.380401
0.376355 0.372574 0.380791
0.376743 0.372961 0.381180
0.377131 0.373348 0.381569
0.377518 0.373734 0.381957
0.377905 0.374119 0.382345
0.378291 0.374505 0.382733
0.378677 0.374889 0.383120
0.379062 0.375274 0.383506
0.379447 0.375657 0.383892
0.379831 0.376041 0.384277
0.380215 0.376423 0.384662
0.380598 0.376806 0.385046
0.380981 0.377187 0.385430
0.381363 0.377569 0.385814
0.381745 0.377950 0.386197
0.382126 0.378330 0.386579
0.382507 0.378710 0.386961
0.382888 0.379089 0.387343
0.383268 0.379468 0.387724
0.383647 0.379847 0.388104
0.384026 0.380225 0.388484
0.384405 0.380603 0.388864
0.384783 0.380980 0.389243
0.385160 0.381357 0.389622
0.385538 0.381733 0.390000
0.385914 0.382109 0.390378
0.386291 0.382484 0.390755
0.386667 0.382859 0.391132
0.387042 0.383234 0.391509
0.387417 0.383608 0.391885
0.387792 0.383981 0.392260
0.388166 0.384355 0.392635
0.388539 0.384727 0.393010
0.388913 0.385100 0.393384
0.389285 0.385472 0.393758
0.389658 0.385843 0.394132
0.390030 0.386214 0.394504
0.390401 0.386585 0.394877
0.390772 0.386955 0.395249
0.391143 0.387325 0.395621
0.391513 0.387694 0.395992
0.391883 0.388063 0.396363
0.392252 0.388432 0.396733
0.392621 0.388800 0.397103
0.392990 0.389167 0.397473
0.393358 0.389535 0.397842
0.393726 0.389902 0.398210
0.394093 0.390268 0.398579
0.394460 0.390634 0.398947
0.394827 0.391000 0.399314
0.395193 0.391365 0.399681
0.395559 0.391730 0.400048
0.395924 0.392095 0.400414
0.396289 0.392459 0.400780
0.396653 0.392823 0.401145
0.397018 0.393186 0.401510
0.397381 0.393549 0.401875
0.397745 0.393911 0.402239
0.398108 0.394274 0.402603
0.398470 0.394635 0.402967
0.398832 0.394997 0.403330
0.399194 0.395358 0.403692
0.399556 0.395718 0.404055
0.399917 0.396079 0.404417
0.400277 0.396439 0.404778
0.400638 0.396798 0.405139
0.400998 0.397157 0.405500
0.401357 0.397516 0.405861
0.401716 0.397874 0.406221
0.402075 0.398233 0.406580
0.402434 0.398590 0.406940
0.402792 0.398947 0.407299
0.403149 0.399304 0.407657
0.403507 0.399661 0.408015
0.403864 0.400017 0.408373
0.404220 0.400373 0.408731
0.404576 0.400729 0.409088
0.404932 0.401084 0.409444
0.405288 0.401439 0.409801
0.405643 0.401793 0.410157
0.405998 0.402147 0.410512
0.406352 0.402501 0.410868
0.406706 0.402854 0.411223
0.407060 0.403207 0.411577
0.407414 0.403560 0.411931
0.407767 0.403912 0.412285
0.408119 0.404264 0.412639
0.408472 0.404616 0.412992
0.408824 0.404967 0.413345
0.409175 0.405318 0.413697
0.409527 0.405669 0.414049
0.409878 0.406019 0.414401
0.410229 0.406369 0.414753
0.410579 0.406719 0.415104
0.410929 0.407068 0.415455
0.411279 0.407417 0.415805
0.411628 0.407766 0.416155
0.411977 0.408114 0.416505
0.412326 0.408462 0.416854
0.412674 0.408810 0.417203
0.413022 0.409157 0.417552
0.413370 0.409504 0.417901
0.413717 0.409851 0.418249
0.414064 0.410197 0.418597
0.414411 0.410544 0.418944
0.414757 0.410889 0.419291
0.415103 0.411235 0.419638
0.415449 0.411580 0.419985
0.415795 0.411925 0.420331
0.416140 0.412269 0.420677
0.416485 0.412613 0.421022
0.416829 0.412957 0.421368
0.417173 0.413301 0.421712
0.417517 0.413644 0.422057
0.417861 0.413987 0.422401
0.418204 0.414330 0.422745
0.418547 0.414672 0.423089
0.418890 0.415014 0.423433
0.419232 0.415356 0.423776
0.419574 0.415697 0.424118
0.419916 0.416039 0.424461
0.420258 0.416379 0.424803
0.420599 0.416720 0.425145
0.420940 0.417060 0.425486
0.421280 0.417400 0.425828
0.421621 0.417740 0.426169
0.421961 0.418079 0.426509
0.422300 0.418418 0.426850
0.422640 0.418757 0.427190
0.422979 0.419096 0.427530
0.423318 0.419434 0.427869
0.423656 0.419772 0.428208
0.423994 0.420110 0.428547
0.424332 0.420447 0.428886
0.424670 0.420784 0.429224
0.425007 0.421121 0.429562
0.425345 0.421457 0.429900
0.425681 0.421794 0.430238
0.426018 0.422130 0.430575
0.426354 0.422465 0.430912
0.426690 0.422801 0.431248
0.427026 0.423136 0.431585
0.427361 0.423471 0.431921
0.427697 0.423805 0.432257
