tools/resolve/luts/NIRO Grading/Taxodia 09.26/C0252_e+2.80_r+0.08_b-0.09.cube
TITLE "NIRO BALANCE C0252 e +2.80 R +0.08 B -0.09 (lineare Verstaerkung S-Log3)"
LUT_1D_SIZE 4096
0.000000 0.000000 0.000000
0.000000 0.000000 0.000000
0.000000 0.000000 0.000000
0.000000 0.000000 0.000000
0.000000 0.000000 0.000000
0.000000 0.000000 0.000000
0.000000 0.000000 0.000000
0.000000 0.000000 0.000000
0.000000 0.000000 0.000000
0.000000 0.000000 0.000000
0.000000 0.000000 0.000000
0.000000 0.000000 0.000000
0.000000 0.000000 0.000000
0.000000 0.000000 0.000000
0.000000 0.000000 0.000000
0.000000 0.000000 0.000000
0.000000 0.000000 0.000000
0.000000 0.000000 0.000000
0.000000 0.000000 0.000000
0.000000 0.000000 0.000000
0.000000 0.000000 0.000000
0.000000 0.000000 0.000000
0.000000 0.000000 0.000000
0.000000 0.000000 0.000000
0.000000 0.000000 0.000000
0.000000 0.000000 0.000000
0.000000 0.000000 0.000000
0.000000 0.000000 0.000000
0.000000 0.000000 0.000000
0.000000 0.000000 0.000000
0.000000 0.000000 0.000000
0.000000 0.000000 0.000000
0.000000 0.000000 0.000000
0.000000 0.000000 0.000000
0.000000 0.000000 0.000000
0.000000 0.000000 0.000000
0.000000 0.000000 0.000000
0.000000 0.000000 0.000000
0.000000 0.000000 0.000000
0.000000 0.000000 0.000000
0.000000 0.000000 0.000000
0.000000 0.000000 0.000000
0.000000 0.000000 0.000000
0.000000 0.000000 0.000000
0.000000 0.000000 0.000000
0.000000 0.000000 0.000000
0.000000 0.000000 0.000000
0.000000 0.000000 0.000000
0.000000 0.000000 0.000000
0.000000 0.000000 0.000000
0.000000 0.000000 0.000000
0.000000 0.000000 0.000000
0.000000 0.000000 0.000000
0.000000 0.000000 0.000000
0.000000 0.000000 0.000000
0.000000 0.000000 0.000000
0.000000 0.000000 0.000000
0.000000 0.000000 0.000000
0.000000 0.000000 0.000000
0.000000 0.000000 0.000000
0.000000 0.000000 0.000000
0.000000 0.000000 0.000000
0.000000 0.000000 0.000000
0.000000 0.000000 0.000000
0.000000 0.000000 0.000000
0.000000 0.000000 0.000000
0.000000 0.000000 0.000000
0.000000 0.000000 0.000000
0.000000 0.000000 0.000000
0.000000 0.000000 0.000000
0.000000 0.000000 0.000000
0.000000 0.000000 0.000000
0.000000 0.000000 0.000000
0.000000 0.000000 0.000000
0.000000 0.000000 0.000000
0.000000 0.000000 0.000000
0.000000 0.000000 0.000000
0.000000 0.000000 0.000000
0.000000 0.000000 0.000000
0.000000 0.000000 0.000000
0.000000 0.000000 0.000000
0.000000 0.000000 0.000000
0.000000 0.000000 0.000000
0.000000 0.000000 0.000000
0.000000 0.000000 0.000000
0.000000 0.000000 0.000000
0.000000 0.000000 0.000000
0.000000 0.000000 0.000000
0.000000 0.000000 0.000000
0.000000 0.000000 0.000000
0.000000 0.000000 0.000000
0.000000 0.000000 0.000000
0.000000 0.000000 0.000000
0.000000 0.000000 0.000000
0.000000 0.000000 0.000000
0.000000 0.000000 0.000000
0.000000 0.000000 0.000000
0.000000 0.000000 0.000000
0.000000 0.000000 0.000000
0.000000 0.000000 0.000000
0.000000 0.000000 0.000000
0.000000 0.000000 0.000000
0.000000 0.000000 0.000000
0.000000 0.000000 0.000000
0.000000 0.000000 0.000000
0.000000 0.000000 0.000000
0.000000 0.000000 0.000000
0.000000 0.000000 0.000000
0.000000 0.000000 0.000000
0.000000 0.000000 0.000000
0.000000 0.000000 0.000000
0.000000 0.000000 0.000000
0.000000 0.000000 0.000000
0.000000 0.000000 0.000000
0.000000 0.000000 0.000000
0.000000 0.000000 0.000000
0.000000 0.000000 0.000000
0.000000 0.000000 0.000000
0.000000 0.000000 0.000000
0.000000 0.000000 0.000000
0.000000 0.000000 0.000000
0.000000 0.000000 0.000000
0.000000 0.000000 0.000000
0.000000 0.000000 0.000000
0.000000 0.000000 0.000000
0.000000 0.000000 0.000000
0.000000 0.000000 0.000000
0.000000 0.000000 0.000000
0.000000 0.000000 0.000000
0.000000 0.000000 0.000000
0.000000 0.000000 0.000000
0.000000 0.000000 0.000000
0.000000 0.000000 0.000000
0.000000 0.000000 0.000000
0.000000 0.000000 0.000000
0.000000 0.000000 0.000000
0.000000 0.000000 0.000000
0.000000 0.000000 0.000000
0.000000 0.000000 0.000000
0.000000 0.000000 0.000000
0.000000 0.000000 0.000000
0.000000 0.000000 0.000000
0.000000 0.000000 0.000000
0.000000 0.000000 0.000000
0.000000 0.000000 0.000000
0.000000 0.000000 0.000000
0.000000 0.000000 0.000000
0.000000 0.000000 0.000000
0.000000 0.000000 0.000000
0.000000 0.000000 0.000000
0.000000 0.000000 0.000000
0.000000 0.000000 0.000000
0.000000 0.000000 0.000000
0.000000 0.000000 0.000000
0.000000 0.000000 0.000000
0.000000 0.000000 0.000000
0.000000 0.000000 0.000000
0.000000 0.000000 0.000000
0.000000 0.000000 0.000000
0.000000 0.000000 0.000000
0.000000 0.000000 0.000000
0.000000 0.000000 0.000000
0.000000 0.000000 0.000000
0.000000 0.000000 0.000000
0.000000 0.000000 0.000000
0.000000 0.000000 0.000000
0.000000 0.000000 0.000000
0.000000 0.000000 0.000000
0.000000 0.000000 0.000000
0.000000 0.000000 0.000000
0.000000 0.000000 0.000000
0.000000 0.000000 0.000000
0.000000 0.000000 0.000000
0.000000 0.000000 0.000000
0.000000 0.000000 0.000000
0.000000 0.000000 0.000000
0.000000 0.000000 0.000000
0.000000 0.000000 0.000000
0.000000 0.000000 0.000000
0.000000 0.000000 0.000000
0.000000 0.000000 0.000000
0.000000 0.000000 0.000000
0.000000 0.000000 0.000000
0.000000 0.000000 0.000000
0.000000 0.000000 0.000000
0.000000 0.000000 0.000000
0.000000 0.000000 0.000000
0.000000 0.000000 0.000000
0.000000 0.000000 0.000000
0.000000 0.000000 0.000000
0.000000 0.000000 0.000000
0.000000 0.000000 0.000000
0.000000 0.000000 0.000000
0.000000 0.000000 0.000000
0.000000 0.000000 0.000000
0.000000 0.000000 0.000000
0.000000 0.000000 0.000000
0.000000 0.000000 0.000000
0.000000 0.000000 0.000000
0.000000 0.000000 0.000000
0.000000 0.000000 0.000000
0.000000 0.000000 0.000000
0.000000 0.000000 0.000000
0.000000 0.000000 0.000000
0.000000 0.000000 0.000000
0.000000 0.000000 0.000000
0.000000 0.000000 0.000000
0.000000 0.000000 0.000000
0.000000 0.000000 0.000000
0.000000 0.000000 0.000000
0.000000 0.000000 0.000000
0.000000 0.000000 0.000000
0.000000 0.000000 0.000000
0.000000 0.000000 0.000000
0.000000 0.000000 0.000000
0.000000 0.000000 0.000000
0.000000 0.000000 0.000000
0.000000 0.000000 0.000000
0.000000 0.000000 0.000000
0.000000 0.000000 0.000000
0.000000 0.000000 0.000000
0.000000 0.000000 0.000000
0.000000 0.000000 0.000000
0.000000 0.000000 0.000000
0.000000 0.000000 0.000000
0.000000 0.000000 0.000000
0.000000 0.000000 0.000000
0.000000 0.000000 0.000000
0.000000 0.000000 0.000000
0.000000 0.000000 0.000000
0.000000 0.000000 0.000000
0.000000 0.000000 0.000000
0.000000 0.000000 0.000000
0.000000 0.000000 0.000000
0.000000 0.000000 0.000000
0.000000 0.000000 0.000000
0.000000 0.000000 0.000000
0.000000 0.000000 0.000000
0.000000 0.000000 0.000000
0.000000 0.000000 0.000000
0.000000 0.000000 0.000000
0.000000 0.000000 0.000000
0.000000 0.000000 0.000000
0.000000 0.000000 0.000000
0.000000 0.000000 0.000000
0.000000 0.000000 0.000000
0.000000 0.000000 0.000000
0.000000 0.000000 0.000000
0.000000 0.000000 0.000000
0.000000 0.000000 0.000000
0.000000 0.000000 0.000000
0.000000 0.000000 0.000000
0.000000 0.000000 0.000000
0.000000 0.000000 0.000000
0.000000 0.000000 0.000000
0.000000 0.000000 0.000000
0.000000 0.000000 0.000000
0.000000 0.000000 0.000000
0.000000 0.000000 0.000000
0.000000 0.000000 0.000000
0.000000 0.000000 0.000000
0.000000 0.000000 0.000000
0.000000 0.000000 0.000000
0.000000 0.000000 0.000000
0.000000 0.000000 0.000000
0.000000 0.000000 0.000000
0.000000 0.000000 0.000000
0.000000 0.000000 0.000000
0.000000 0.000000 0.000000
0.000000 0.000000 0.000000
0.000000 0.000000 0.000000
0.000000 0.000000 0.000000
0.000000 0.000000 0.000000
0.000000 0.000000 0.000000
0.000000 0.000000 0.000000
0.000000 0.000000 0.000000
0.000000 0.000000 0.000000
0.000000 0.000000 0.000000
0.000000 0.000000 0.000000
0.000000 0.000000 0.000000
0.000000 0.000000 0.000000
0.000000 0.000000 0.000000
0.000000 0.000000 0.000000
0.000000 0.000000 0.000000
0.000000 0.000000 0.000000
0.000000 0.000000 0.000000
0.000000 0.000000 0.000000
0.000000 0.000000 0.000000
0.000000 0.000000 0.000000
0.000000 0.000000 0.000000
0.000000 0.000000 0.000000
0.000000 0.000000 0.000000
0.000000 0.000000 0.000000
0.000000 0.000000 0.000000
0.000000 0.000000 0.000000
0.000000 0.000000 0.000000
0.000000 0.000000 0.000000
0.000000 0.000000 0.000000
0.000000 0.000000 0.000000
0.000000 0.000000 0.000000
0.000000 0.000000 0.000000
0.000000 0.000000 0.000000
0.000000 0.000000 0.000000
0.000000 0.000000 0.000000
0.000000 0.000000 0.000000
0.000000 0.000000 0.000000
0.000000 0.000000 0.000000
0.000000 0.000000 0.000000
0.000000 0.000000 0.000000
0.000000 0.000000 0.000000
0.000000 0.000000 0.000000
0.000000 0.000000 0.000000
0.000000 0.000000 0.000000
0.000000 0.000000 0.000000
0.000000 0.000000 0.000000
0.000000 0.000000 0.000000
0.000000 0.000000 0.000000
0.000000 0.000000 0.000000
0.000000 0.000000 0.000000
0.000000 0.000000 0.000000
0.000000 0.000000 0.000000
0.000000 0.000000 0.000000
0.000000 0.000000 0.000000
0.000000 0.000000 0.000960
0.000000 0.000000 0.002564
0.000000 0.000000 0.004169
0.000000 0.000488 0.005773
0.000000 0.002190 0.007378
0.000000 0.003892 0.008982
0.000426 0.005594 0.010587
0.002228 0.007296 0.012191
0.004031 0.008997 0.013796
0.005834 0.010699 0.015400
0.007636 0.012401 0.017005
0.009439 0.014103 0.018609
0.011242 0.015805 0.020214
0.013044 0.017507 0.021818
0.014847 0.019209 0.023423
0.016650 0.020911 0.025028
0.018452 0.022613 0.026632
0.020255 0.024314 0.028237
0.022058 0.026016 0.029841
0.023860 0.027718 0.031446
0.025663 0.029420 0.033050
0.027466 0.031122 0.034655
0.029268 0.032824 0.036259
0.031071 0.034526 0.037864
0.032874 0.036228 0.039468
0.034676 0.037930 0.041073
0.036479 0.039631 0.042677
0.038282 0.041333 0.044282
0.040084 0.043035 0.045886
0.041887 0.044737 0.047491
0.043690 0.046439 0.049095
0.045492 0.048141 0.050700
0.047295 0.049843 0.052304
0.049098 0.051545 0.053909
0.050900 0.053247 0.055513
0.052703 0.054948 0.057118
0.054506 0.056650 0.058722
0.056308 0.058352 0.060327
0.058111 0.060054 0.061931
0.059914 0.061756 0.063536
0.061716 0.063458 0.065140
0.063519 0.065160 0.066745
0.065322 0.066862 0.068349
0.067125 0.068564 0.069954
0.068927 0.070265 0.071558
0.070730 0.071967 0.073163
0.072533 0.073669 0.074767
0.074335 0.075371 0.076372
0.076138 0.077073 0.077976
0.077941 0.078775 0.079581
0.079743 0.080477 0.081186
0.081546 0.082179 0.082790
0.083349 0.083881 0.084395
0.085151 0.085582 0.085999
0.086954 0.087284 0.087604
0.088757 0.088986 0.089208
0.090559 0.090688 0.090813
0.092362 0.092390 0.092417
0.094165 0.094092 0.094022
0.095967 0.095794 0.095626
0.097770 0.097496 0.097231
0.099573 0.099198 0.098835
0.101375 0.100899 0.100440
0.103178 0.102601 0.102044
0.104981 0.104303 0.103649
0.106783 0.106005 0.105253
0.108586 0.107707 0.106858
0.110389 0.109409 0.108462
0.112191 0.111111 0.110067
0.113994 0.112813 0.111671
0.115797 0.114515 0.113276
0.117599 0.116216 0.114880
0.119402 0.117918 0.116485
0.121205 0.119620 0.118089
0.123007 0.121322 0.119694
0.124810 0.123024 0.121298
0.126613 0.124726 0.122903
0.128415 0.126428 0.124507
0.130218 0.128130 0.126112
0.132021 0.129832 0.127716
0.133823 0.131533 0.129321
0.135626 0.133235 0.130925
0.137429 0.134937 0.132530
0.139231 0.136639 0.134134
0.141034 0.138341 0.135739
0.142837 0.140043 0.137344
0.144639 0.141745 0.138948
0.146442 0.143447 0.140553
0.148245 0.145149 0.142157
0.150047 0.146850 0.143762
0.151850 0.148552 0.145366
0.153653 0.150254 0.146971
0.155455 0.151956 0.148575
0.157258 0.153658 0.150180
0.159061 0.155360 0.151784
0.160863 0.157062 0.153389
0.162666 0.158764 0.154993
0.164469 0.160466 0.156598
0.166271 0.162167 0.158202
0.167922 0.163869 0.159807
0.169328 0.165571 0.161411
0.170717 0.167273 0.163016
0.172088 0.168627 0.164620
0.173443 0.169947 0.166225
0.174781 0.171251 0.167730
0.176103 0.172540 0.168984
0.177410 0.173814 0.170225
0.178702 0.175073 0.171452
0.179978 0.176319 0.172665
0.181240 0.177551 0.173865
0.182488 0.178769 0.175053
0.183723 0.179974 0.176228
0.184943 0.181166 0.177390
0.186150 0.182345 0.178541
0.187345 0.183512 0.179679
0.188526 0.184667 0.180807
0.189695 0.185810 0.181922
0.190852 0.186941 0.183027
0.191997 0.188061 0.184121
0.193131 0.189170 0.185204
0.194253 0.190268 0.186277
0.195363 0.191355 0.187339
0.196463 0.192431 0.188392
0.197552 0.193497 0.189434
0.198630 0.194553 0.190467
0.199698 0.195599 0.191490
0.200756 0.196636 0.192504
0.201803 0.197662 0.193509
0.202841 0.198679 0.194504
0.203870 0.199687 0.195491
0.204889 0.200686 0.196470
0.205898 0.201676 0.197439
0.206899 0.202658 0.198400
0.207890 0.203631 0.199353
0.208873 0.204595 0.200298
0.209847 0.205551 0.201235
0.210813 0.206498 0.202164
0.211771 0.207438 0.203086
0.212720 0.208370 0.203999
0.213661 0.209294 0.204906
0.214594 0.210211 0.205805
0.215520 0.211120 0.206696
0.216437 0.212021 0.207581
0.217348 0.212916 0.208459
0.218251 0.213803 0.209329
0.219146 0.214683 0.210193
0.220035 0.215556 0.211051
0.220916 0.216423 0.211901
0.221790 0.217282 0.212746
0.222658 0.218136 0.213584
0.223519 0.218982 0.214415
0.224373 0.219822 0.215241
0.225221 0.220656 0.216060
0.226062 0.221484 0.216873
0.226897 0.222305 0.217681
0.227726 0.223121 0.218482
0.228549 0.223930 0.219278
0.229365 0.224734 0.220068
0.230176 0.225532 0.220853
0.230980 0.226324 0.221632
0.231779 0.227111 0.222406
0.232573 0.227892 0.223174
0.233360 0.228668 0.223937
0.234142 0.229438 0.224695
0.234919 0.230203 0.225448
0.235690 0.230962 0.226195
0.236456 0.231717 0.226938
0.237216 0.232466 0.227676
0.237972 0.233211 0.228408
0.238722 0.233950 0.229136
0.239468 0.234685 0.229860
0.240208 0.235415 0.230578
0.240943 0.236140 0.231292
0.241674 0.236860 0.232002
0.242400 0.237575 0.232706
0.243121 0.238286 0.233407
0.243837 0.238993 0.234103
0.244549 0.239695 0.234795
0.245256 0.240393 0.235482
0.245959 0.241086 0.236165
0.246658 0.241775 0.236844
0.247352 0.242460 0.237519
0.248041 0.243140 0.238190
0.248727 0.243817 0.238857
0.249408 0.244489 0.239520
0.250085 0.245157 0.240179
0.250758 0.245821 0.240834
0.251427 0.246482 0.241485
0.252092 0.247138 0.242132
0.252753 0.247791 0.242776
0.253410 0.248439 0.243415
0.254063 0.249084 0.244052
0.254713 0.249725 0.244684
0.255358 0.250363 0.245313
0.256000 0.250997 0.245939
0.256638 0.251627 0.246561
0.257273 0.252254 0.247179
0.257904 0.252877 0.247794
0.258531 0.253497 0.248406
0.259155 0.254113 0.249014
0.259775 0.254726 0.249619
0.260392 0.255336 0.250221
0.261006 0.255942 0.250820
0.261616 0.256545 0.251415
0.262223 0.257144 0.252007
0.262826 0.257741 0.252596
0.263426 0.258334 0.253182
0.264023 0.258924 0.253765
0.264617 0.259511 0.254344
0.265208 0.260095 0.254921
0.265795 0.260676 0.255495
0.266380 0.261254 0.256066
0.266961 0.261828 0.256633
0.267539 0.262400 0.257198
0.268115 0.262969 0.257761
0.268687 0.263535 0.258320
0.269257 0.264098 0.258876
0.269823 0.264659 0.259430
0.270387 0.265216 0.259981
0.270948 0.265771 0.260529
0.271506 0.266323 0.261075
0.272061 0.266872 0.261618
0.272613 0.267419 0.262158
0.273163 0.267962 0.262695
0.273710 0.268504 0.263231
0.274254 0.269042 0.263763
0.274796 0.269578 0.264293
0.275335 0.270112 0.264820
0.275871 0.270642 0.265345
0.276405 0.271171 0.265868
0.276936 0.271697 0.266388
0.277465 0.272220 0.266905
0.277991 0.272741 0.267420
0.278515 0.273259 0.267933
0.279036 0.273775 0.268444
0.279555 0.274289 0.268952
0.280072 0.274800 0.269458
0.280586 0.275309 0.269961
0.281098 0.275816 0.270462
0.281607 0.276320 0.270961
0.282114 0.276822 0.271458
0.282619 0.277322 0.271952
0.283121 0.277819 0.272445
0.283621 0.278315 0.272935
0.284119 0.278808 0.273423
0.284615 0.279299 0.273909
0.285108 0.279788 0.274392
0.285600 0.280274 0.274874
0.286089 0.280759 0.275354
0.286576 0.281241 0.275831
0.287061 0.281721 0.276307
0.287543 0.282200 0.276780
0.288024 0.282676 0.277251
0.288503 0.283150 0.277721
0.288979 0.283622 0.278188
0.289454 0.284092 0.278654
0.289926 0.284560 0.279117
0.290397 0.285027 0.279579
0.290865 0.285491 0.280039
0.291332 0.285953 0.280497
0.291796 0.286414 0.280952
0.292259 0.286872 0.281406
0.292720 0.287329 0.281859
0.293179 0.287783 0.282309
0.293636 0.288236 0.282758
0.294091 0.288687 0.283204
0.294544 0.289136 0.283649
0.294995 0.289584 0.284093
0.295445 0.290030 0.284534
0.295892 0.290473 0.284974
0.296338 0.290915 0.285412
0.296782 0.291356 0.285848
0.297225 0.291794 0.286282
0.297665 0.292231 0.286715
0.298104 0.292666 0.287146
0.298541 0.293100 0.287576
0.298977 0.293531 0.288004
0.299411 0.293961 0.288430
0.299843 0.294390 0.288854
0.300273 0.294817 0.289277
0.300702 0.295242 0.289699
0.301129 0.295665 0.290118
0.301554 0.296087 0.290536
0.301978 0.296508 0.290953
0.302400 0.296926 0.291368
0.302821 0.297343 0.291781
0.303240 0.297759 0.292193
0.303657 0.298173 0.292604
0.304073 0.298585 0.293013
0.304487 0.298996 0.293420
0.304900 0.299406 0.293826
0.305311 0.299814 0.294231
0.305721 0.300220 0.294633
0.306129 0.300625 0.295035
0.306536 0.301029 0.295435
0.306941 0.301431 0.295834
0.307345 0.301831 0.296231
0.307747 0.302231 0.296627
0.308148 0.302628 0.297021
0.308547 0.303025 0.297414
0.308945 0.303419 0.297806
0.309342 0.303813 0.298196
0.309737 0.304205 0.298585
0.310131 0.304596 0.298972
0.310523 0.304985 0.299358
0.310914 0.305373 0.299743
0.311304 0.305760 0.300127
0.311692 0.306145 0.300509
0.312079 0.306529 0.300890
0.312464 0.306912 0.301269
0.312849 0.307293 0.301647
0.313231 0.307673 0.302024
0.313613 0.308052 0.302400
0.313993 0.308429 0.302775
0.314372 0.308805 0.303148
0.314750 0.309180 0.303520
0.315126 0.309554 0.303890
0.315501 0.309926 0.304260
0.315875 0.310297 0.304628
0.316248 0.310667 0.304995
0.316619 0.311036 0.305361
0.316989 0.311403 0.305725
0.317358 0.311769 0.306089
0.317726 0.312134 0.306451
0.318092 0.312498 0.306812
0.318457 0.312861 0.307172
0.318821 0.313222 0.307531
0.319184 0.313583 0.307888
0.319546 0.313942 0.308245
0.319906 0.314300 0.308600
0.320266 0.314657 0.308954
0.320624 0.315012 0.309307
0.320981 0.315367 0.309659
0.321337 0.315720 0.310010
0.321691 0.316072 0.310359
0.322045 0.316424 0.310708
0.322398 0.316774 0.311055
0.322749 0.317123 0.311402
0.323099 0.317471 0.311747
0.323448 0.317817 0.312091
0.323796 0.318163 0.312434
0.324143 0.318508 0.312776
0.324489 0.318851 0.313118
0.324834 0.319194 0.313458
0.325178 0.319535 0.313797
0.325521 0.319876 0.314134
0.325862 0.320215 0.314471
0.326203 0.320553 0.314807
0.326542 0.320890 0.315142
0.326881 0.321227 0.315476
0.327218 0.321562 0.315809
0.327555 0.321896 0.316141
0.327890 0.322230 0.316472
0.328225 0.322562 0.316802
0.328558 0.322893 0.317131
0.328890 0.323223 0.317459
0.329222 0.323553 0.317786
0.329552 0.323881 0.318112
0.329882 0.324208 0.318437
0.330210 0.324535 0.318761
0.330538 0.324860 0.319084
0.330864 0.325185 0.319406
0.331190 0.325508 0.319728
0.331572 0.325887 0.320104
0.331983 0.326296 0.320510
0.332393 0.326704 0.320915
0.332803 0.327111 0.321320
0.333212 0.327517 0.321723
0.333620 0.327923 0.322127
0.334028 0.328329 0.322529
0.334436 0.328734 0.322932
0.334842 0.329138 0.323333
0.335249 0.329542 0.323734
0.335654 0.329945 0.324134
0.336059 0.330347 0.324534
0.336463 0.330749 0.324934
0.336867 0.331150 0.325332
0.337270 0.331551 0.325731
0.337673 0.331951 0.326128
0.338075 0.332351 0.326525
0.338477 0.332750 0.326922
0.338878 0.333149 0.327318
0.339278 0.333547 0.327713
0.339678 0.333944 0.328108
0.340077 0.334341 0.328503
0.340476 0.334737 0.328897
0.340874 0.335133 0.329290
0.341271 0.335529 0.329683
0.341668 0.335923 0.330075
0.342065 0.336318 0.330467
0.342461 0.336711 0.330858
0.342856 0.337104 0.331249
0.343251 0.337497 0.331639
0.343645 0.337889 0.332029
0.344039 0.338281 0.332418
0.344433 0.338672 0.332806
0.344825 0.339062 0.333195
0.345218 0.339452 0.333582
0.345609 0.339842 0.333970
0.346000 0.340231 0.334356
0.346391 0.340619 0.334742
0.346781 0.341007 0.335128
0.347171 0.341395 0.335513
0.347560 0.341782 0.335898
0.347949 0.342168 0.336282
0.348337 0.342554 0.336666
0.348724 0.342940 0.337049
0.349111 0.343325 0.337432
0.349498 0.343709 0.337814
0.349884 0.344093 0.338196
0.350270 0.344477 0.338577
0.350655 0.344860 0.338958
0.351040 0.345243 0.339339
0.351424 0.345625 0.339719
0.351807 0.346006 0.340098
0.352191 0.346388 0.340477
0.352573 0.346768 0.340856
0.352956 0.347149 0.341234
0.353337 0.347528 0.341612
0.353719 0.347908 0.341989
0.354100 0.348287 0.342366
0.354480 0.348665 0.342742
0.354860 0.349043 0.343118
0.355239 0.349421 0.343493
0.355618 0.349798 0.343868
0.355997 0.350174 0.344243
0.356375 0.350550 0.344617
0.356752 0.350926 0.344990
0.357130 0.351301 0.345364
0.357506 0.351676 0.345736
0.357883 0.352050 0.346109
0.358258 0.352424 0.346481
0.358634 0.352798 0.346852
0.359009 0.353171 0.347223
0.359383 0.353544 0.347594
0.359757 0.353916 0.347964
0.360131 0.354288 0.348334
0.360504 0.354659 0.348703
0.360877 0.355030 0.349072
0.361249 0.355400 0.349441
0.361621 0.355770 0.349809
0.361992 0.356140 0.350177
0.362363 0.356509 0.350544
0.362734 0.356878 0.350911
0.363104 0.357247 0.351278
0.363474 0.357615 0.351644
0.363843 0.357982 0.352009
0.364212 0.358349 0.352375
0.364581 0.358716 0.352740
0.364949 0.359083 0.353104
0.365316 0.359449 0.353468
0.365684 0.359814 0.353832
0.366051 0.360179 0.354195
0.366417 0.360544 0.354558
0.366783 0.360908 0.354921
0.367149 0.361272 0.355283
0.367514 0.361636 0.355645
0.367879 0.361999 0.356006
0.368243 0.362362 0.356367
0.368608 0.362724 0.356728
0.368971 0.363087 0.357088
0.369335 0.363448 0.357448
0.369697 0.363809 0.357808
0.370060 0.364170 0.358167
0.370422 0.364531 0.358526
0.370784 0.364891 0.358884
0.371145 0.365251 0.359242
0.371506 0.365610 0.359600
0.371867 0.365969 0.359957
0.372227 0.366328 0.360314
0.372587 0.366686 0.360671
0.372946 0.367044 0.361027
0.373306 0.367402 0.361383
0.373664 0.367759 0.361738
0.374023 0.368116 0.362093
0.374381 0.368472 0.362448
0.374738 0.368828 0.362803
0.375096 0.369184 0.363157
0.375453 0.369539 0.363511
0.375809 0.369894 0.363864
0.376165 0.370249 0.364217
0.376521 0.370603 0.364570
0.376877 0.370957 0.364922
0.377232 0.371311 0.365274
0.377586 0.371664 0.365626
0.377941 0.372017 0.365977
0.378295 0.372370 0.366328
0.378649 0.372722 0.366679
0.379002 0.373074 0.367029
0.379355 0.373426 0.367379
0.379708 0.373777 0.367729
0.380060 0.374128 0.368078
0.380412 0.374478 0.368427
0.380764 0.374828 0.368776
0.381115 0.375178 0.369124
0.381466 0.375528 0.369472
0.381817 0.375877 0.369820
0.382167 0.376226 0.370167
0.382517 0.376575 0.370514
0.382866 0.376923 0.370861
0.383216 0.377271 0.371208
0.383565 0.377618 0.371554
0.383913 0.377966 0.371899
0.384262 0.378312 0.372245
0.384610 0.378659 0.372590
0.384957 0.379005 0.372935
0.385305 0.379351 0.373279
0.385652 0.379697 0.373624
0.385998 0.380042 0.373967
0.386345 0.380387 0.374311
0.386691 0.380732 0.374654
0.387037 0.381077 0.374997
0.387382 0.381421 0.375340
0.387727 0.381764 0.375682
0.388072 0.382108 0.376024
0.388416 0.382451 0.376366
0.388761 0.382794 0.376708
0.389104 0.383137 0.377049
0.389448 0.383479 0.377390
0.389791 0.383821 0.377730
0.390134 0.384162 0.378071
0.390477 0.384504 0.378411
0.390819 0.384845 0.378750
0.391161 0.385186 0.379090
0.391503 0.385526 0.379429
0.391844 0.385866 0.379768
0.392185 0.386206 0.380106
0.392526 0.386546 0.380444
0.392867 0.386885 0.380782
0.393207 0.387224 0.381120
0.393547 0.387563 0.381457
0.393887 0.387901 0.381795
0.394226 0.388239 0.382131
0.394565 0.388577 0.382468
0.394904 0.388915 0.382804
0.395242 0.389252 0.383140
0.395581 0.389589 0.383476
0.395919 0.389926 0.383811
0.396256 0.390262 0.384147
0.396594 0.390598 0.384481
0.396931 0.390934 0.384816
0.397267 0.391270 0.385150
0.397604 0.391605 0.385484
0.397940 0.391940 0.385818
0.398276 0.392275 0.386152
0.398612 0.392610 0.386485
0.398947 0.392944 0.386818
0.399282 0.393278 0.387151
0.399617 0.393612 0.387483
0.399952 0.393945 0.387815
0.400286 0.394278 0.388147
0.400620 0.394611 0.388479
0.400954 0.394944 0.388810
0.401287 0.395276 0.389142
0.401621 0.395608 0.389473
0.401954 0.395940 0.389803
0.402286 0.396272 0.390134
0.402619 0.396603 0.390464
0.402951 0.396934 0.390794
0.403283 0.397265 0.391123
0.403615 0.397595 0.391453
0.403946 0.397926 0.391782
