tools/resolve/luts/NIRO Grading/Taxodia 09.26/C0259_e+1.89_r+0.03_b+0.05.cube
TITLE "NIRO BALANCE C0259 e +1.89 R +0.03 B +0.05 (lineare Verstaerkung S-Log3)"
LUT_1D_SIZE 4096
0.000000 0.000000 0.000000
0.000000 0.000000 0.000000
0.000000 0.000000 0.000000
0.000000 0.000000 0.000000
0.000000 0.000000 0.000000
0.000000 0.000000 0.000000
0.000000 0.000000 0.000000
0.000000 0.000000 0.000000
0.000000 0.000000 0.000000
0.000000 0.000000 0.000000
0.000000 0.000000 0.000000
0.000000 0.000000 0.000000
0.000000 0.000000 0.000000
0.000000 0.000000 0.000000
0.000000 0.000000 0.000000
0.000000 0.000000 0.000000
0.000000 0.000000 0.000000
0.000000 0.000000 0.000000
0.000000 0.000000 0.000000
0.000000 0.000000 0.000000
0.000000 0.000000 0.000000
0.000000 0.000000 0.000000
0.000000 0.000000 0.000000
0.000000 0.000000 0.000000
0.000000 0.000000 0.000000
0.000000 0.000000 0.000000
0.000000 0.000000 0.000000
0.000000 0.000000 0.000000
0.000000 0.000000 0.000000
0.000000 0.000000 0.000000
0.000000 0.000000 0.000000
0.000000 0.000000 0.000000
0.000000 0.000000 0.000000
0.000000 0.000000 0.000000
0.000000 0.000000 0.000000
0.000000 0.000000 0.000000
0.000000 0.000000 0.000000
0.000000 0.000000 0.000000
0.000000 0.000000 0.000000
0.000000 0.000000 0.000000
0.000000 0.000000 0.000000
0.000000 0.000000 0.000000
0.000000 0.000000 0.000000
0.000000 0.000000 0.000000
0.000000 0.000000 0.000000
0.000000 0.000000 0.000000
0.000000 0.000000 0.000000
0.000000 0.000000 0.000000
0.000000 0.000000 0.000000
0.000000 0.000000 0.000000
0.000000 0.000000 0.000000
0.000000 0.000000 0.000000
0.000000 0.000000 0.000000
0.000000 0.000000 0.000000
0.000000 0.000000 0.000000
0.000000 0.000000 0.000000
0.000000 0.000000 0.000000
0.000000 0.000000 0.000000
0.000000 0.000000 0.000000
0.000000 0.000000 0.000000
0.000000 0.000000 0.000000
0.000000 0.000000 0.000000
0.000000 0.000000 0.000000
0.000000 0.000000 0.000000
0.000000 0.000000 0.000000
0.000000 0.000000 0.000000
0.000000 0.000000 0.000000
0.000000 0.000000 0.000000
0.000000 0.000000 0.000000
0.000000 0.000000 0.000000
0.000000 0.000000 0.000000
0.000000 0.000000 0.000000
0.000000 0.000000 0.000000
0.000000 0.000000 0.000000
0.000000 0.000000 0.000000
0.000000 0.000000 0.000000
0.000000 0.000000 0.000000
0.000000 0.000000 0.000000
0.000000 0.000000 0.000000
0.000000 0.000000 0.000000
0.000000 0.000000 0.000000
0.000000 0.000000 0.000000
0.000000 0.000000 0.000000
0.000000 0.000000 0.000000
0.000000 0.000000 0.000000
0.000000 0.000000 0.000000
0.000000 0.000000 0.000000
0.000000 0.000000 0.000000
0.000000 0.000000 0.000000
0.000000 0.000000 0.000000
0.000000 0.000000 0.000000
0.000000 0.000000 0.000000
0.000000 0.000000 0.000000
0.000000 0.000000 0.000000
0.000000 0.000000 0.000000
0.000000 0.000000 0.000000
0.000000 0.000000 0.000000
0.000000 0.000000 0.000000
0.000000 0.000000 0.000000
0.000000 0.000000 0.000000
0.000000 0.000000 0.000000
0.000000 0.000000 0.000000
0.000000 0.000000 0.000000
0.000000 0.000000 0.000000
0.000000 0.000000 0.000000
0.000000 0.000000 0.000000
0.000000 0.000000 0.000000
0.000000 0.000000 0.000000
0.000000 0.000000 0.000000
0.000000 0.000000 0.000000
0.000000 0.000000 0.000000
0.000000 0.000000 0.000000
0.000000 0.000000 0.000000
0.000000 0.000000 0.000000
0.000000 0.000000 0.000000
0.000000 0.000000 0.000000
0.000000 0.000000 0.000000
0.000000 0.000000 0.000000
0.000000 0.000000 0.000000
0.000000 0.000000 0.000000
0.000000 0.000000 0.000000
0.000000 0.000000 0.000000
0.000000 0.000000 0.000000
0.000000 0.000000 0.000000
0.000000 0.000000 0.000000
0.000000 0.000000 0.000000
0.000000 0.000000 0.000000
0.000000 0.000000 0.000000
0.000000 0.000000 0.000000
0.000000 0.000000 0.000000
0.000000 0.000000 0.000000
0.000000 0.000000 0.000000
0.000000 0.000000 0.000000
0.000000 0.000000 0.000000
0.000000 0.000000 0.000000
0.000000 0.000000 0.000000
0.000000 0.000000 0.000000
0.000000 0.000000 0.000000
0.000000 0.000000 0.000000
0.000000 0.000000 0.000000
0.000000 0.000000 0.000000
0.000000 0.000000 0.000000
0.000000 0.000000 0.000000
0.000000 0.000000 0.000000
0.000000 0.000000 0.000000
0.000000 0.000000 0.000000
0.000000 0.000000 0.000000
0.000000 0.000000 0.000000
0.000000 0.000000 0.000000
0.000000 0.000000 0.000000
0.000000 0.000000 0.000000
0.000000 0.000000 0.000000
0.000000 0.000000 0.000000
0.000000 0.000000 0.000000
0.000000 0.000000 0.000000
0.000000 0.000000 0.000000
0.000000 0.000000 0.000000
0.000000 0.000000 0.000000
0.000000 0.000000 0.000000
0.000000 0.000000 0.000000
0.000000 0.000000 0.000000
0.000000 0.000000 0.000000
0.000000 0.000000 0.000000
0.000000 0.000000 0.000000
0.000000 0.000000 0.000000
0.000000 0.000000 0.000000
0.000000 0.000000 0.000000
0.000000 0.000000 0.000000
0.000000 0.000000 0.000000
0.000000 0.000000 0.000000
0.000000 0.000000 0.000000
0.000000 0.000000 0.000000
0.000000 0.000000 0.000000
0.000000 0.000000 0.000000
0.000000 0.000000 0.000000
0.000000 0.000000 0.000000
0.000000 0.000000 0.000000
0.000000 0.000000 0.000000
0.000000 0.000000 0.000000
0.000000 0.000000 0.000000
0.000000 0.000000 0.000000
0.000000 0.000000 0.000000
0.000000 0.000000 0.000000
0.000000 0.000000 0.000000
0.000000 0.000000 0.000000
0.000000 0.000000 0.000000
0.000000 0.000000 0.000000
0.000000 0.000000 0.000000
0.000000 0.000000 0.000000
0.000000 0.000000 0.000000
0.000000 0.000000 0.000000
0.000000 0.000000 0.000000
0.000000 0.000000 0.000000
0.000000 0.000000 0.000000
0.000000 0.000000 0.000000
0.000000 0.000000 0.000000
0.000000 0.000000 0.000000
0.000000 0.000000 0.000000
0.000000 0.000000 0.000000
0.000000 0.000000 0.000000
0.000000 0.000000 0.000000
0.000000 0.000000 0.000000
0.000000 0.000000 0.000000
0.000000 0.000000 0.000000
0.000000 0.000000 0.000000
0.000000 0.000000 0.000000
0.000000 0.000000 0.000000
0.000000 0.000000 0.000000
0.000000 0.000000 0.000000
0.000000 0.000000 0.000000
0.000000 0.000000 0.000000
0.000000 0.000000 0.000000
0.000000 0.000000 0.000000
0.000000 0.000000 0.000000
0.000000 0.000000 0.000000
0.000000 0.000000 0.000000
0.000000 0.000000 0.000000
0.000000 0.000000 0.000000
0.000000 0.000000 0.000000
0.000000 0.000000 0.000000
0.000000 0.000000 0.000000
0.000000 0.000000 0.000000
0.000000 0.000000 0.000000
0.000000 0.000000 0.000000
0.000000 0.000000 0.000000
0.000000 0.000000 0.000000
0.000000 0.000000 0.000000
0.000000 0.000000 0.000000
0.000000 0.000000 0.000000
0.000000 0.000000 0.000000
0.000000 0.000000 0.000000
0.000000 0.000000 0.000000
0.000000 0.000000 0.000000
0.000000 0.000000 0.000000
0.000000 0.000000 0.000000
0.000000 0.000000 0.000000
0.000000 0.000000 0.000000
0.000000 0.000000 0.000000
0.000000 0.000000 0.000000
0.000000 0.000000 0.000000
0.000000 0.000000 0.000000
0.000000 0.000000 0.000000
0.000000 0.000000 0.000000
0.000000 0.000000 0.000000
0.000000 0.000000 0.000000
0.000000 0.000000 0.000000
0.000000 0.000000 0.000000
0.000000 0.000000 0.000000
0.000000 0.000000 0.000000
0.000000 0.000000 0.000000
0.000000 0.000000 0.000000
0.000000 0.000000 0.000000
0.000000 0.000000 0.000000
0.000000 0.000000 0.000000
0.000000 0.000000 0.000000
0.000000 0.000000 0.000000
0.000000 0.000000 0.000000
0.000000 0.000000 0.000000
0.000000 0.000000 0.000000
0.000000 0.000000 0.000000
0.000000 0.000000 0.000000
0.000000 0.000000 0.000000
0.000000 0.000000 0.000000
0.000000 0.000000 0.000000
0.000000 0.000000 0.000000
0.000000 0.000000 0.000000
0.000000 0.000000 0.000000
0.000000 0.000000 0.000000
0.000000 0.000000 0.000000
0.000000 0.000000 0.000000
0.000000 0.000000 0.000000
0.000000 0.000000 0.000000
0.000000 0.000000 0.000000
0.000000 0.000000 0.000000
0.000000 0.000000 0.000000
0.000000 0.000000 0.000000
0.000000 0.000000 0.000000
0.000000 0.000000 0.000000
0.000000 0.000485 0.000000
0.000000 0.001388 0.000000
0.000388 0.002291 0.000000
0.001310 0.003195 0.000161
0.002233 0.004098 0.001095
0.003155 0.005001 0.002028
0.004077 0.005904 0.002962
0.004999 0.006807 0.003896
0.005921 0.007711 0.004830
0.006844 0.008614 0.005764
0.007766 0.009517 0.006697
0.008688 0.010420 0.007631
0.009610 0.011323 0.008565
0.010532 0.012227 0.009499
0.011454 0.013130 0.010432
0.012377 0.014033 0.011366
0.013299 0.014936 0.012300
0.014221 0.015839 0.013234
0.015143 0.016743 0.014167
0.016065 0.017646 0.015101
0.016988 0.018549 0.016035
0.017910 0.019452 0.016969
0.018832 0.020356 0.017903
0.019754 0.021259 0.018836
0.020676 0.022162 0.019770
0.021599 0.023065 0.020704
0.022521 0.023968 0.021638
0.023443 0.024872 0.022571
0.024365 0.025775 0.023505
0.025287 0.026678 0.024439
0.026210 0.027581 0.025373
0.027132 0.028484 0.026306
0.028054 0.029388 0.027240
0.028976 0.030291 0.028174
0.029898 0.031194 0.029108
0.030820 0.032097 0.030042
0.031743 0.033001 0.030975
0.032665 0.033904 0.031909
0.033587 0.034807 0.032843
0.034509 0.035710 0.033777
0.035431 0.036613 0.034710
0.036354 0.037517 0.035644
0.037276 0.038420 0.036578
0.038198 0.039323 0.037512
0.039120 0.040226 0.038445
0.040042 0.041129 0.039379
0.040965 0.042033 0.040313
0.041887 0.042936 0.041247
0.042809 0.043839 0.042180
0.043731 0.044742 0.043114
0.044653 0.045645 0.044048
0.045575 0.046549 0.044982
0.046498 0.047452 0.045916
0.047420 0.048355 0.046849
0.048342 0.049258 0.047783
0.049264 0.050162 0.048717
0.050186 0.051065 0.049651
0.051109 0.051968 0.050584
0.052031 0.052871 0.051518
0.052953 0.053774 0.052452
0.053875 0.054678 0.053386
0.054797 0.055581 0.054319
0.055720 0.056484 0.055253
0.056642 0.057387 0.056187
0.057564 0.058290 0.057121
0.058486 0.059194 0.058055
0.059408 0.060097 0.058988
0.060331 0.061000 0.059922
0.061253 0.061903 0.060856
0.062175 0.062807 0.061790
0.063097 0.063710 0.062723
0.064019 0.064613 0.063657
0.064941 0.065516 0.064591
0.065864 0.066419 0.065525
0.066786 0.067323 0.066458
0.067708 0.068226 0.067392
0.068630 0.069129 0.068326
0.069552 0.070032 0.069260
0.070475 0.070935 0.070194
0.071397 0.071839 0.071127
0.072319 0.072742 0.072061
0.073241 0.073645 0.072995
0.074163 0.074548 0.073929
0.075086 0.075451 0.074862
0.076008 0.076355 0.075796
0.076930 0.077258 0.076730
0.077852 0.078161 0.077664
0.078774 0.079064 0.078597
0.079697 0.079968 0.079531
0.080619 0.080871 0.080465
0.081541 0.081774 0.081399
0.082463 0.082677 0.082333
0.083385 0.083580 0.083266
0.084307 0.084484 0.084200
0.085230 0.085387 0.085134
0.086152 0.086290 0.086068
0.087074 0.087193 0.087001
0.087996 0.088096 0.087935
0.088918 0.089000 0.088869
0.089841 0.089903 0.089803
0.090763 0.090806 0.090736
0.091685 0.091709 0.091670
0.092607 0.092612 0.092604
0.093529 0.093516 0.093538
0.094452 0.094419 0.094472
0.095374 0.095322 0.095405
0.096296 0.096225 0.096339
0.097218 0.097129 0.097273
0.098140 0.098032 0.098207
0.099063 0.098935 0.099140
0.099985 0.099838 0.100074
0.100907 0.100741 0.101008
0.101829 0.101645 0.101942
0.102751 0.102548 0.102875
0.103673 0.103451 0.103809
0.104596 0.104354 0.104743
0.105518 0.105257 0.105677
0.106440 0.106161 0.106611
0.107362 0.107064 0.107544
0.108284 0.107967 0.108478
0.109207 0.108870 0.109412
0.110129 0.109774 0.110346
0.111051 0.110677 0.111279
0.111973 0.111580 0.112213
0.112895 0.112483 0.113147
0.113818 0.113386 0.114081
0.114740 0.114290 0.115014
0.115662 0.115193 0.115948
0.116584 0.116096 0.116882
0.117506 0.116999 0.117816
0.118429 0.117902 0.118749
0.119351 0.118806 0.119683
0.120273 0.119709 0.120617
0.121195 0.120612 0.121551
0.122117 0.121515 0.122485
0.123039 0.122418 0.123418
0.123962 0.123322 0.124352
0.124884 0.124225 0.125286
0.125806 0.125128 0.126220
0.126728 0.126031 0.127153
0.127650 0.126935 0.128087
0.128573 0.127838 0.129021
0.129495 0.128741 0.129955
0.130417 0.129644 0.130888
0.131339 0.130547 0.131822
0.132261 0.131451 0.132756
0.133184 0.132354 0.133690
0.134106 0.133257 0.134624
0.135028 0.134160 0.135557
0.135950 0.135063 0.136491
0.136872 0.135967 0.137425
0.137795 0.136870 0.138359
0.138717 0.137773 0.139292
0.139639 0.138676 0.140226
0.140561 0.139580 0.141160
0.141483 0.140483 0.142094
0.142405 0.141386 0.143027
0.143328 0.142289 0.143961
0.144250 0.143192 0.144895
0.145172 0.144096 0.145829
0.146094 0.144999 0.146763
0.147016 0.145902 0.147696
0.147939 0.146805 0.148630
0.148861 0.147708 0.149564
0.149783 0.148612 0.150498
0.150705 0.149515 0.151431
0.151627 0.150418 0.152365
0.152550 0.151321 0.153299
0.153472 0.152224 0.154233
0.154394 0.153128 0.155166
0.155316 0.154031 0.156100
0.156238 0.154934 0.157034
0.157161 0.155837 0.157968
0.158083 0.156741 0.158902
0.159005 0.157644 0.159835
0.159927 0.158547 0.160769
0.160849 0.159450 0.161703
0.161771 0.160353 0.162637
0.162694 0.161257 0.163570
0.163616 0.162160 0.164504
0.164538 0.163063 0.165438
0.165460 0.163966 0.166372
0.166382 0.164869 0.167305
0.167305 0.165773 0.168052
0.168042 0.166676 0.168781
0.168763 0.167533 0.169506
0.169479 0.168242 0.170227
0.170190 0.168947 0.170942
0.170897 0.169647 0.171653
0.171600 0.170343 0.172360
0.172298 0.171034 0.173062
0.172992 0.171722 0.173759
0.173681 0.172405 0.174453
0.174366 0.173084 0.175141
0.175047 0.173758 0.175826
0.175724 0.174429 0.176507
0.176397 0.175095 0.177183
0.177065 0.175758 0.177855
0.177730 0.176417 0.178523
0.178391 0.177072 0.179188
0.179047 0.177723 0.179848
0.179700 0.178370 0.180504
0.180349 0.179013 0.181157
0.180995 0.179653 0.181805
0.181636 0.180289 0.182450
0.182274 0.180921 0.183092
0.182909 0.181550 0.183729
0.183539 0.182176 0.184363
0.184166 0.182797 0.184993
0.184790 0.183416 0.185620
0.185410 0.184031 0.186243
0.186027 0.184642 0.186863
0.186640 0.185250 0.187479
0.187250 0.185855 0.188092
0.187856 0.186457 0.188702
0.188460 0.187055 0.189308
0.189060 0.187650 0.189911
0.189656 0.188242 0.190510
0.190250 0.188831 0.191107
0.190840 0.189417 0.191700
0.191428 0.189999 0.192290
0.192012 0.190579 0.192877
0.192593 0.191156 0.193461
0.193171 0.191729 0.194042
0.193746 0.192300 0.194619
0.194318 0.192868 0.195194
0.194888 0.193432 0.195766
0.195454 0.193994 0.196335
0.196017 0.194554 0.196901
0.196578 0.195110 0.197464
0.197136 0.195664 0.198024
0.197691 0.196214 0.198582
0.198243 0.196763 0.199137
0.198792 0.197308 0.199688
0.199339 0.197851 0.200238
0.199883 0.198391 0.200784
0.200425 0.198928 0.201328
0.200964 0.199463 0.201869
0.201500 0.199996 0.202408
0.202034 0.200525 0.202944
0.202565 0.201053 0.203477
0.203093 0.201578 0.204008
0.203619 0.202100 0.204536
0.204143 0.202620 0.205062
0.204664 0.203137 0.205585
0.205183 0.203652 0.206106
0.205699 0.204165 0.206625
0.206213 0.204675 0.207141
0.206724 0.205183 0.207654
0.207234 0.205689 0.208165
0.207740 0.206192 0.208674
0.208245 0.206693 0.209181
0.208747 0.207192 0.209685
0.209247 0.207689 0.210187
0.209745 0.208183 0.210687
0.210241 0.208676 0.211185
0.210734 0.209166 0.211680
0.211225 0.209654 0.212173
0.211714 0.210139 0.212664
0.212201 0.210623 0.213153
0.212686 0.211105 0.213639
0.213168 0.211584 0.214124
0.213649 0.212061 0.214606
0.214127 0.212537 0.215086
0.214604 0.213010 0.215565
0.215078 0.213481 0.216041
0.215550 0.213951 0.216515
0.216021 0.214418 0.216987
0.216489 0.214884 0.217457
0.216955 0.215347 0.217925
0.217420 0.215808 0.218392
0.217882 0.216268 0.218856
0.218343 0.216726 0.219318
0.218802 0.217182 0.219778
0.219258 0.217636 0.220237
0.219713 0.218088 0.220694
0.220166 0.218538 0.221148
0.220618 0.218987 0.221601
0.221067 0.219433 0.222052
0.221515 0.219878 0.222501
0.221960 0.220321 0.222949
0.222404 0.220763 0.223394
0.222847 0.221202 0.223838
0.223287 0.221640 0.224280
0.223726 0.222076 0.224720
0.224163 0.222511 0.225159
0.224598 0.222943 0.225596
0.225032 0.223374 0.226031
0.225464 0.223804 0.226464
0.225894 0.224232 0.226896
0.226323 0.224658 0.227326
0.226750 0.225082 0.227755
0.227175 0.225505 0.228181
0.227599 0.225926 0.228606
0.228021 0.226346 0.229030
0.228441 0.226764 0.229452
0.228860 0.227180 0.229872
0.229277 0.227595 0.230291
0.229693 0.228009 0.230708
0.230107 0.228421 0.231124
0.230520 0.228831 0.231538
0.230931 0.229240 0.231950
0.231341 0.229647 0.232361
0.231749 0.230053 0.232770
0.232155 0.230457 0.233178
0.232560 0.230860 0.233585
0.232964 0.231262 0.233990
0.233366 0.231662 0.234393
0.233767 0.232060 0.234795
0.234166 0.232458 0.235196
0.234564 0.232853 0.235595
0.234961 0.233248 0.235993
0.235356 0.233640 0.236389
0.235749 0.234032 0.236784
0.236141 0.234422 0.237177
0.236532 0.234811 0.237569
0.236922 0.235198 0.237960
0.237310 0.235584 0.238350
0.237697 0.235969 0.238737
0.238082 0.236353 0.239124
0.238466 0.236735 0.239509
0.238849 0.237116 0.239893
0.239230 0.237495 0.240276
0.239611 0.237873 0.240657
0.239989 0.238250 0.241037
0.240367 0.238626 0.241416
0.240743 0.239000 0.241793
0.241118 0.239373 0.242170
0.241492 0.239745 0.242544
0.241865 0.240116 0.242918
0.242236 0.240485 0.243290
0.242606 0.240853 0.243662
0.242975 0.241220 0.244031
0.243342 0.241586 0.244400
0.243709 0.241951 0.244768
0.244074 0.242314 0.245134
0.244438 0.242676 0.245499
0.244800 0.243037 0.245863
0.245162 0.243397 0.246225
0.245522 0.243755 0.246587
0.245882 0.244113 0.246947
0.246240 0.244469 0.247306
0.246597 0.244825 0.247664
0.246952 0.245179 0.248021
0.247307 0.245532 0.248376
0.247661 0.245883 0.248731
0.248013 0.246234 0.249084
0.248364 0.246584 0.249437
0.248714 0.246932 0.249788
0.249063 0.247280 0.250138
0.249411 0.247626 0.250487
0.249758 0.247971 0.250835
0.250104 0.248315 0.251181
0.250449 0.248659 0.251527
0.250793 0.249001 0.251872
0.251135 0.249342 0.252215
0.251477 0.249682 0.252558
0.251817 0.250021 0.252899
0.252157 0.250358 0.253240
0.252495 0.250695 0.253579
0.252833 0.251031 0.253917
0.253169 0.251366 0.254255
0.253504 0.251700 0.254591
0.253839 0.252033 0.254926
0.254172 0.252365 0.255260
0.254504 0.252695 0.255594
0.254836 0.253025 0.255926
0.255166 0.253354 0.256257
0.255495 0.253682 0.256587
0.255824 0.254009 0.256917
0.256151 0.254335 0.257245
0.256478 0.254660 0.257572
0.256803 0.254984 0.257899
0.257128 0.255307 0.258224
0.257452 0.255630 0.258549
0.257774 0.255951 0.258872
0.258096 0.256271 0.259195
0.258417 0.256591 0.259516
0.258737 0.256909 0.259837
0.259056 0.257227 0.260157
0.259374 0.257543 0.260476
0.259691 0.257859 0.260794
0.260007 0.258174 0.261111
0.260323 0.258488 0.261427
0.260637 0.258801 0.261742
0.260951 0.259114 0.262057
0.261263 0.259425 0.262370
0.261575 0.259735 0.262683
0.261886 0.260045 0.262994
0.262196 0.260354 0.263305
0.262505 0.260662 0.263615
0.262814 0.260969 0.263924
0.263121 0.261275 0.264233
0.263428 0.261580 0.264540
0.263734 0.261885 0.264846
0.264039 0.262189 0.265152
0.264343 0.262492 0.265457
0.264646 0.262794 0.265761
0.264948 0.263095 0.266064
0.265250 0.263395 0.266367
0.265551 0.263695 0.266668
0.265851 0.263994 0.266969
0.266150 0.264292 0.267269
0.266449 0.264589 0.267568
0.266746 0.264885 0.267866
0.267043 0.265181 0.268164
0.267339 0.265476 0.268461
0.267634 0.265770 0.268757
0.267981 0.266115 0.269104
0.268353 0.266486 0.269477
0.268726 0.266857 0.269851
0.269098 0.267228 0.270224
0.269469 0.267598 0.270596
0.269841 0.267967 0.270968
0.270211 0.268337 0.271340
0.270582 0.268706 0.271711
0.270952 0.269074 0.272082
0.271321 0.269442 0.272452
0.271690 0.269810 0.272822
0.272059 0.270177 0.273191
0.272427 0.270544 0.273560
0.272795 0.270910 0.273929
0.273162 0.271276 0.274297
0.273529 0.271642 0.274665
0.273896 0.272007 0.275033
0.274262 0.272372 0.275400
0.274628 0.272736 0.275766
0.274993 0.273100 0.276132
0.275358 0.273464 0.276498
0.275723 0.273827 0.276864
0.276087 0.274190 0.277229
0.276451 0.274553 0.277593
0.276814 0.274915 0.277958
0.277177 0.275276 0.278321
0.277540 0.275638 0.278685
0.277902 0.275999 0.279048
0.278264 0.276359 0.279411
0.278626 0.276719 0.279773
0.278987 0.277079 0.280135
0.279348 0.277439 0.280496
0.279708 0.277798 0.280857
0.280068 0.278156 0.281218
0.280428 0.278515 0.281578
0.280787 0.278873 0.281938
0.281146 0.279230 0.282298
0.281504 0.279588 0.282657
0.281862 0.279944 0.283016
0.282220 0.280301 0.283375
0.282577 0.280657 0.283733
0.282934 0.281013 0.284091
0.283291 0.281368 0.284448
0.283647 0.281723 0.284805
0.284003 0.282078 0.285162
0.284359 0.282433 0.285518
0.284714 0.282787 0.285874
0.285069 0.283140 0.286230
0.285424 0.283494 0.286585
0.285778 0.283846 0.286940
0.286132 0.284199 0.287294
0.286485 0.284551 0.287649
0.286838 0.284903 0.288002
0.287191 0.285255 0.288356
0.287544 0.285606 0.288709
0.287896 0.285957 0.289062
0.288247 0.286308 0.289414
0.288599 0.286658 0.289766
0.288950 0.287008 0.290118
0.289301 0.287357 0.290470
0.289651 0.287707 0.290821
0.290001 0.288056 0.291171
0.290351 0.288404 0.291522
0.290700 0.288753 0.291872
0.291049 0.289100 0.292222
0.291398 0.289448 0.292571
0.291746 0.289795 0.292920
0.292095 0.290142 0.293269
0.292442 0.290489 0.293617
0.292790 0.290835 0.293965
0.293137 0.291181 0.294313
0.293484 0.291527 0.294661
0.293830 0.291872 0.295008
0.294176 0.292218 0.295355
0.294522 0.292562 0.295701
0.294868 0.292907 0.296047
0.295213 0.293251 0.296393
0.295558 0.293595 0.296739
0.295902 0.293938 0.297084
0.296247 0.294281 0.297429
0.296591 0.294624 0.297773
0.296934 0.294967 0.298118
0.297278 0.295309 0.298462
0.297621 0.295651 0.298805
0.297963 0.295993 0.299149
0.298306 0.296334 0.299492
0.298648 0.296675 0.299834
0.298990 0.297016 0.300177
0.299331 0.297357 0.300519
0.299673 0.297697 0.300861
0.300014 0.298037 0.301202
0.300354 0.298377 0.301544
0.300695 0.298716 0.301885
0.301035 0.299055 0.302225
0.301374 0.299394 0.302566
0.301714 0.299732 0.302906
0.302053 0.300070 0.303245
0.302392 0.300408 0.303585
0.302730 0.300746 0.303924
0.303069 0.301083 0.304263
0.303407 0.301420 0.304602
0.303745 0.301757 0.304940
0.304082 0.302093 0.305278
0.304419 0.302430 0.305616
0.304756 0.302766 0.305953
0.305093 0.303101 0.306290
0.305429 0.303437 0.306627
0.305765 0.303772 0.306964
0.306101 0.304106 0.307300
0.306436 0.304441 0.307636
0.306772 0.304775 0.307972
0.307106 0.305109 0.308307
0.307441 0.305443 0.308643
0.307776 0.305776 0.308978
0.308110 0.306110 0.309312
0.308444 0.306443 0.309647
0.308777 0.306775 0.309981
0.309110 0.307108 0.310315
0.309443 0.307440 0.310648
0.309776 0.307772 0.310982
0.310109 0.308103 0.311315
0.310441 0.308435 0.311648
0.310773 0.308766 0.311980
0.311105 0.309097 0.312312
0.311436 0.309427 0.312644
0.311767 0.309758 0.312976
0.312098 0.310088 0.313308
0.312429 0.310417 0.313639
0.312760 0.310747 0.313970
0.313090 0.311076 0.314300
0.313420 0.311405 0.314631
0.313749 0.311734 0.314961
0.314079 0.312063 0.315291
0.314408 0.312391 0.315621
0.314737 0.312719 0.315950
0.315066 0.313047 0.316279
0.315394 0.313374 0.316608
0.315722 0.313702 0.316937
0.316050 0.314029 0.317265
0.316378 0.314356 0.317593
0.316705 0.314682 0.317921
0.317032 0.315009 0.318249
0.317359 0.315335 0.318576
0.317686 0.315661 0.318904
0.318012 0.315986 0.319231
0.318339 0.316312 0.319557
0.318665 0.316637 0.319884
0.318990 0.316962 0.320210
0.319316 0.317286 0.320536
0.319641 0.317611 0.320862
0.319966 0.317935 0.321187
0.320291 0.318259 0.321512
0.320615 0.318583 0.321838
0.320940 0.318906 0.322162
0.321264 0.319229 0.322487
0.321588 0.319552 0.322811
0.321911 0.319875 0.323135
0.322235 0.320198 0.323459
0.322558 0.320520 0.323783
0.322881 0.320842 0.324106
0.323203 0.321164 0.324429
0.323526 0.321486 0.324752
0.323848 0.321807 0.325075
0.324170 0.322129 0.325397
0.324492 0.322450 0.325720
0.324813 0.322770 0.326042
0.325135 0.323091 0.326363
0.325456 0.323411 0.326685
0.325777 0.323732 0.327006
0.326097 0.324051 0.327327
0.326418 0.324371 0.327648
0.326738 0.324691 0.327969
0.327058 0.325010 0.328289
0.327378 0.325329 0.328610
0.327698 0.325648 0.328930
0.328017 0.325966 0.329250
0.328336 0.326285 0.329569
0.328655 0.326603 0.329888
0.328974 0.326921 0.330208
0.329292 0.327239 0.330527
0.329611 0.327556 0.330845
0.329929 0.327874 0.331164
0.330246 0.328191 0.331482
0.330564 0.328508 0.331800
0.330882 0.328824 0.332118
0.331199 0.329141 0.332436
0.331516 0.329457 0.332753
0.331833 0.329773 0.333070
0.332149 0.330089 0.333387
0.332466 0.330405 0.333704
0.332782 0.330720 0.334021
0.333098 0.331036 0.334337
0.333414 0.331351 0.334654
0.333729 0.331666 0.334970
0.334045 0.331980 0.335285
0.334360 0.332295 0.335601
0.334675 0.332609 0.335916
0.334990 0.332923 0.336232
0.335304 0.333237 0.336547
