tools/resolve/luts/NIRO Grading/Taxodia 09.26/C0251_e+2.18_r+0.11_b-0.09.cube
TITLE "NIRO BALANCE C0251 e +2.18 R +0.11 B -0.09 (lineare Verstaerkung S-Log3)"
LUT_1D_SIZE 4096
0.000000 0.000000 0.000000
0.000000 0.000000 0.000000
0.000000 0.000000 0.000000
0.000000 0.000000 0.000000
0.000000 0.000000 0.000000
0.000000 0.000000 0.000000
0.000000 0.000000 0.000000
0.000000 0.000000 0.000000
0.000000 0.000000 0.000000
0.000000 0.000000 0.000000
0.000000 0.000000 0.000000
0.000000 0.000000 0.000000
0.000000 0.000000 0.000000
0.000000 0.000000 0.000000
0.000000 0.000000 0.000000
0.000000 0.000000 0.000000
0.000000 0.000000 0.000000
0.000000 0.000000 0.000000
0.000000 0.000000 0.000000
0.000000 0.000000 0.000000
0.000000 0.000000 0.000000
0.000000 0.000000 0.000000
0.000000 0.000000 0.000000
0.000000 0.000000 0.000000
0.000000 0.000000 0.000000
0.000000 0.000000 0.000000
0.000000 0.000000 0.000000
0.000000 0.000000 0.000000
0.000000 0.000000 0.000000
0.000000 0.000000 0.000000
0.000000 0.000000 0.000000
0.000000 0.000000 0.000000
0.000000 0.000000 0.000000
0.000000 0.000000 0.000000
0.000000 0.000000 0.000000
0.000000 0.000000 0.000000
0.000000 0.000000 0.000000
0.000000 0.000000 0.000000
0.000000 0.000000 0.000000
0.000000 0.000000 0.000000
0.000000 0.000000 0.000000
0.000000 0.000000 0.000000
0.000000 0.000000 0.000000
0.000000 0.000000 0.000000
0.000000 0.000000 0.000000
0.000000 0.000000 0.000000
0.000000 0.000000 0.000000
0.000000 0.000000 0.000000
0.000000 0.000000 0.000000
0.000000 0.000000 0.000000
0.000000 0.000000 0.000000
0.000000 0.000000 0.000000
0.000000 0.000000 0.000000
0.000000 0.000000 0.000000
0.000000 0.000000 0.000000
0.000000 0.000000 0.000000
0.000000 0.000000 0.000000
0.000000 0.000000 0.000000
0.000000 0.000000 0.000000
0.000000 0.000000 0.000000
0.000000 0.000000 0.000000
0.000000 0.000000 0.000000
0.000000 0.000000 0.000000
0.000000 0.000000 0.000000
0.000000 0.000000 0.000000
0.000000 0.000000 0.000000
0.000000 0.000000 0.000000
0.000000 0.000000 0.000000
0.000000 0.000000 0.000000
0.000000 0.000000 0.000000
0.000000 0.000000 0.000000
0.000000 0.000000 0.000000
0.000000 0.000000 0.000000
0.000000 0.000000 0.000000
0.000000 0.000000 0.000000
0.000000 0.000000 0.000000
0.000000 0.000000 0.000000
0.000000 0.000000 0.000000
0.000000 0.000000 0.000000
0.000000 0.000000 0.000000
0.000000 0.000000 0.000000
0.000000 0.000000 0.000000
0.000000 0.000000 0.000000
0.000000 0.000000 0.000000
0.000000 0.000000 0.000000
0.000000 0.000000 0.000000
0.000000 0.000000 0.000000
0.000000 0.000000 0.000000
0.000000 0.000000 0.000000
0.000000 0.000000 0.000000
0.000000 0.000000 0.000000
0.000000 0.000000 0.000000
0.000000 0.000000 0.000000
0.000000 0.000000 0.000000
0.000000 0.000000 0.000000
0.000000 0.000000 0.000000
0.000000 0.000000 0.000000
0.000000 0.000000 0.000000
0.000000 0.000000 0.000000
0.000000 0.000000 0.000000
0.000000 0.000000 0.000000
0.000000 0.000000 0.000000
0.000000 0.000000 0.000000
0.000000 0.000000 0.000000
0.000000 0.000000 0.000000
0.000000 0.000000 0.000000
0.000000 0.000000 0.000000
0.000000 0.000000 0.000000
0.000000 0.000000 0.000000
0.000000 0.000000 0.000000
0.000000 0.000000 0.000000
0.000000 0.000000 0.000000
0.000000 0.000000 0.000000
0.000000 0.000000 0.000000
0.000000 0.000000 0.000000
0.000000 0.000000 0.000000
0.000000 0.000000 0.000000
0.000000 0.000000 0.000000
0.000000 0.000000 0.000000
0.000000 0.000000 0.000000
0.000000 0.000000 0.000000
0.000000 0.000000 0.000000
0.000000 0.000000 0.000000
0.000000 0.000000 0.000000
0.000000 0.000000 0.000000
0.000000 0.000000 0.000000
0.000000 0.000000 0.000000
0.000000 0.000000 0.000000
0.000000 0.000000 0.000000
0.000000 0.000000 0.000000
0.000000 0.000000 0.000000
0.000000 0.000000 0.000000
0.000000 0.000000 0.000000
0.000000 0.000000 0.000000
0.000000 0.000000 0.000000
0.000000 0.000000 0.000000
0.000000 0.000000 0.000000
0.000000 0.000000 0.000000
0.000000 0.000000 0.000000
0.000000 0.000000 0.000000
0.000000 0.000000 0.000000
0.000000 0.000000 0.000000
0.000000 0.000000 0.000000
0.000000 0.000000 0.000000
0.000000 0.000000 0.000000
0.000000 0.000000 0.000000
0.000000 0.000000 0.000000
0.000000 0.000000 0.000000
0.000000 0.000000 0.000000
0.000000 0.000000 0.000000
0.000000 0.000000 0.000000
0.000000 0.000000 0.000000
0.000000 0.000000 0.000000
0.000000 0.000000 0.000000
0.000000 0.000000 0.000000
0.000000 0.000000 0.000000
0.000000 0.000000 0.000000
0.000000 0.000000 0.000000
0.000000 0.000000 0.000000
0.000000 0.000000 0.000000
0.000000 0.000000 0.000000
0.000000 0.000000 0.000000
0.000000 0.000000 0.000000
0.000000 0.000000 0.000000
0.000000 0.000000 0.000000
0.000000 0.000000 0.000000
0.000000 0.000000 0.000000
0.000000 0.000000 0.000000
0.000000 0.000000 0.000000
0.000000 0.000000 0.000000
0.000000 0.000000 0.000000
0.000000 0.000000 0.000000
0.000000 0.000000 0.000000
0.000000 0.000000 0.000000
0.000000 0.000000 0.000000
0.000000 0.000000 0.000000
0.000000 0.000000 0.000000
0.000000 0.000000 0.000000
0.000000 0.000000 0.000000
0.000000 0.000000 0.000000
0.000000 0.000000 0.000000
0.000000 0.000000 0.000000
0.000000 0.000000 0.000000
0.000000 0.000000 0.000000
0.000000 0.000000 0.000000
0.000000 0.000000 0.000000
0.000000 0.000000 0.000000
0.000000 0.000000 0.000000
0.000000 0.000000 0.000000
0.000000 0.000000 0.000000
0.000000 0.000000 0.000000
0.000000 0.000000 0.000000
0.000000 0.000000 0.000000
0.000000 0.000000 0.000000
0.000000 0.000000 0.000000
0.000000 0.000000 0.000000
0.000000 0.000000 0.000000
0.000000 0.000000 0.000000
0.000000 0.000000 0.000000
0.000000 0.000000 0.000000
0.000000 0.000000 0.000000
0.000000 0.000000 0.000000
0.000000 0.000000 0.000000
0.000000 0.000000 0.000000
0.000000 0.000000 0.000000
0.000000 0.000000 0.000000
0.000000 0.000000 0.000000
0.000000 0.000000 0.000000
0.000000 0.000000 0.000000
0.000000 0.000000 0.000000
0.000000 0.000000 0.000000
0.000000 0.000000 0.000000
0.000000 0.000000 0.000000
0.000000 0.000000 0.000000
0.000000 0.000000 0.000000
0.000000 0.000000 0.000000
0.000000 0.000000 0.000000
0.000000 0.000000 0.000000
0.000000 0.000000 0.000000
0.000000 0.000000 0.000000
0.000000 0.000000 0.000000
0.000000 0.000000 0.000000
0.000000 0.000000 0.000000
0.000000 0.000000 0.000000
0.000000 0.000000 0.000000
0.000000 0.000000 0.000000
0.000000 0.000000 0.000000
0.000000 0.000000 0.000000
0.000000 0.000000 0.000000
0.000000 0.000000 0.000000
0.000000 0.000000 0.000000
0.000000 0.000000 0.000000
0.000000 0.000000 0.000000
0.000000 0.000000 0.000000
0.000000 0.000000 0.000000
0.000000 0.000000 0.000000
0.000000 0.000000 0.000000
0.000000 0.000000 0.000000
0.000000 0.000000 0.000000
0.000000 0.000000 0.000000
0.000000 0.000000 0.000000
0.000000 0.000000 0.000000
0.000000 0.000000 0.000000
0.000000 0.000000 0.000000
0.000000 0.000000 0.000000
0.000000 0.000000 0.000000
0.000000 0.000000 0.000000
0.000000 0.000000 0.000000
0.000000 0.000000 0.000000
0.000000 0.000000 0.000000
0.000000 0.000000 0.000000
0.000000 0.000000 0.000000
0.000000 0.000000 0.000000
0.000000 0.000000 0.000000
0.000000 0.000000 0.000000
0.000000 0.000000 0.000000
0.000000 0.000000 0.000000
0.000000 0.000000 0.000000
0.000000 0.000000 0.000000
0.000000 0.000000 0.000000
0.000000 0.000000 0.000000
0.000000 0.000000 0.000000
0.000000 0.000000 0.000000
0.000000 0.000000 0.000000
0.000000 0.000000 0.000000
0.000000 0.000000 0.000000
0.000000 0.000000 0.000000
0.000000 0.000000 0.000000
0.000000 0.000000 0.000000
0.000000 0.000000 0.000000
0.000000 0.000000 0.000000
0.000000 0.000000 0.000000
0.000000 0.000000 0.000000
0.000000 0.000000 0.000000
0.000000 0.000000 0.000000
0.000000 0.000000 0.000000
0.000000 0.000000 0.000000
0.000000 0.000000 0.000000
0.000000 0.000000 0.000000
0.000000 0.000000 0.000000
0.000000 0.000000 0.000000
0.000000 0.000000 0.000000
0.000000 0.000000 0.000000
0.000000 0.000000 0.000000
0.000000 0.000000 0.000000
0.000000 0.000000 0.000000
0.000000 0.000000 0.000000
0.000000 0.000000 0.000000
0.000000 0.000000 0.000000
0.000000 0.000000 0.000000
0.000000 0.000000 0.000000
0.000000 0.000000 0.000000
0.000000 0.000000 0.000892
0.000000 0.000000 0.001934
0.000000 0.000000 0.002975
0.000000 0.000000 0.004017
0.000000 0.000000 0.005059
0.000000 0.000772 0.006101
0.000000 0.001878 0.007143
0.000000 0.002983 0.008185
0.000000 0.004089 0.009227
0.000000 0.005195 0.010268
0.000000 0.006301 0.011310
0.000572 0.007407 0.012352
0.001766 0.008513 0.013394
0.002961 0.009618 0.014436
0.004155 0.010724 0.015478
0.005349 0.011830 0.016519
0.006544 0.012936 0.017561
0.007738 0.014042 0.018603
0.008932 0.015148 0.019645
0.010126 0.016253 0.020687
0.011321 0.017359 0.021729
0.012515 0.018465 0.022770
0.013709 0.019571 0.023812
0.014903 0.020677 0.024854
0.016098 0.021783 0.025896
0.017292 0.022888 0.026938
0.018486 0.023994 0.027980
0.019681 0.025100 0.029022
0.020875 0.026206 0.030063
0.022069 0.027312 0.031105
0.023263 0.028418 0.032147
0.024458 0.029523 0.033189
0.025652 0.030629 0.034231
0.026846 0.031735 0.035273
0.028040 0.032841 0.036314
0.029235 0.033947 0.037356
0.030429 0.035053 0.038398
0.031623 0.036158 0.039440
0.032818 0.037264 0.040482
0.034012 0.038370 0.041524
0.035206 0.039476 0.042565
0.036400 0.040582 0.043607
0.037595 0.041688 0.044649
0.038789 0.042793 0.045691
0.039983 0.043899 0.046733
0.041178 0.045005 0.047775
0.042372 0.046111 0.048817
0.043566 0.047217 0.049858
0.044760 0.048323 0.050900
0.045955 0.049428 0.051942
0.047149 0.050534 0.052984
0.048343 0.051640 0.054026
0.049537 0.052746 0.055068
0.050732 0.053852 0.056109
0.051926 0.054958 0.057151
0.053120 0.056063 0.058193
0.054315 0.057169 0.059235
0.055509 0.058275 0.060277
0.056703 0.059381 0.061319
0.057897 0.060487 0.062360
0.059092 0.061593 0.063402
0.060286 0.062698 0.064444
0.061480 0.063804 0.065486
0.062675 0.064910 0.066528
0.063869 0.066016 0.067570
0.065063 0.067122 0.068612
0.066257 0.068228 0.069653
0.067452 0.069334 0.070695
0.068646 0.070439 0.071737
0.069840 0.071545 0.072779
0.071034 0.072651 0.073821
0.072229 0.073757 0.074863
0.073423 0.074863 0.075904
0.074617 0.075969 0.076946
0.075812 0.077074 0.077988
0.077006 0.078180 0.079030
0.078200 0.079286 0.080072
0.079394 0.080392 0.081114
0.080589 0.081498 0.082155
0.081783 0.082604 0.083197
0.082977 0.083709 0.084239
0.084171 0.084815 0.085281
0.085366 0.085921 0.086323
0.086560 0.087027 0.087365
0.087754 0.088133 0.088407
0.088949 0.089239 0.089448
0.090143 0.090344 0.090490
0.091337 0.091450 0.091532
0.092531 0.092556 0.092574
0.093726 0.093662 0.093616
0.094920 0.094768 0.094658
0.096114 0.095874 0.095699
0.097309 0.096979 0.096741
0.098503 0.098085 0.097783
0.099697 0.099191 0.098825
0.100891 0.100297 0.099867
0.102086 0.101403 0.100909
0.103280 0.102509 0.101950
0.104474 0.103614 0.102992
0.105668 0.104720 0.104034
0.106863 0.105826 0.105076
0.108057 0.106932 0.106118
0.109251 0.108038 0.107160
0.110446 0.109144 0.108202
0.111640 0.110249 0.109243
0.112834 0.111355 0.110285
0.114028 0.112461 0.111327
0.115223 0.113567 0.112369
0.116417 0.114673 0.113411
0.117611 0.115779 0.114453
0.118805 0.116884 0.115494
0.120000 0.117990 0.116536
0.121194 0.119096 0.117578
0.122388 0.120202 0.118620
0.123583 0.121308 0.119662
0.124777 0.122414 0.120704
0.125971 0.123519 0.121745
0.127165 0.124625 0.122787
0.128360 0.125731 0.123829
0.129554 0.126837 0.124871
0.130748 0.127943 0.125913
0.131943 0.129049 0.126955
0.133137 0.130154 0.127997
0.134331 0.131260 0.129038
0.135525 0.132366 0.130080
0.136720 0.133472 0.131122
0.137914 0.134578 0.132164
0.139108 0.135684 0.133206
0.140302 0.136789 0.134248
0.141497 0.137895 0.135289
0.142691 0.139001 0.136331
0.143885 0.140107 0.137373
0.145080 0.141213 0.138415
0.146274 0.142319 0.139457
0.147468 0.143424 0.140499
0.148662 0.144530 0.141540
0.149857 0.145636 0.142582
0.151051 0.146742 0.143624
0.152245 0.147848 0.144666
0.153439 0.148954 0.145708
0.154634 0.150059 0.146750
0.155828 0.151165 0.147792
0.157022 0.152271 0.148833
0.158217 0.153377 0.149875
0.159411 0.154483 0.150917
0.160605 0.155589 0.151959
0.161799 0.156694 0.153001
0.162994 0.157800 0.154043
0.164188 0.158906 0.155084
0.165382 0.160012 0.156126
0.166577 0.161118 0.157168
0.167684 0.162224 0.158210
0.168619 0.163330 0.159252
0.169547 0.164435 0.160294
0.170467 0.165541 0.161335
0.171379 0.166647 0.162377
0.172284 0.167670 0.163419
0.173182 0.168536 0.164461
0.174073 0.169396 0.165503
0.174956 0.170249 0.166545
0.175832 0.171096 0.167539
0.176702 0.171937 0.168356
0.177565 0.172771 0.169168
0.178421 0.173599 0.169974
0.179271 0.174420 0.170774
0.180114 0.175236 0.171568
0.180950 0.176046 0.172356
0.181781 0.176849 0.173139
0.182605 0.177648 0.173917
0.183424 0.178440 0.174689
0.184236 0.179227 0.175456
0.185042 0.180008 0.176217
0.185843 0.180784 0.176974
0.186638 0.181554 0.177725
0.187427 0.182319 0.178471
0.188211 0.183079 0.179212
0.188989 0.183834 0.179948
0.189761 0.184583 0.180680
0.190529 0.185328 0.181407
0.191291 0.186067 0.182128
0.192048 0.186802 0.182846
0.192800 0.187532 0.183558
0.193546 0.188257 0.184266
0.194288 0.188977 0.184970
0.195025 0.189693 0.185669
0.195757 0.190404 0.186364
0.196484 0.191111 0.187054
0.197206 0.191813 0.187741
0.197924 0.192511 0.188423
0.198637 0.193204 0.189100
0.199346 0.193893 0.189774
0.200050 0.194578 0.190444
0.200750 0.195259 0.191109
0.201445 0.195935 0.191771
0.202136 0.196608 0.192429
0.202823 0.197276 0.193083
0.203505 0.197940 0.193733
0.204183 0.198601 0.194379
0.204858 0.199257 0.195022
0.205528 0.199910 0.195660
0.206194 0.200559 0.196296
0.206856 0.201204 0.196927
0.207514 0.201845 0.197555
0.208168 0.202483 0.198179
0.208819 0.203117 0.198800
0.209465 0.203747 0.199418
0.210108 0.204374 0.200032
0.210748 0.204997 0.200643
0.211383 0.205617 0.201250
0.212015 0.206234 0.201854
0.212644 0.206847 0.202455
0.213268 0.207456 0.203053
0.213890 0.208063 0.203647
0.214508 0.208666 0.204238
0.215122 0.209265 0.204826
0.215733 0.209862 0.205411
0.216341 0.210455 0.205993
0.216945 0.211045 0.206572
0.217547 0.211632 0.207148
0.218144 0.212216 0.207721
0.218739 0.212797 0.208291
0.219331 0.213375 0.208858
0.219919 0.213950 0.209422
0.220504 0.214522 0.209983
0.221087 0.215091 0.210542
0.221666 0.215657 0.211097
0.222242 0.216220 0.211650
0.222815 0.216781 0.212200
0.223386 0.217338 0.212748
0.223953 0.217893 0.213293
0.224517 0.218445 0.213835
0.225079 0.218994 0.214374
0.225638 0.219541 0.214911
0.226194 0.220085 0.215445
0.226747 0.220626 0.215977
0.227298 0.221165 0.216506
0.227845 0.221701 0.217033
0.228390 0.222234 0.217557
0.228933 0.222765 0.218079
0.229473 0.223294 0.218598
0.230010 0.223820 0.219115
0.230544 0.224343 0.219629
0.231076 0.224864 0.220142
0.231606 0.225382 0.220651
0.232133 0.225898 0.221159
0.232657 0.226412 0.221664
0.233179 0.226924 0.222167
0.233699 0.227433 0.222667
0.234216 0.227939 0.223166
0.234731 0.228444 0.223662
0.235243 0.228946 0.224156
0.235753 0.229446 0.224647
0.236261 0.229943 0.225137
0.236766 0.230438 0.225624
0.237269 0.230932 0.226109
0.237770 0.231423 0.226592
0.238269 0.231911 0.227074
0.238765 0.232398 0.227552
0.239259 0.232883 0.228029
0.239751 0.233365 0.228504
0.240241 0.233846 0.228977
0.240728 0.234324 0.229448
0.241214 0.234800 0.229917
0.241697 0.235274 0.230384
0.242178 0.235747 0.230849
0.242658 0.236217 0.231312
0.243135 0.236685 0.231773
0.243610 0.237151 0.232232
0.244083 0.237615 0.232689
0.244554 0.238078 0.233144
0.245023 0.238538 0.233598
0.245490 0.238997 0.234050
0.245955 0.239453 0.234499
0.246419 0.239908 0.234948
0.246880 0.240361 0.235394
0.247339 0.240812 0.235838
0.247797 0.241262 0.236281
0.248252 0.241709 0.236722
0.248706 0.242155 0.237161
0.249158 0.242599 0.237598
0.249608 0.243041 0.238034
0.250056 0.243481 0.238468
0.250503 0.243920 0.238900
0.250947 0.244356 0.239331
0.251390 0.244792 0.239760
0.251831 0.245225 0.240187
0.252271 0.245657 0.240613
0.252708 0.246087 0.241037
0.253144 0.246516 0.241460
0.253578 0.246942 0.241881
0.254011 0.247368 0.242300
0.254442 0.247791 0.242718
0.254871 0.248213 0.243134
0.255298 0.248633 0.243548
0.255724 0.249052 0.243961
0.256149 0.249469 0.244373
0.256571 0.249885 0.244783
0.256992 0.250299 0.245191
0.257412 0.250712 0.245598
0.257830 0.251123 0.246004
0.258246 0.251532 0.246408
0.258661 0.251940 0.246810
0.259074 0.252347 0.247211
0.259486 0.252752 0.247611
0.259896 0.253155 0.248009
0.260304 0.253557 0.248406
0.260711 0.253958 0.248801
0.261117 0.254357 0.249195
0.261521 0.254755 0.249588
0.261924 0.255151 0.249979
0.262325 0.255546 0.250369
0.262725 0.255939 0.250757
0.263123 0.256332 0.251144
0.263520 0.256722 0.251530
0.263916 0.257112 0.251915
0.264310 0.257500 0.252298
0.264703 0.257886 0.252680
0.265094 0.258272 0.253060
0.265484 0.258656 0.253439
0.265873 0.259038 0.253817
0.266260 0.259420 0.254194
0.266646 0.259800 0.254569
0.267031 0.260179 0.254943
0.267414 0.260556 0.255316
0.267796 0.260932 0.255687
0.268176 0.261307 0.256058
0.268556 0.261681 0.256427
0.268934 0.262053 0.256795
0.269310 0.262424 0.257161
0.269686 0.262794 0.257527
0.270060 0.263163 0.257891
0.270433 0.263531 0.258254
0.270805 0.263897 0.258616
0.271175 0.264262 0.258977
0.271544 0.264626 0.259336
0.271912 0.264988 0.259695
0.272279 0.265350 0.260052
0.272645 0.265710 0.260408
0.273009 0.266069 0.260763
0.273372 0.266427 0.261117
0.273734 0.266784 0.261469
0.274095 0.267140 0.261821
0.274455 0.267494 0.262171
0.274813 0.267848 0.262521
0.275171 0.268200 0.262869
0.275527 0.268551 0.263216
0.275882 0.268901 0.263562
0.276236 0.269250 0.263907
0.276589 0.269598 0.264251
0.276940 0.269945 0.264594
0.277291 0.270291 0.264936
0.277640 0.270636 0.265276
0.277989 0.270979 0.265616
0.278336 0.271322 0.265955
0.278682 0.271663 0.266293
0.279027 0.272004 0.266629
0.279371 0.272343 0.266965
0.279714 0.272681 0.267299
0.280056 0.273019 0.267633
0.280397 0.273355 0.267966
0.280737 0.273690 0.268297
0.281076 0.274024 0.268628
0.281414 0.274358 0.268957
0.281750 0.274690 0.269286
0.282086 0.275021 0.269614
0.282421 0.275352 0.269940
0.282754 0.275681 0.270266
0.283087 0.276009 0.270591
0.283419 0.276337 0.270915
0.283750 0.276663 0.271238
0.284079 0.276989 0.271560
0.284408 0.277313 0.271881
0.284736 0.277637 0.272201
0.285063 0.277959 0.272520
0.285389 0.278281 0.272839
0.285714 0.278602 0.273156
0.286038 0.278922 0.273472
0.286361 0.279240 0.273788
0.286683 0.279558 0.274103
0.287004 0.279876 0.274416
0.287324 0.280192 0.274729
0.287643 0.280507 0.275041
0.287962 0.280821 0.275353
0.288279 0.281135 0.275663
0.288596 0.281448 0.275972
0.288912 0.281759 0.276281
0.289226 0.282070 0.276588
0.289540 0.282380 0.276895
0.289853 0.282689 0.277201
0.290165 0.282998 0.277507
0.290477 0.283305 0.277811
0.290787 0.283612 0.278114
0.291096 0.283917 0.278417
0.291405 0.284222 0.278719
0.291767 0.284580 0.279073
0.292157 0.284965 0.279454
0.292546 0.285349 0.279835
0.292935 0.285733 0.280215
0.293323 0.286117 0.280595
0.293711 0.286500 0.280974
0.294098 0.286883 0.281353
0.294485 0.287265 0.281731
0.294871 0.287646 0.282109
0.295257 0.288028 0.282487
0.295642 0.288408 0.282864
0.296027 0.288789 0.283241
0.296411 0.289168 0.283617
0.296795 0.289548 0.283992
0.297178 0.289927 0.284368
0.297561 0.290305 0.284742
0.297943 0.290683 0.285117
0.298325 0.291060 0.285491
0.298706 0.291437 0.285864
0.299087 0.291814 0.286237
0.299468 0.292190 0.286610
0.299848 0.292566 0.286982
0.300227 0.292941 0.287354
0.300606 0.293316 0.287725
0.300985 0.293690 0.288096
0.301363 0.294064 0.288467
0.301741 0.294438 0.288837
0.302118 0.294811 0.289206
0.302495 0.295183 0.289576
0.302871 0.295555 0.289944
0.303247 0.295927 0.290313
0.303622 0.296299 0.290681
0.303997 0.296670 0.291048
0.304372 0.297040 0.291416
0.304746 0.297410 0.291782
0.305120 0.297780 0.292149
0.305493 0.298149 0.292515
0.305866 0.298518 0.292880
0.306238 0.298886 0.293246
0.306610 0.299254 0.293610
0.306982 0.299622 0.293975
0.307353 0.299989 0.294339
0.307723 0.300356 0.294702
0.308094 0.300722 0.295066
0.308463 0.301088 0.295428
0.308833 0.301454 0.295791
0.309202 0.301819 0.296153
0.309570 0.302184 0.296514
0.309939 0.302548 0.296876
0.310306 0.302912 0.297237
0.310674 0.303276 0.297597
0.311041 0.303639 0.297957
0.311407 0.304002 0.298317
0.311773 0.304364 0.298677
0.312139 0.304726 0.299036
0.312505 0.305088 0.299394
0.312869 0.305449 0.299752
0.313234 0.305810 0.300110
0.313598 0.306170 0.300468
0.313962 0.306531 0.300825
0.314325 0.306890 0.301182
0.314688 0.307250 0.301538
0.315051 0.307609 0.301895
0.315413 0.307967 0.302250
0.315775 0.308326 0.302606
0.316136 0.308684 0.302961
0.316497 0.309041 0.303315
0.316858 0.309398 0.303670
0.317218 0.309755 0.304024
0.317578 0.310112 0.304377
0.317938 0.310468 0.304731
0.318297 0.310823 0.305084
0.318656 0.311179 0.305436
0.319014 0.311534 0.305788
0.319372 0.311888 0.306140
0.319730 0.312243 0.306492
0.320087 0.312597 0.306843
0.320444 0.312950 0.307194
0.320801 0.313304 0.307544
0.321157 0.313657 0.307895
0.321513 0.314009 0.308245
0.321869 0.314361 0.308594
0.322224 0.314713 0.308943
0.322579 0.315065 0.309292
0.322933 0.315416 0.309641
0.323287 0.315767 0.309989
0.323641 0.316117 0.310337
0.323995 0.316468 0.310684
0.324348 0.316818 0.311032
0.324700 0.317167 0.311379
0.325053 0.317516 0.311725
0.325405 0.317865 0.312072
0.325757 0.318214 0.312418
0.326108 0.318562 0.312763
0.326459 0.318910 0.313109
0.326810 0.319257 0.313454
0.327160 0.319605 0.313798
0.327510 0.319952 0.314143
0.327860 0.320298 0.314487
0.328209 0.320645 0.314831
0.328558 0.320991 0.315174
0.328907 0.321336 0.315517
0.329255 0.321682 0.315860
0.329603 0.322027 0.316203
0.329951 0.322371 0.316545
0.330298 0.322716 0.316887
0.330645 0.323060 0.317229
0.330992 0.323404 0.317570
0.331339 0.323747 0.317911
0.331685 0.324090 0.318252
0.332031 0.324433 0.318592
0.332376 0.324776 0.318932
0.332721 0.325118 0.319272
0.333066 0.325460 0.319612
0.333411 0.325801 0.319951
0.333755 0.326143 0.320290
0.334099 0.326484 0.320629
0.334442 0.326825 0.320967
0.334786 0.327165 0.321306
0.335129 0.327505 0.321643
0.335471 0.327845 0.321981
0.335814 0.328185 0.322318
0.336156 0.328524 0.322655
0.336498 0.328863 0.322992
0.336839 0.329202 0.323328
0.337180 0.329540 0.323665
0.337521 0.329878 0.324000
0.337862 0.330216 0.324336
0.338202 0.330554 0.324671
0.338542 0.330891 0.325007
0.338882 0.331228 0.325341
0.339221 0.331565 0.325676
0.339560 0.331901 0.326010
0.339899 0.332237 0.326344
0.340238 0.332573 0.326678
0.340576 0.332909 0.327011
0.340914 0.333244 0.327344
0.341252 0.333579 0.327677
0.341589 0.333914 0.328010
0.341926 0.334249 0.328342
0.342263 0.334583 0.328674
0.342600 0.334917 0.329006
0.342936 0.335250 0.329338
0.343272 0.335584 0.329669
0.343608 0.335917 0.330000
0.343943 0.336250 0.330331
0.344278 0.336583 0.330662
0.344613 0.336915 0.330992
0.344948 0.337247 0.331322
0.345282 0.337579 0.331652
0.345616 0.337910 0.331981
0.345950 0.338242 0.332310
0.346284 0.338573 0.332639
0.346617 0.338904 0.332968
0.346950 0.339234 0.333297
0.347283 0.339565 0.333625
0.347615 0.339895 0.333953
0.347947 0.340224 0.334281
0.348279 0.340554 0.334608
0.348611 0.340883 0.334936
0.348942 0.341212 0.335263
0.349274 0.341541 0.335590
0.349605 0.341869 0.335916
0.349935 0.342198 0.336242
0.350266 0.342526 0.336568
0.350596 0.342853 0.336894
0.350926 0.343181 0.337220
0.351255 0.343508 0.337545
0.351585 0.343835 0.337870
0.351914 0.344162 0.338195
0.352243 0.344489 0.338520
0.352571 0.344815 0.338844
0.352900 0.345141 0.339168
0.353228 0.345467 0.339492
0.353556 0.345792 0.339816
0.353883 0.346118 0.340140
0.354211 0.346443 0.340463
0.354538 0.346768 0.340786
0.354865 0.347092 0.341109
0.355191 0.347417 0.341431
0.355518 0.347741 0.341754
0.355844 0.348065 0.342076
0.356170 0.348389 0.342398
0.356496 0.348712 0.342719
0.356821 0.349035 0.343041
0.357146 0.349358 0.343362
0.357471 0.349681 0.343683
0.357796 0.350004 0.344004
0.358121 0.350326 0.344324
0.358445 0.350648 0.344645
0.358769 0.350970 0.344965
0.359093 0.351292 0.345284
0.359416 0.351613 0.345604
0.359740 0.351934 0.345924
0.360063 0.352255 0.346243
0.360386 0.352576 0.346562
0.360708 0.352897 0.346881
0.361031 0.353217 0.347199
0.361353 0.353537 0.347518
