tools/resolve/luts/NIRO Grading/Taxodia 09.26/C0262_e+1.30_r+0.02_b-0.10.cube
TITLE "NIRO BALANCE C0262 e +1.30 R +0.02 B -0.10 (lineare Verstaerkung S-Log3)"
LUT_1D_SIZE 4096
0.000000 0.000000 0.000000
0.000000 0.000000 0.000000
0.000000 0.000000 0.000000
0.000000 0.000000 0.000000
0.000000 0.000000 0.000000
0.000000 0.000000 0.000000
0.000000 0.000000 0.000000
0.000000 0.000000 0.000000
0.000000 0.000000 0.000000
0.000000 0.000000 0.000000
0.000000 0.000000 0.000000
0.000000 0.000000 0.000000
0.000000 0.000000 0.000000
0.000000 0.000000 0.000000
0.000000 0.000000 0.000000
0.000000 0.000000 0.000000
0.000000 0.000000 0.000000
0.000000 0.000000 0.000000
0.000000 0.000000 0.000000
0.000000 0.000000 0.000000
0.000000 0.000000 0.000000
0.000000 0.000000 0.000000
0.000000 0.000000 0.000000
0.000000 0.000000 0.000000
0.000000 0.000000 0.000000
0.000000 0.000000 0.000000
0.000000 0.000000 0.000000
0.000000 0.000000 0.000000
0.000000 0.000000 0.000000
0.000000 0.000000 0.000000
0.000000 0.000000 0.000000
0.000000 0.000000 0.000000
0.000000 0.000000 0.000000
0.000000 0.000000 0.000000
0.000000 0.000000 0.000000
0.000000 0.000000 0.000000
0.000000 0.000000 0.000000
0.000000 0.000000 0.000000
0.000000 0.000000 0.000000
0.000000 0.000000 0.000000
0.000000 0.000000 0.000000
0.000000 0.000000 0.000000
0.000000 0.000000 0.000000
0.000000 0.000000 0.000000
0.000000 0.000000 0.000000
0.000000 0.000000 0.000000
0.000000 0.000000 0.000000
0.000000 0.000000 0.000000
0.000000 0.000000 0.000000
0.000000 0.000000 0.000000
0.000000 0.000000 0.000000
0.000000 0.000000 0.000000
0.000000 0.000000 0.000000
0.000000 0.000000 0.000000
0.000000 0.000000 0.000000
0.000000 0.000000 0.000000
0.000000 0.000000 0.000000
0.000000 0.000000 0.000000
0.000000 0.000000 0.000000
0.000000 0.000000 0.000000
0.000000 0.000000 0.000000
0.000000 0.000000 0.000000
0.000000 0.000000 0.000000
0.000000 0.000000 0.000000
0.000000 0.000000 0.000000
0.000000 0.000000 0.000000
0.000000 0.000000 0.000000
0.000000 0.000000 0.000000
0.000000 0.000000 0.000000
0.000000 0.000000 0.000000
0.000000 0.000000 0.000000
0.000000 0.000000 0.000000
0.000000 0.000000 0.000000
0.000000 0.000000 0.000000
0.000000 0.000000 0.000000
0.000000 0.000000 0.000000
0.000000 0.000000 0.000000
0.000000 0.000000 0.000000
0.000000 0.000000 0.000000
0.000000 0.000000 0.000000
0.000000 0.000000 0.000000
0.000000 0.000000 0.000000
0.000000 0.000000 0.000000
0.000000 0.000000 0.000000
0.000000 0.000000 0.000000
0.000000 0.000000 0.000000
0.000000 0.000000 0.000000
0.000000 0.000000 0.000000
0.000000 0.000000 0.000000
0.000000 0.000000 0.000000
0.000000 0.000000 0.000000
0.000000 0.000000 0.000000
0.000000 0.000000 0.000000
0.000000 0.000000 0.000000
0.000000 0.000000 0.000000
0.000000 0.000000 0.000000
0.000000 0.000000 0.000000
0.000000 0.000000 0.000000
0.000000 0.000000 0.000000
0.000000 0.000000 0.000000
0.000000 0.000000 0.000000
0.000000 0.000000 0.000000
0.000000 0.000000 0.000000
0.000000 0.000000 0.000000
0.000000 0.000000 0.000000
0.000000 0.000000 0.000000
0.000000 0.000000 0.000000
0.000000 0.000000 0.000000
0.000000 0.000000 0.000000
0.000000 0.000000 0.000000
0.000000 0.000000 0.000000
0.000000 0.000000 0.000000
0.000000 0.000000 0.000000
0.000000 0.000000 0.000000
0.000000 0.000000 0.000000
0.000000 0.000000 0.000000
0.000000 0.000000 0.000000
0.000000 0.000000 0.000000
0.000000 0.000000 0.000000
0.000000 0.000000 0.000000
0.000000 0.000000 0.000000
0.000000 0.000000 0.000000
0.000000 0.000000 0.000000
0.000000 0.000000 0.000000
0.000000 0.000000 0.000000
0.000000 0.000000 0.000000
0.000000 0.000000 0.000000
0.000000 0.000000 0.000000
0.000000 0.000000 0.000000
0.000000 0.000000 0.000000
0.000000 0.000000 0.000000
0.000000 0.000000 0.000000
0.000000 0.000000 0.000000
0.000000 0.000000 0.000000
0.000000 0.000000 0.000000
0.000000 0.000000 0.000000
0.000000 0.000000 0.000000
0.000000 0.000000 0.000000
0.000000 0.000000 0.000000
0.000000 0.000000 0.000000
0.000000 0.000000 0.000000
0.000000 0.000000 0.000000
0.000000 0.000000 0.000000
0.000000 0.000000 0.000000
0.000000 0.000000 0.000000
0.000000 0.000000 0.000000
0.000000 0.000000 0.000000
0.000000 0.000000 0.000000
0.000000 0.000000 0.000000
0.000000 0.000000 0.000000
0.000000 0.000000 0.000000
0.000000 0.000000 0.000000
0.000000 0.000000 0.000000
0.000000 0.000000 0.000000
0.000000 0.000000 0.000000
0.000000 0.000000 0.000000
0.000000 0.000000 0.000000
0.000000 0.000000 0.000000
0.000000 0.000000 0.000000
0.000000 0.000000 0.000000
0.000000 0.000000 0.000000
0.000000 0.000000 0.000000
0.000000 0.000000 0.000000
0.000000 0.000000 0.000000
0.000000 0.000000 0.000000
0.000000 0.000000 0.000000
0.000000 0.000000 0.000000
0.000000 0.000000 0.000000
0.000000 0.000000 0.000000
0.000000 0.000000 0.000000
0.000000 0.000000 0.000000
0.000000 0.000000 0.000000
0.000000 0.000000 0.000000
0.000000 0.000000 0.000000
0.000000 0.000000 0.000000
0.000000 0.000000 0.000000
0.000000 0.000000 0.000000
0.000000 0.000000 0.000000
0.000000 0.000000 0.000000
0.000000 0.000000 0.000000
0.000000 0.000000 0.000000
0.000000 0.000000 0.000000
0.000000 0.000000 0.000000
0.000000 0.000000 0.000000
0.000000 0.000000 0.000000
0.000000 0.000000 0.000000
0.000000 0.000000 0.000000
0.000000 0.000000 0.000000
0.000000 0.000000 0.000000
0.000000 0.000000 0.000000
0.000000 0.000000 0.000000
0.000000 0.000000 0.000000
0.000000 0.000000 0.000000
0.000000 0.000000 0.000000
0.000000 0.000000 0.000000
0.000000 0.000000 0.000000
0.000000 0.000000 0.000000
0.000000 0.000000 0.000000
0.000000 0.000000 0.000000
0.000000 0.000000 0.000000
0.000000 0.000000 0.000000
0.000000 0.000000 0.000000
0.000000 0.000000 0.000000
0.000000 0.000000 0.000000
0.000000 0.000000 0.000000
0.000000 0.000000 0.000000
0.000000 0.000000 0.000000
0.000000 0.000000 0.000000
0.000000 0.000000 0.000000
0.000000 0.000000 0.000000
0.000000 0.000000 0.000000
0.000000 0.000000 0.000000
0.000000 0.000000 0.000000
0.000000 0.000000 0.000000
0.000000 0.000000 0.000000
0.000000 0.000000 0.000010
0.000000 0.000000 0.000572
0.000000 0.000000 0.001134
0.000000 0.000000 0.001696
0.000000 0.000000 0.002257
0.000000 0.000000 0.002819
0.000000 0.000000 0.003381
0.000000 0.000000 0.003943
0.000000 0.000000 0.004505
0.000000 0.000000 0.005066
0.000000 0.000000 0.005628
0.000000 0.000162 0.006190
0.000000 0.000763 0.006752
0.000215 0.001364 0.007314
0.000823 0.001965 0.007875
0.001432 0.002565 0.008437
0.002040 0.003166 0.008999
0.002649 0.003767 0.009561
0.003257 0.004368 0.010123
0.003865 0.004969 0.010684
0.004474 0.005570 0.011246
0.005082 0.006171 0.011808
0.005691 0.006772 0.012370
0.006299 0.007372 0.012932
0.006908 0.007973 0.013493
0.007516 0.008574 0.014055
0.008124 0.009175 0.014617
0.008733 0.009776 0.015179
0.009341 0.010377 0.015741
0.009950 0.010978 0.016302
0.010558 0.011579 0.016864
0.011167 0.012179 0.017426
0.011775 0.012780 0.017988
0.012383 0.013381 0.018550
0.012992 0.013982 0.019111
0.013600 0.014583 0.019673
0.014209 0.015184 0.020235
0.014817 0.015785 0.020797
0.015425 0.016386 0.021359
0.016034 0.016986 0.021920
0.016642 0.017587 0.022482
0.017251 0.018188 0.023044
0.017859 0.018789 0.023606
0.018468 0.019390 0.024168
0.019076 0.019991 0.024729
0.019684 0.020592 0.025291
0.020293 0.021193 0.025853
0.020901 0.021793 0.026415
0.021510 0.022394 0.026977
0.022118 0.022995 0.027538
0.022726 0.023596 0.028100
0.023335 0.024197 0.028662
0.023943 0.024798 0.029224
0.024552 0.025399 0.029786
0.025160 0.026000 0.030347
0.025769 0.026600 0.030909
0.026377 0.027201 0.031471
0.026985 0.027802 0.032033
0.027594 0.028403 0.032595
0.028202 0.029004 0.033156
0.028811 0.029605 0.033718
0.029419 0.030206 0.034280
0.030027 0.030807 0.034842
0.030636 0.031407 0.035404
0.031244 0.032008 0.035965
0.031853 0.032609 0.036527
0.032461 0.033210 0.037089
0.033070 0.033811 0.037651
0.033678 0.034412 0.038213
0.034286 0.035013 0.038775
0.034895 0.035614 0.039336
0.035503 0.036214 0.039898
0.036112 0.036815 0.040460
0.036720 0.037416 0.041022
0.037329 0.038017 0.041584
0.037937 0.038618 0.042145
0.038545 0.039219 0.042707
0.039154 0.039820 0.043269
0.039762 0.040421 0.043831
0.040371 0.041021 0.044393
0.040979 0.041622 0.044954
0.041587 0.042223 0.045516
0.042196 0.042824 0.046078
0.042804 0.043425 0.046640
0.043413 0.044026 0.047202
0.044021 0.044627 0.047763
0.044630 0.045228 0.048325
0.045238 0.045828 0.048887
0.045846 0.046429 0.049449
0.046455 0.047030 0.050011
0.047063 0.047631 0.050572
0.047672 0.048232 0.051134
0.048280 0.048833 0.051696
0.048888 0.049434 0.052258
0.049497 0.050035 0.052820
0.050105 0.050635 0.053381
0.050714 0.051236 0.053943
0.051322 0.051837 0.054505
0.051931 0.052438 0.055067
0.052539 0.053039 0.055629
0.053147 0.053640 0.056190
0.053756 0.054241 0.056752
0.054364 0.054842 0.057314
0.054973 0.055442 0.057876
0.055581 0.056043 0.058438
0.056189 0.056644 0.058999
0.056798 0.057245 0.059561
0.057406 0.057846 0.060123
0.058015 0.058447 0.060685
0.058623 0.059048 0.061247
0.059232 0.059649 0.061808
0.059840 0.060249 0.062370
0.060448 0.060850 0.062932
0.061057 0.061451 0.063494
0.061665 0.062052 0.064056
0.062274 0.062653 0.064617
0.062882 0.063254 0.065179
0.063491 0.063855 0.065741
0.064099 0.064456 0.066303
0.064707 0.065056 0.066865
0.065316 0.065657 0.067426
0.065924 0.066258 0.067988
0.066533 0.066859 0.068550
0.067141 0.067460 0.069112
0.067749 0.068061 0.069674
0.068358 0.068662 0.070235
0.068966 0.069263 0.070797
0.069575 0.069863 0.071359
0.070183 0.070464 0.071921
0.070792 0.071065 0.072483
0.071400 0.071666 0.073045
0.072008 0.072267 0.073606
0.072617 0.072868 0.074168
0.073225 0.073469 0.074730
0.073834 0.074070 0.075292
0.074442 0.074670 0.075854
0.075050 0.075271 0.076415
0.075659 0.075872 0.076977
0.076267 0.076473 0.077539
0.076876 0.077074 0.078101
0.077484 0.077675 0.078663
0.078093 0.078276 0.079224
0.078701 0.078877 0.079786
0.079309 0.079477 0.080348
0.079918 0.080078 0.080910
0.080526 0.080679 0.081472
0.081135 0.081280 0.082033
0.081743 0.081881 0.082595
0.082352 0.082482 0.083157
0.082960 0.083083 0.083719
0.083568 0.083684 0.084281
0.084177 0.084284 0.084842
0.084785 0.084885 0.085404
0.085394 0.085486 0.085966
0.086002 0.086087 0.086528
0.086610 0.086688 0.087090
0.087219 0.087289 0.087651
0.087827 0.087890 0.088213
0.088436 0.088491 0.088775
0.089044 0.089091 0.089337
0.089653 0.089692 0.089899
0.090261 0.090293 0.090460
0.090869 0.090894 0.091022
0.091478 0.091495 0.091584
0.092086 0.092096 0.092146
0.092695 0.092697 0.092708
0.093303 0.093298 0.093269
0.093911 0.093898 0.093831
0.094520 0.094499 0.094393
0.095128 0.095100 0.094955
0.095737 0.095701 0.095517
0.096345 0.096302 0.096078
0.096954 0.096903 0.096640
0.097562 0.097504 0.097202
0.098170 0.098105 0.097764
0.098779 0.098705 0.098326
0.099387 0.099306 0.098887
0.099996 0.099907 0.099449
0.100604 0.100508 0.100011
0.101212 0.101109 0.100573
0.101821 0.101710 0.101135
0.102429 0.102311 0.101696
0.103038 0.102912 0.102258
0.103646 0.103512 0.102820
0.104255 0.104113 0.103382
0.104863 0.104714 0.103944
0.105471 0.105315 0.104505
0.106080 0.105916 0.105067
0.106688 0.106517 0.105629
0.107297 0.107118 0.106191
0.107905 0.107719 0.106753
0.108514 0.108319 0.107314
0.109122 0.108920 0.107876
0.109730 0.109521 0.108438
0.110339 0.110122 0.109000
0.110947 0.110723 0.109562
0.111556 0.111324 0.110124
0.112164 0.111925 0.110685
0.112772 0.112526 0.111247
0.113381 0.113126 0.111809
0.113989 0.113727 0.112371
0.114598 0.114328 0.112933
0.115206 0.114929 0.113494
0.115815 0.115530 0.114056
0.116423 0.116131 0.114618
0.117031 0.116732 0.115180
0.117640 0.117333 0.115742
0.118248 0.117933 0.116303
0.118857 0.118534 0.116865
0.119465 0.119135 0.117427
0.120073 0.119736 0.117989
0.120682 0.120337 0.118551
0.121290 0.120938 0.119112
0.121899 0.121539 0.119674
0.122507 0.122140 0.120236
0.123116 0.122740 0.120798
0.123724 0.123341 0.121360
0.124332 0.123942 0.121921
0.124941 0.124543 0.122483
0.125549 0.125144 0.123045
0.126158 0.125745 0.123607
0.126766 0.126346 0.124169
0.127374 0.126947 0.124730
0.127983 0.127547 0.125292
0.128591 0.128148 0.125854
0.129200 0.128749 0.126416
0.129808 0.129350 0.126978
0.130417 0.129951 0.127539
0.131025 0.130552 0.128101
0.131633 0.131153 0.128663
0.132242 0.131754 0.129225
0.132850 0.132354 0.129787
0.133459 0.132955 0.130348
0.134067 0.133556 0.130910
0.134676 0.134157 0.131472
0.135284 0.134758 0.132034
0.135892 0.135359 0.132596
0.136501 0.135960 0.133157
0.137109 0.136561 0.133719
0.137718 0.137161 0.134281
0.138326 0.137762 0.134843
0.138934 0.138363 0.135405
0.139543 0.138964 0.135966
0.140151 0.139565 0.136528
0.140760 0.140166 0.137090
0.141368 0.140767 0.137652
0.141977 0.141368 0.138214
0.142585 0.141968 0.138775
0.143193 0.142569 0.139337
0.143802 0.143170 0.139899
0.144410 0.143771 0.140461
0.145019 0.144372 0.141023
0.145627 0.144973 0.141584
0.146235 0.145574 0.142146
0.146844 0.146175 0.142708
0.147452 0.146775 0.143270
0.148061 0.147376 0.143832
0.148669 0.147977 0.144393
0.149278 0.148578 0.144955
0.149886 0.149179 0.145517
0.150494 0.149780 0.146079
0.151103 0.150381 0.146641
0.151711 0.150982 0.147203
0.152320 0.151582 0.147764
0.152928 0.152183 0.148326
0.153537 0.152784 0.148888
0.154145 0.153385 0.149450
0.154753 0.153986 0.150012
0.155362 0.154587 0.150573
0.155970 0.155188 0.151135
0.156579 0.155789 0.151697
0.157187 0.156389 0.152259
0.157795 0.156990 0.152821
0.158404 0.157591 0.153382
0.159012 0.158192 0.153944
0.159621 0.158793 0.154506
0.160229 0.159394 0.155068
0.160838 0.159995 0.155630
0.161446 0.160596 0.156191
0.162054 0.161196 0.156753
0.162663 0.161797 0.157315
0.163271 0.162398 0.157877
0.163880 0.162999 0.158439
0.164488 0.163600 0.159000
0.165096 0.164201 0.159562
0.165705 0.164802 0.160124
0.166313 0.165403 0.160686
0.166922 0.166003 0.161248
0.167494 0.166604 0.161809
0.167973 0.167205 0.162371
0.168449 0.167712 0.162933
0.168923 0.168183 0.163495
0.169396 0.168653 0.164057
0.169866 0.169120 0.164618
0.170334 0.169586 0.165180
0.170801 0.170050 0.165742
0.171265 0.170511 0.166304
0.171727 0.170971 0.166866
0.172188 0.171429 0.167413
0.172647 0.171885 0.167856
0.173103 0.172339 0.168296
0.173558 0.172792 0.168735
0.174011 0.173242 0.169171
0.174462 0.173691 0.169607
0.174912 0.174138 0.170040
0.175359 0.174583 0.170472
0.175805 0.175026 0.170902
0.176249 0.175468 0.171331
0.176691 0.175907 0.171757
0.177132 0.176345 0.172183
0.177570 0.176782 0.172606
0.178007 0.177216 0.173028
0.178442 0.177649 0.173448
0.178876 0.178081 0.173867
0.179308 0.178510 0.174284
0.179738 0.178938 0.174700
0.180167 0.179364 0.175114
0.180593 0.179789 0.175527
0.181019 0.180212 0.175938
0.181442 0.180633 0.176347
0.181864 0.181053 0.176755
0.182285 0.181472 0.177162
0.182704 0.181888 0.177567
0.183121 0.182303 0.177970
0.183537 0.182717 0.178373
0.183951 0.183129 0.178773
0.184363 0.183539 0.179172
0.184774 0.183948 0.179570
0.185184 0.184356 0.179966
0.185592 0.184762 0.180361
0.185998 0.185167 0.180755
0.186404 0.185570 0.181147
0.186807 0.185971 0.181538
0.187209 0.186371 0.181927
0.187610 0.186770 0.182315
0.188009 0.187167 0.182702
0.188407 0.187563 0.183087
0.188803 0.187958 0.183471
0.189198 0.188351 0.183854
0.189592 0.188743 0.184235
0.189984 0.189133 0.184616
0.190375 0.189522 0.184994
0.190764 0.189909 0.185372
0.191153 0.190296 0.185748
0.191539 0.190680 0.186123
0.191925 0.191064 0.186497
0.192309 0.191446 0.186869
0.192691 0.191827 0.187240
0.193073 0.192207 0.187610
0.193453 0.192585 0.187979
0.193832 0.192962 0.188346
0.194209 0.193338 0.188713
0.194586 0.193713 0.189078
0.194961 0.194086 0.189442
0.195334 0.194458 0.189804
0.195707 0.194829 0.190166
0.196078 0.195198 0.190526
0.196448 0.195566 0.190885
0.196817 0.195933 0.191243
0.197184 0.196299 0.191600
0.197550 0.196664 0.191956
0.197916 0.197027 0.192310
0.198280 0.197390 0.192664
0.198642 0.197751 0.193016
0.199004 0.198111 0.193367
0.199364 0.198470 0.193717
0.199723 0.198827 0.194066
0.200081 0.199184 0.194414
0.200438 0.199539 0.194761
0.200794 0.199893 0.195107
0.201149 0.200246 0.195452
0.201502 0.200598 0.195795
0.201854 0.200949 0.196138
0.202206 0.201299 0.196479
0.202556 0.201647 0.196820
0.202905 0.201995 0.197159
0.203253 0.202341 0.197497
0.203600 0.202687 0.197835
0.203945 0.203031 0.198171
0.204290 0.203374 0.198506
0.204634 0.203717 0.198841
0.204976 0.204058 0.199174
0.205318 0.204398 0.199506
0.205658 0.204737 0.199838
0.205998 0.205075 0.200168
0.206336 0.205412 0.200497
0.206674 0.205748 0.200826
0.207010 0.206083 0.201153
0.207345 0.206417 0.201479
0.207680 0.206750 0.201805
0.208013 0.207082 0.202129
0.208345 0.207413 0.202453
0.208677 0.207743 0.202776
0.209007 0.208072 0.203097
0.209336 0.208400 0.203418
0.209665 0.208727 0.203738
0.209992 0.209053 0.204057
0.210319 0.209378 0.204375
0.210644 0.209702 0.204692
0.210969 0.210025 0.205008
0.211292 0.210348 0.205323
0.211615 0.210669 0.205638
0.211937 0.210990 0.205951
0.212257 0.211309 0.206264
0.212577 0.211628 0.206576
0.212896 0.211945 0.206887
0.213214 0.212262 0.207197
0.213531 0.212578 0.207506
0.213848 0.212893 0.207814
0.214163 0.213207 0.208122
0.214477 0.213520 0.208428
0.214791 0.213833 0.208734
0.215104 0.214144 0.209039
0.215415 0.214455 0.209343
0.215726 0.214765 0.209646
0.216036 0.215073 0.209949
0.216345 0.215381 0.210250
0.216654 0.215689 0.210551
0.216961 0.215995 0.210851
0.217268 0.216300 0.211150
0.217574 0.216605 0.211448
0.217879 0.216909 0.211746
0.218183 0.217212 0.212043
0.218486 0.217514 0.212339
0.218788 0.217815 0.212634
0.219090 0.218116 0.212928
0.219391 0.218415 0.213222
0.219691 0.218714 0.213515
0.219990 0.219012 0.213807
0.220288 0.219310 0.214098
0.220586 0.219606 0.214389
0.220883 0.219902 0.214678
0.221179 0.220197 0.214967
0.221474 0.220491 0.215256
0.221768 0.220784 0.215543
0.222062 0.221077 0.215830
0.222355 0.221369 0.216116
0.222647 0.221660 0.216401
0.222938 0.221950 0.216686
0.223229 0.222240 0.216970
0.223519 0.222528 0.217253
0.223808 0.222816 0.217535
0.224096 0.223104 0.217817
0.224384 0.223390 0.218098
0.224670 0.223676 0.218378
0.224956 0.223961 0.218658
0.225242 0.224245 0.218937
0.225526 0.224529 0.219215
0.225810 0.224812 0.219492
0.226093 0.225094 0.219769
0.226376 0.225376 0.220045
0.226658 0.225656 0.220321
0.226939 0.225936 0.220595
0.227219 0.226216 0.220870
0.227499 0.226494 0.221143
0.227777 0.226772 0.221416
0.228056 0.227050 0.221688
0.228333 0.227326 0.221959
0.228610 0.227602 0.222230
0.228886 0.227877 0.222500
0.229161 0.228152 0.222769
0.229436 0.228425 0.223038
0.229710 0.228699 0.223306
0.229984 0.228971 0.223573
0.230256 0.229243 0.223840
0.230528 0.229514 0.224106
0.230800 0.229785 0.224372
0.231071 0.230054 0.224637
0.231341 0.230324 0.224901
0.231610 0.230592 0.225165
0.231879 0.230860 0.225428
0.232194 0.231174 0.225736
0.232534 0.231513 0.226069
0.232873 0.231851 0.226401
0.233212 0.232189 0.226733
0.233551 0.232527 0.227064
0.233889 0.232864 0.227396
0.234228 0.233201 0.227727
0.234566 0.233538 0.228058
0.234903 0.233874 0.228388
0.235240 0.234211 0.228719
0.235578 0.234547 0.229049
0.235914 0.234882 0.229378
0.236251 0.235218 0.229708
0.236587 0.235553 0.230037
0.236923 0.235888 0.230366
0.237259 0.236222 0.230695
0.237594 0.236557 0.231024
0.237929 0.236891 0.231352
0.238264 0.237225 0.231680
0.238598 0.237558 0.232008
0.238933 0.237891 0.232336
0.239267 0.238224 0.232663
0.239601 0.238557 0.232990
0.239934 0.238890 0.233317
0.240267 0.239222 0.233643
0.240600 0.239554 0.233970
0.240933 0.239885 0.234296
0.241265 0.240217 0.234622
0.241597 0.240548 0.234947
0.241929 0.240879 0.235273
0.242261 0.241209 0.235598
0.242592 0.241540 0.235923
0.242923 0.241870 0.236247
0.243254 0.242200 0.236572
0.243585 0.242529 0.236896
0.243915 0.242859 0.237220
0.244245 0.243188 0.237544
0.244575 0.243517 0.237867
0.244905 0.243845 0.238191
0.245234 0.244174 0.238514
0.245563 0.244502 0.238836
0.245892 0.244830 0.239159
0.246220 0.245157 0.239481
0.246549 0.245485 0.239804
0.246877 0.245812 0.240125
0.247205 0.246139 0.240447
0.247532 0.246465 0.240769
0.247859 0.246792 0.241090
0.248187 0.247118 0.241411
0.248513 0.247444 0.241732
0.248840 0.247769 0.242052
0.249166 0.248095 0.242373
0.249492 0.248420 0.242693
0.249818 0.248745 0.243013
0.250144 0.249070 0.243332
0.250469 0.249394 0.243652
0.250794 0.249718 0.243971
0.251119 0.250042 0.244290
0.251444 0.250366 0.244609
0.251769 0.250690 0.244928
0.252093 0.251013 0.245246
0.252417 0.251336 0.245564
0.252740 0.251659 0.245882
0.253064 0.251982 0.246200
0.253387 0.252304 0.246518
0.253710 0.252626 0.246835
0.254033 0.252948 0.247152
0.254356 0.253270 0.247469
0.254678 0.253591 0.247786
0.255000 0.253913 0.248102
0.255322 0.254234 0.248419
0.255644 0.254555 0.248735
0.255965 0.254875 0.249051
0.256287 0.255196 0.249366
0.256608 0.255516 0.249682
0.256928 0.255836 0.249997
0.257249 0.256155 0.250312
0.257569 0.256475 0.250627
0.257890 0.256794 0.250942
0.258209 0.257113 0.251256
0.258529 0.257432 0.251571
0.258849 0.257751 0.251885
0.259168 0.258069 0.252199
0.259487 0.258388 0.252512
0.259806 0.258706 0.252826
0.260124 0.259023 0.253139
0.260443 0.259341 0.253452
0.260761 0.259658 0.253765
0.261079 0.259976 0.254078
0.261397 0.260293 0.254390
0.261714 0.260609 0.254703
0.262032 0.260926 0.255015
0.262349 0.261242 0.255327
0.262666 0.261558 0.255639
0.262983 0.261874 0.255950
0.263299 0.262190 0.256262
0.263615 0.262506 0.256573
0.263932 0.262821 0.256884
0.264247 0.263136 0.257195
0.264563 0.263451 0.257505
0.264879 0.263766 0.257816
0.265194 0.264080 0.258126
0.265509 0.264395 0.258436
0.265824 0.264709 0.258746
0.266139 0.265023 0.259056
0.266453 0.265336 0.259365
0.266767 0.265650 0.259675
0.267082 0.265963 0.259984
0.267395 0.266276 0.260293
0.267709 0.266589 0.260602
0.268023 0.266902 0.260910
0.268336 0.267215 0.261219
0.268649 0.267527 0.261527
0.268962 0.267839 0.261835
0.269275 0.268151 0.262143
0.269587 0.268463 0.262451
0.269900 0.268775 0.262759
0.270212 0.269086 0.263066
0.270524 0.269397 0.263373
0.270836 0.269708 0.263680
0.271147 0.270019 0.263987
0.271459 0.270330 0.264294
0.271770 0.270641 0.264600
0.272081 0.270951 0.264907
0.272392 0.271261 0.265213
0.272702 0.271571 0.265519
0.273013 0.271881 0.265825
0.273323 0.272190 0.266130
0.273633 0.272500 0.266436
0.273943 0.272809 0.266741
0.274253 0.273118 0.267046
0.274562 0.273427 0.267351
0.274872 0.273735 0.267656
0.275181 0.274044 0.267961
0.275490 0.274352 0.268265
0.275799 0.274660 0.268570
0.276107 0.274968 0.268874
0.276416 0.275276 0.269178
0.276724 0.275584 0.269482
0.277032 0.275891 0.269786
0.277340 0.276198 0.270089
0.277648 0.276505 0.270392
0.277956 0.276812 0.270696
0.278263 0.277119 0.270999
0.278570 0.277426 0.271302
0.278877 0.277732 0.271604
0.279184 0.278038 0.271907
0.279491 0.278344 0.272209
0.279797 0.278650 0.272512
0.280104 0.278956 0.272814
0.280410 0.279261 0.273116
0.280716 0.279567 0.273417
0.281022 0.279872 0.273719
0.281327 0.280177 0.274020
0.281633 0.280482 0.274322
0.281938 0.280787 0.274623
0.282244 0.281091 0.274924
0.282549 0.281396 0.275225
0.282853 0.281700 0.275525
0.283158 0.282004 0.275826
0.283463 0.282308 0.276126
0.283767 0.282611 0.276427
0.284071 0.282915 0.276727
0.284375 0.283218 0.277027
0.284679 0.283522 0.277326
0.284983 0.283825 0.277626
0.285286 0.284128 0.277925
0.285590 0.284430 0.278225
0.285893 0.284733 0.278524
0.286196 0.285035 0.278823
0.286499 0.285338 0.279122
0.286801 0.285640 0.279421
0.287104 0.285942 0.279719
0.287406 0.286244 0.280018
0.287709 0.286545 0.280316
0.288011 0.286847 0.280614
0.288313 0.287148 0.280912
0.288614 0.287449 0.281210
0.288916 0.287750 0.281508
0.289218 0.288051 0.281805
0.289519 0.288352 0.282103
0.289820 0.288652 0.282400
0.290121 0.288953 0.282697
0.290422 0.289253 0.282994
0.290723 0.289553 0.283291
0.291023 0.289853 0.283588
0.291323 0.290153 0.283884
0.291624 0.290453 0.284181
0.291924 0.290752 0.284477
0.292224 0.291051 0.284773
0.292523 0.291351 0.285069
0.292823 0.291650 0.285365
0.293123 0.291949 0.285661
0.293422 0.292247 0.285957
0.293721 0.292546 0.286252
0.294020 0.292844 0.286547
0.294319 0.293143 0.286843
0.294618 0.293441 0.287138
0.294916 0.293739 0.287433
