tools/resolve/luts/NIRO Grading/Taxodia 09.26/C0260_e+2.91_r+0.07_b+0.17.cube
TITLE "NIRO BALANCE C0260 e +2.91 R +0.07 B +0.17 (lineare Verstaerkung S-Log3)"
LUT_1D_SIZE 4096
0.000000 0.000000 0.000000
0.000000 0.000000 0.000000
0.000000 0.000000 0.000000
0.000000 0.000000 0.000000
0.000000 0.000000 0.000000
0.000000 0.000000 0.000000
0.000000 0.000000 0.000000
0.000000 0.000000 0.000000
0.000000 0.000000 0.000000
0.000000 0.000000 0.000000
0.000000 0.000000 0.000000
0.000000 0.000000 0.000000
0.000000 0.000000 0.000000
0.000000 0.000000 0.000000
0.000000 0.000000 0.000000
0.000000 0.000000 0.000000
0.000000 0.000000 0.000000
0.000000 0.000000 0.000000
0.000000 0.000000 0.000000
0.000000 0.000000 0.000000
0.000000 0.000000 0.000000
0.000000 0.000000 0.000000
0.000000 0.000000 0.000000
0.000000 0.000000 0.000000
0.000000 0.000000 0.000000
0.000000 0.000000 0.000000
0.000000 0.000000 0.000000
0.000000 0.000000 0.000000
0.000000 0.000000 0.000000
0.000000 0.000000 0.000000
0.000000 0.000000 0.000000
0.000000 0.000000 0.000000
0.000000 0.000000 0.000000
0.000000 0.000000 0.000000
0.000000 0.000000 0.000000
0.000000 0.000000 0.000000
0.000000 0.000000 0.000000
0.000000 0.000000 0.000000
0.000000 0.000000 0.000000
0.000000 0.000000 0.000000
0.000000 0.000000 0.000000
0.000000 0.000000 0.000000
0.000000 0.000000 0.000000
0.000000 0.000000 0.000000
0.000000 0.000000 0.000000
0.000000 0.000000 0.000000
0.000000 0.000000 0.000000
0.000000 0.000000 0.000000
0.000000 0.000000 0.000000
0.000000 0.000000 0.000000
0.000000 0.000000 0.000000
0.000000 0.000000 0.000000
0.000000 0.000000 0.000000
0.000000 0.000000 0.000000
0.000000 0.000000 0.000000
0.000000 0.000000 0.000000
0.000000 0.000000 0.000000
0.000000 0.000000 0.000000
0.000000 0.000000 0.000000
0.000000 0.000000 0.000000
0.000000 0.000000 0.000000
0.000000 0.000000 0.000000
0.000000 0.000000 0.000000
0.000000 0.000000 0.000000
0.000000 0.000000 0.000000
0.000000 0.000000 0.000000
0.000000 0.000000 0.000000
0.000000 0.000000 0.000000
0.000000 0.000000 0.000000
0.000000 0.000000 0.000000
0.000000 0.000000 0.000000
0.000000 0.000000 0.000000
0.000000 0.000000 0.000000
0.000000 0.000000 0.000000
0.000000 0.000000 0.000000
0.000000 0.000000 0.000000
0.000000 0.000000 0.000000
0.000000 0.000000 0.000000
0.000000 0.000000 0.000000
0.000000 0.000000 0.000000
0.000000 0.000000 0.000000
0.000000 0.000000 0.000000
0.000000 0.000000 0.000000
0.000000 0.000000 0.000000
0.000000 0.000000 0.000000
0.000000 0.000000 0.000000
0.000000 0.000000 0.000000
0.000000 0.000000 0.000000
0.000000 0.000000 0.000000
0.000000 0.000000 0.000000
0.000000 0.000000 0.000000
0.000000 0.000000 0.000000
0.000000 0.000000 0.000000
0.000000 0.000000 0.000000
0.000000 0.000000 0.000000
0.000000 0.000000 0.000000
0.000000 0.000000 0.000000
0.000000 0.000000 0.000000
0.000000 0.000000 0.000000
0.000000 0.000000 0.000000
0.000000 0.000000 0.000000
0.000000 0.000000 0.000000
0.000000 0.000000 0.000000
0.000000 0.000000 0.000000
0.000000 0.000000 0.000000
0.000000 0.000000 0.000000
0.000000 0.000000 0.000000
0.000000 0.000000 0.000000
0.000000 0.000000 0.000000
0.000000 0.000000 0.000000
0.000000 0.000000 0.000000
0.000000 0.000000 0.000000
0.000000 0.000000 0.000000
0.000000 0.000000 0.000000
0.000000 0.000000 0.000000
0.000000 0.000000 0.000000
0.000000 0.000000 0.000000
0.000000 0.000000 0.000000
0.000000 0.000000 0.000000
0.000000 0.000000 0.000000
0.000000 0.000000 0.000000
0.000000 0.000000 0.000000
0.000000 0.000000 0.000000
0.000000 0.000000 0.000000
0.000000 0.000000 0.000000
0.000000 0.000000 0.000000
0.000000 0.000000 0.000000
0.000000 0.000000 0.000000
0.000000 0.000000 0.000000
0.000000 0.000000 0.000000
0.000000 0.000000 0.000000
0.000000 0.000000 0.000000
0.000000 0.000000 0.000000
0.000000 0.000000 0.000000
0.000000 0.000000 0.000000
0.000000 0.000000 0.000000
0.000000 0.000000 0.000000
0.000000 0.000000 0.000000
0.000000 0.000000 0.000000
0.000000 0.000000 0.000000
0.000000 0.000000 0.000000
0.000000 0.000000 0.000000
0.000000 0.000000 0.000000
0.000000 0.000000 0.000000
0.000000 0.000000 0.000000
0.000000 0.000000 0.000000
0.000000 0.000000 0.000000
0.000000 0.000000 0.000000
0.000000 0.000000 0.000000
0.000000 0.000000 0.000000
0.000000 0.000000 0.000000
0.000000 0.000000 0.000000
0.000000 0.000000 0.000000
0.000000 0.000000 0.000000
0.000000 0.000000 0.000000
0.000000 0.000000 0.000000
0.000000 0.000000 0.000000
0.000000 0.000000 0.000000
0.000000 0.000000 0.000000
0.000000 0.000000 0.000000
0.000000 0.000000 0.000000
0.000000 0.000000 0.000000
0.000000 0.000000 0.000000
0.000000 0.000000 0.000000
0.000000 0.000000 0.000000
0.000000 0.000000 0.000000
0.000000 0.000000 0.000000
0.000000 0.000000 0.000000
0.000000 0.000000 0.000000
0.000000 0.000000 0.000000
0.000000 0.000000 0.000000
0.000000 0.000000 0.000000
0.000000 0.000000 0.000000
0.000000 0.000000 0.000000
0.000000 0.000000 0.000000
0.000000 0.000000 0.000000
0.000000 0.000000 0.000000
0.000000 0.000000 0.000000
0.000000 0.000000 0.000000
0.000000 0.000000 0.000000
0.000000 0.000000 0.000000
0.000000 0.000000 0.000000
0.000000 0.000000 0.000000
0.000000 0.000000 0.000000
0.000000 0.000000 0.000000
0.000000 0.000000 0.000000
0.000000 0.000000 0.000000
0.000000 0.000000 0.000000
0.000000 0.000000 0.000000
0.000000 0.000000 0.000000
0.000000 0.000000 0.000000
0.000000 0.000000 0.000000
0.000000 0.000000 0.000000
0.000000 0.000000 0.000000
0.000000 0.000000 0.000000
0.000000 0.000000 0.000000
0.000000 0.000000 0.000000
0.000000 0.000000 0.000000
0.000000 0.000000 0.000000
0.000000 0.000000 0.000000
0.000000 0.000000 0.000000
0.000000 0.000000 0.000000
0.000000 0.000000 0.000000
0.000000 0.000000 0.000000
0.000000 0.000000 0.000000
0.000000 0.000000 0.000000
0.000000 0.000000 0.000000
0.000000 0.000000 0.000000
0.000000 0.000000 0.000000
0.000000 0.000000 0.000000
0.000000 0.000000 0.000000
0.000000 0.000000 0.000000
0.000000 0.000000 0.000000
0.000000 0.000000 0.000000
0.000000 0.000000 0.000000
0.000000 0.000000 0.000000
0.000000 0.000000 0.000000
0.000000 0.000000 0.000000
0.000000 0.000000 0.000000
0.000000 0.000000 0.000000
0.000000 0.000000 0.000000
0.000000 0.000000 0.000000
0.000000 0.000000 0.000000
0.000000 0.000000 0.000000
0.000000 0.000000 0.000000
0.000000 0.000000 0.000000
0.000000 0.000000 0.000000
0.000000 0.000000 0.000000
0.000000 0.000000 0.000000
0.000000 0.000000 0.000000
0.000000 0.000000 0.000000
0.000000 0.000000 0.000000
0.000000 0.000000 0.000000
0.000000 0.000000 0.000000
0.000000 0.000000 0.000000
0.000000 0.000000 0.000000
0.000000 0.000000 0.000000
0.000000 0.000000 0.000000
0.000000 0.000000 0.000000
0.000000 0.000000 0.000000
0.000000 0.000000 0.000000
0.000000 0.000000 0.000000
0.000000 0.000000 0.000000
0.000000 0.000000 0.000000
0.000000 0.000000 0.000000
0.000000 0.000000 0.000000
0.000000 0.000000 0.000000
0.000000 0.000000 0.000000
0.000000 0.000000 0.000000
0.000000 0.000000 0.000000
0.000000 0.000000 0.000000
0.000000 0.000000 0.000000
0.000000 0.000000 0.000000
0.000000 0.000000 0.000000
0.000000 0.000000 0.000000
0.000000 0.000000 0.000000
0.000000 0.000000 0.000000
0.000000 0.000000 0.000000
0.000000 0.000000 0.000000
0.000000 0.000000 0.000000
0.000000 0.000000 0.000000
0.000000 0.000000 0.000000
0.000000 0.000000 0.000000
0.000000 0.000000 0.000000
0.000000 0.000000 0.000000
0.000000 0.000000 0.000000
0.000000 0.000000 0.000000
0.000000 0.000000 0.000000
0.000000 0.000000 0.000000
0.000000 0.000000 0.000000
0.000000 0.000000 0.000000
0.000000 0.000000 0.000000
0.000000 0.000000 0.000000
0.000000 0.000000 0.000000
0.000000 0.000000 0.000000
0.000000 0.000000 0.000000
0.000000 0.000000 0.000000
0.000000 0.000000 0.000000
0.000000 0.000000 0.000000
0.000000 0.000000 0.000000
0.000000 0.000000 0.000000
0.000000 0.000000 0.000000
0.000000 0.000000 0.000000
0.000000 0.000000 0.000000
0.000000 0.000000 0.000000
0.000000 0.000000 0.000000
0.000000 0.000000 0.000000
0.000000 0.000000 0.000000
0.000000 0.000000 0.000000
0.000000 0.000000 0.000000
0.000000 0.000000 0.000000
0.000000 0.000000 0.000000
0.000000 0.000000 0.000000
0.000000 0.000000 0.000000
0.000000 0.000000 0.000000
0.000000 0.000000 0.000000
0.000000 0.000000 0.000000
0.000000 0.000000 0.000000
0.000000 0.000000 0.000000
0.000000 0.000000 0.000000
0.000000 0.000000 0.000000
0.000000 0.000000 0.000000
0.000000 0.000000 0.000000
0.000000 0.000000 0.000000
0.000000 0.000000 0.000000
0.000000 0.000000 0.000000
0.000000 0.000000 0.000000
0.000000 0.000000 0.000000
0.000000 0.000000 0.000000
0.000000 0.000000 0.000000
0.000000 0.000000 0.000000
0.000000 0.000000 0.000000
0.000000 0.000000 0.000000
0.000000 0.000000 0.000000
0.000000 0.000000 0.000000
0.000000 0.000000 0.000000
0.000000 0.000000 0.000000
0.000000 0.000000 0.000000
0.000000 0.000000 0.000000
0.000000 0.000000 0.000000
0.000000 0.000000 0.000000
0.000000 0.000000 0.000000
0.000000 0.000000 0.000000
0.000000 0.000000 0.000000
0.000000 0.000000 0.000000
0.000000 0.000000 0.000000
0.000000 0.000000 0.000000
0.000000 0.000000 0.000000
0.000000 0.000000 0.000000
0.000000 0.000000 0.000000
0.000000 0.000580 0.000000
0.000000 0.002416 0.000000
0.000000 0.004251 0.000000
0.001646 0.006086 0.000000
0.003575 0.007922 0.000000
0.005505 0.009757 0.000000
0.007434 0.011593 0.001239
0.009363 0.013428 0.003308
0.011293 0.015264 0.005377
0.013222 0.017099 0.007447
0.015151 0.018935 0.009516
0.017081 0.020770 0.011585
0.019010 0.022606 0.013655
0.020940 0.024441 0.015724
0.022869 0.026276 0.017793
0.024798 0.028112 0.019862
0.026728 0.029947 0.021932
0.028657 0.031783 0.024001
0.030586 0.033618 0.026070
0.032516 0.035454 0.028140
0.034445 0.037289 0.030209
0.036375 0.039125 0.032278
0.038304 0.040960 0.034347
0.040233 0.042796 0.036417
0.042163 0.044631 0.038486
0.044092 0.046466 0.040555
0.046022 0.048302 0.042625
0.047951 0.050137 0.044694
0.049880 0.051973 0.046763
0.051810 0.053808 0.048833
0.053739 0.055644 0.050902
0.055668 0.057479 0.052971
0.057598 0.059315 0.055040
0.059527 0.061150 0.057110
0.061457 0.062986 0.059179
0.063386 0.064821 0.061248
0.065315 0.066656 0.063318
0.067245 0.068492 0.065387
0.069174 0.070327 0.067456
0.071103 0.072163 0.069525
0.073033 0.073998 0.071595
0.074962 0.075834 0.073664
0.076892 0.077669 0.075733
0.078821 0.079505 0.077803
0.080750 0.081340 0.079872
0.082680 0.083176 0.081941
0.084609 0.085011 0.084010
0.086538 0.086846 0.086080
0.088468 0.088682 0.088149
0.090397 0.090517 0.090218
0.092327 0.092353 0.092288
0.094256 0.094188 0.094357
0.096185 0.096024 0.096426
0.098115 0.097859 0.098496
0.100044 0.099695 0.100565
0.101974 0.101530 0.102634
0.103903 0.103366 0.104703
0.105832 0.105201 0.106773
0.107762 0.107036 0.108842
0.109691 0.108872 0.110911
0.111620 0.110707 0.112981
0.113550 0.112543 0.115050
0.115479 0.114378 0.117119
0.117409 0.116214 0.119188
0.119338 0.118049 0.121258
0.121267 0.119885 0.123327
0.123197 0.121720 0.125396
0.125126 0.123555 0.127466
0.127055 0.125391 0.129535
0.128985 0.127226 0.131604
0.130914 0.129062 0.133673
0.132844 0.130897 0.135743
0.134773 0.132733 0.137812
0.136702 0.134568 0.139881
0.138632 0.136404 0.141951
0.140561 0.138239 0.144020
0.142490 0.140075 0.146089
0.144420 0.141910 0.148158
0.146349 0.143745 0.150228
0.148279 0.145581 0.152297
0.150208 0.147416 0.154366
0.152137 0.149252 0.156436
0.154067 0.151087 0.158505
0.155996 0.152923 0.160574
0.157925 0.154758 0.162644
0.159855 0.156594 0.164713
0.161784 0.158429 0.166782
0.163714 0.160265 0.168531
0.165643 0.162100 0.170134
0.167528 0.163935 0.171715
0.169037 0.165771 0.173274
0.170526 0.167554 0.174811
0.171996 0.168991 0.176327
0.173446 0.170408 0.177823
0.174878 0.171808 0.179299
0.176292 0.173191 0.180755
0.177687 0.174556 0.182193
0.179066 0.175905 0.183612
0.180427 0.177238 0.185014
0.181772 0.178555 0.186397
0.183101 0.179857 0.187764
0.184414 0.181143 0.189114
0.185712 0.182415 0.190448
0.186994 0.183672 0.191767
0.188263 0.184915 0.193069
0.189516 0.186144 0.194357
0.190756 0.187360 0.195630
0.191982 0.188563 0.196888
0.193195 0.189753 0.198132
0.194395 0.190930 0.199363
0.195581 0.192095 0.200580
0.196756 0.193248 0.201783
0.197918 0.194389 0.202974
0.199068 0.195518 0.204152
0.200206 0.196636 0.205318
0.201332 0.197743 0.206472
0.202447 0.198839 0.207614
0.203552 0.199924 0.208744
0.204645 0.200999 0.209863
0.205728 0.202063 0.210971
0.206800 0.203118 0.212067
0.207862 0.204162 0.213154
0.208913 0.205197 0.214229
0.209955 0.206222 0.215294
0.210988 0.207238 0.216349
0.212011 0.208244 0.217394
0.213024 0.209241 0.218430
0.214028 0.210230 0.219456
0.215024 0.211210 0.220472
0.216010 0.212181 0.221479
0.216988 0.213144 0.222477
0.217957 0.214099 0.223467
0.218918 0.215045 0.224447
0.219870 0.215983 0.225419
0.220815 0.216914 0.226382
0.221751 0.217837 0.227338
0.222680 0.218752 0.228285
0.223601 0.219660 0.229224
0.224514 0.220560 0.230155
0.225420 0.221453 0.231078
0.226319 0.222339 0.231994
0.227210 0.223218 0.232902
0.228094 0.224090 0.233803
0.228972 0.224956 0.234697
0.229842 0.225814 0.235584
0.230706 0.226666 0.236463
0.231563 0.227512 0.237336
0.232413 0.228351 0.238202
0.233257 0.229184 0.239061
0.234095 0.230010 0.239913
0.234926 0.230831 0.240759
0.235751 0.231645 0.241599
0.236570 0.232454 0.242432
0.237383 0.233257 0.243259
0.238190 0.234054 0.244080
0.238992 0.234845 0.244895
0.239787 0.235630 0.245704
0.240577 0.236411 0.246507
0.241361 0.237185 0.247305
0.242140 0.237955 0.248096
0.242914 0.238719 0.248882
0.243682 0.239478 0.249663
0.244444 0.240231 0.250438
0.245202 0.240980 0.251208
0.245954 0.241723 0.251972
0.246702 0.242462 0.252732
0.247444 0.243196 0.253486
0.248182 0.243925 0.254235
0.248914 0.244649 0.254979
0.249642 0.245368 0.255718
0.250365 0.246083 0.256452
0.251083 0.246793 0.257181
0.251797 0.247499 0.257906
0.252506 0.248200 0.258625
0.253211 0.248897 0.259341
0.253911 0.249590 0.260051
0.254607 0.250278 0.260757
0.255298 0.250962 0.261459
0.255986 0.251642 0.262156
0.256669 0.252318 0.262849
0.257347 0.252989 0.263538
0.258022 0.253657 0.264222
0.258693 0.254320 0.264902
0.259359 0.254980 0.265578
0.260022 0.255636 0.266250
0.260681 0.256288 0.266918
0.261335 0.256936 0.267582
0.261986 0.257580 0.268242
0.262633 0.258221 0.268898
0.263277 0.258858 0.269550
0.263917 0.259491 0.270198
0.264553 0.260121 0.270843
0.265185 0.260747 0.271484
0.265814 0.261369 0.272121
0.266439 0.261988 0.272755
0.267061 0.262604 0.273385
0.267679 0.263217 0.274011
0.268294 0.263826 0.274634
0.268906 0.264431 0.275253
0.269514 0.265034 0.275869
0.270119 0.265633 0.276482
0.270720 0.266229 0.277091
0.271319 0.266821 0.277697
0.271914 0.267411 0.278300
0.272506 0.267997 0.278899
0.273094 0.268581 0.279495
0.273680 0.269161 0.280088
0.274263 0.269738 0.280678
0.274842 0.270313 0.281265
0.275419 0.270884 0.281848
0.275992 0.271452 0.282429
0.276563 0.272018 0.283006
0.277131 0.272581 0.283581
0.277696 0.273140 0.284152
0.278258 0.273697 0.284721
0.278817 0.274252 0.285287
0.279373 0.274803 0.285850
0.279927 0.275352 0.286410
0.280478 0.275898 0.286967
0.281026 0.276441 0.287521
0.281571 0.276982 0.288073
0.282114 0.277520 0.288622
0.282654 0.278056 0.289168
0.283191 0.278589 0.289712
0.283726 0.279119 0.290253
0.284259 0.279647 0.290791
0.284788 0.280172 0.291327
0.285316 0.280695 0.291860
0.285840 0.281216 0.292391
0.286363 0.281734 0.292919
0.286883 0.282250 0.293444
0.287400 0.282763 0.293967
0.287915 0.283274 0.294488
0.288428 0.283782 0.295006
0.288938 0.284288 0.295522
0.289446 0.284792 0.296036
0.289952 0.285294 0.296547
0.290455 0.285793 0.297055
0.290956 0.286291 0.297562
0.291455 0.286785 0.298066
0.291952 0.287278 0.298568
0.292446 0.287769 0.299067
0.292938 0.288257 0.299565
0.293428 0.288743 0.300060
0.293916 0.289228 0.300553
0.294402 0.289710 0.301043
0.294886 0.290190 0.301532
0.295367 0.290668 0.302018
0.295847 0.291143 0.302503
0.296324 0.291617 0.302985
0.296799 0.292089 0.303465
0.297273 0.292559 0.303943
0.297744 0.293027 0.304419
0.298213 0.293492 0.304893
0.298681 0.293956 0.305365
0.299146 0.294418 0.305835
0.299610 0.294878 0.306303
0.300071 0.295337 0.306769
0.300531 0.295793 0.307233
0.300988 0.296247 0.307695
0.301444 0.296700 0.308155
0.301898 0.297151 0.308614
0.302350 0.297600 0.309070
0.302801 0.298047 0.309525
0.303249 0.298492 0.309977
0.303696 0.298935 0.310428
0.304141 0.299377 0.310877
0.304584 0.299817 0.311325
0.305025 0.300256 0.311770
0.305465 0.300692 0.312214
0.305902 0.301127 0.312656
0.306339 0.301560 0.313096
0.306773 0.301992 0.313534
0.307206 0.302421 0.313971
0.307637 0.302849 0.314406
0.308066 0.303276 0.314839
0.308494 0.303701 0.315271
0.308920 0.304124 0.315701
0.309344 0.304546 0.316129
0.309767 0.304966 0.316555
0.310189 0.305384 0.316980
0.310608 0.305801 0.317404
0.311026 0.306216 0.317826
0.311443 0.306630 0.318246
0.311858 0.307042 0.318664
0.312271 0.307453 0.319081
0.312683 0.307862 0.319497
0.313093 0.308270 0.319911
0.313502 0.308676 0.320323
0.313909 0.309081 0.320734
0.314315 0.309484 0.321143
0.314720 0.309886 0.321551
0.315123 0.310286 0.321957
0.315524 0.310685 0.322362
0.315924 0.311083 0.322765
0.316323 0.311479 0.323167
0.316720 0.311873 0.323568
0.317115 0.312267 0.323967
0.317510 0.312658 0.324364
0.317903 0.313049 0.324761
0.318294 0.313438 0.325155
0.318684 0.313826 0.325549
0.319073 0.314212 0.325941
0.319460 0.314597 0.326331
0.319847 0.314981 0.326720
0.320231 0.315363 0.327108
0.320615 0.315745 0.327495
0.320997 0.316124 0.327880
0.321378 0.316503 0.328264
0.321757 0.316880 0.328646
0.322135 0.317256 0.329028
0.322512 0.317631 0.329407
0.322888 0.318004 0.329786
0.323262 0.318376 0.330163
0.323635 0.318747 0.330539
0.324007 0.319117 0.330914
0.324378 0.319485 0.331288
0.324747 0.319853 0.331660
0.325115 0.320219 0.332031
0.325482 0.320583 0.332401
0.325848 0.320947 0.332769
0.326212 0.321309 0.333137
0.326576 0.321671 0.333503
0.326938 0.322031 0.333868
0.327299 0.322390 0.334231
0.327659 0.322747 0.334594
0.328017 0.323104 0.334955
0.328375 0.323460 0.335315
0.328731 0.323814 0.335674
0.329086 0.324167 0.336032
0.329440 0.324519 0.336389
0.329793 0.324870 0.336745
0.330145 0.325220 0.337099
0.330496 0.325569 0.337452
0.330846 0.325917 0.337804
0.331194 0.326263 0.338156
0.331541 0.326609 0.338505
0.331888 0.326953 0.338854
0.332233 0.327296 0.339202
0.332577 0.327639 0.339549
0.332920 0.327980 0.339894
0.333262 0.328320 0.340239
0.333603 0.328659 0.340582
0.333943 0.328998 0.340925
0.334282 0.329335 0.341266
0.334620 0.329671 0.341606
0.334957 0.330006 0.341946
0.335293 0.330340 0.342284
0.335628 0.330673 0.342621
0.335962 0.331005 0.342957
0.336294 0.331336 0.343292
0.336626 0.331666 0.343627
0.336957 0.331996 0.343960
0.337287 0.332324 0.344292
0.337616 0.332651 0.344623
0.337944 0.332977 0.344953
0.338328 0.333360 0.345340
0.338742 0.333771 0.345757
0.339155 0.334183 0.346173
0.339568 0.334593 0.346589
0.339980 0.335003 0.347003
0.340391 0.335412 0.347418
0.340802 0.335821 0.347831
0.341212 0.336229 0.348244
0.341622 0.336637 0.348656
0.342031 0.337043 0.349068
0.342439 0.337450 0.349479
0.342847 0.337855 0.349889
0.343254 0.338261 0.350299
0.343661 0.338665 0.350708
0.344067 0.339069 0.351117
0.344472 0.339472 0.351525
0.344877 0.339875 0.351932
0.345281 0.340277 0.352339
0.345684 0.340679 0.352745
0.346087 0.341080 0.353151
0.346490 0.341481 0.353556
0.346892 0.341881 0.353960
0.347293 0.342280 0.354364
0.347694 0.342679 0.354767
0.348094 0.343077 0.355170
0.348494 0.343475 0.355572
0.348893 0.343872 0.355974
0.349291 0.344269 0.356375
0.349689 0.344665 0.356775
0.350086 0.345060 0.357175
0.350483 0.345455 0.357574
0.350880 0.345850 0.357973
0.351275 0.346244 0.358371
0.351671 0.346637 0.358769
0.352065 0.347030 0.359166
0.352459 0.347422 0.359563
0.352853 0.347814 0.359958
0.353246 0.348206 0.360354
0.353639 0.348596 0.360749
0.354031 0.348987 0.361143
0.354422 0.349376 0.361537
0.354813 0.349766 0.361930
0.355204 0.350154 0.362323
0.355594 0.350543 0.362715
0.355983 0.350930 0.363107
0.356372 0.351318 0.363498
0.356760 0.351704 0.363889
0.357148 0.352091 0.364279
0.357536 0.352477 0.364669
0.357923 0.352862 0.365058
0.358309 0.353247 0.365447
0.358695 0.353631 0.365835
0.359081 0.354015 0.366223
0.359466 0.354398 0.366610
0.359850 0.354781 0.366997
0.360234 0.355163 0.367383
0.360618 0.355545 0.367768
0.361001 0.355927 0.368154
0.361383 0.356308 0.368538
0.361765 0.356688 0.368922
0.362147 0.357068 0.369306
0.362528 0.357448 0.369689
0.362909 0.357827 0.370072
0.363289 0.358205 0.370454
0.363669 0.358584 0.370836
0.364048 0.358961 0.371218
0.364427 0.359339 0.371599
0.364805 0.359715 0.371979
0.365183 0.360092 0.372359
0.365561 0.360468 0.372738
0.365938 0.360843 0.373117
0.366314 0.361218 0.373496
0.366690 0.361593 0.373874
0.367066 0.361967 0.374252
0.367441 0.362341 0.374629
0.367816 0.362714 0.375006
0.368190 0.363087 0.375382
0.368564 0.363459 0.375758
0.368937 0.363831 0.376133
0.369310 0.364203 0.376508
0.369683 0.364574 0.376883
0.370055 0.364945 0.377257
0.370427 0.365315 0.377630
0.370798 0.365685 0.378004
0.371169 0.366054 0.378376
0.371540 0.366423 0.378749
0.371910 0.366792 0.379121
0.372279 0.367160 0.379492
0.372648 0.367528 0.379863
0.373017 0.367895 0.380234
0.373386 0.368262 0.380604
0.373754 0.368629 0.380974
0.374121 0.368995 0.381343
0.374488 0.369361 0.381712
0.374855 0.369726 0.382081
0.375221 0.370091 0.382449
0.375587 0.370456 0.382817
0.375953 0.370820 0.383184
0.376318 0.371184 0.383551
0.376683 0.371547 0.383917
0.377047 0.371910 0.384283
0.377411 0.372273 0.384649
0.377775 0.372635 0.385014
0.378138 0.372997 0.385379
0.378500 0.373358 0.385744
0.378863 0.373720 0.386108
0.379225 0.374080 0.386472
0.379587 0.374441 0.386835
0.379948 0.374801 0.387198
0.380309 0.375160 0.387561
0.380669 0.375519 0.387923
0.381029 0.375878 0.388284
0.381389 0.376237 0.388646
0.381748 0.376595 0.389007
0.382107 0.376953 0.389368
0.382466 0.377310 0.389728
0.382824 0.377667 0.390088
0.383182 0.378024 0.390447
0.383540 0.378380 0.390806
0.383897 0.378736 0.391165
0.384253 0.379091 0.391524
0.384610 0.379447 0.391882
0.384966 0.379801 0.392239
0.385322 0.380156 0.392597
0.385677 0.380510 0.392954
0.386032 0.380864 0.393310
0.386387 0.381217 0.393666
0.386741 0.381571 0.394022
0.387095 0.381923 0.394378
0.387449 0.382276 0.394733
0.387802 0.382628 0.395088
0.388155 0.382980 0.395442
0.388507 0.383331 0.395796
0.388859 0.383682 0.396150
0.389211 0.384033 0.396503
0.389563 0.384383 0.396856
0.389914 0.384733 0.397209
0.390265 0.385083 0.397561
0.390615 0.385432 0.397913
0.390966 0.385781 0.398265
0.391315 0.386130 0.398616
0.391665 0.386478 0.398967
0.392014 0.386827 0.399318
0.392363 0.387174 0.399668
0.392711 0.387522 0.400018
0.393060 0.387869 0.400368
0.393408 0.388216 0.400717
0.393755 0.388562 0.401066
0.394102 0.388908 0.401415
0.394449 0.389254 0.401763
0.394796 0.389600 0.402111
0.395142 0.389945 0.402459
0.395488 0.390290 0.402806
0.395834 0.390634 0.403154
0.396179 0.390978 0.403500
0.396524 0.391322 0.403847
0.396869 0.391666 0.404193
0.397213 0.392009 0.404539
0.397557 0.392352 0.404884
0.397901 0.392695 0.405229
0.398244 0.393038 0.405574
0.398587 0.393380 0.405918
0.398930 0.393721 0.406263
0.399273 0.394063 0.406607
0.399615 0.394404 0.406950
0.399957 0.394745 0.407293
0.400299 0.395086 0.407636
0.400640 0.395426 0.407979
0.400981 0.395766 0.408321
0.401322 0.396106 0.408663
0.401662 0.396445 0.409005
0.402002 0.396784 0.409347
0.402342 0.397123 0.409688
0.402682 0.397462 0.410029
0.403021 0.397800 0.410369
0.403360 0.398138 0.410710
0.403699 0.398476 0.411050
0.404037 0.398813 0.411389
0.404375 0.399150 0.411729
0.404713 0.399487 0.412068
0.405051 0.399824 0.412407
0.405388 0.400160 0.412745
0.405725 0.400496 0.413083
0.406061 0.400832 0.413421
0.406398 0.401168 0.413759
0.406734 0.401503 0.414096
0.407070 0.401838 0.414433
0.407405 0.402172 0.414770
0.407741 0.402507 0.415107
0.408076 0.402841 0.415443
0.408411 0.403175 0.415779
0.408745 0.403508 0.416115
0.409079 0.403842 0.416450
0.409413 0.404175 0.416785
0.409747 0.404507 0.417120
0.410080 0.404840 0.417455
0.410413 0.405172 0.417789
0.410746 0.405504 0.418123
0.411079 0.405836 0.418457
