tools/resolve/luts/NIRO Grading/Taxodia 09.26/C0261_e+3.09_r+0.10_b-0.01.cube
TITLE "NIRO BALANCE C0261 e +3.09 R +0.10 B -0.01 (lineare Verstaerkung S-Log3)"
LUT_1D_SIZE 4096
0.000000 0.000000 0.000000
0.000000 0.000000 0.000000
0.000000 0.000000 0.000000
0.000000 0.000000 0.000000
0.000000 0.000000 0.000000
0.000000 0.000000 0.000000
0.000000 0.000000 0.000000
0.000000 0.000000 0.000000
0.000000 0.000000 0.000000
0.000000 0.000000 0.000000
0.000000 0.000000 0.000000
0.000000 0.000000 0.000000
0.000000 0.000000 0.000000
0.000000 0.000000 0.000000
0.000000 0.000000 0.000000
0.000000 0.000000 0.000000
0.000000 0.000000 0.000000
0.000000 0.000000 0.000000
0.000000 0.000000 0.000000
0.000000 0.000000 0.000000
0.000000 0.000000 0.000000
0.000000 0.000000 0.000000
0.000000 0.000000 0.000000
0.000000 0.000000 0.000000
0.000000 0.000000 0.000000
0.000000 0.000000 0.000000
0.000000 0.000000 0.000000
0.000000 0.000000 0.000000
0.000000 0.000000 0.000000
0.000000 0.000000 0.000000
0.000000 0.000000 0.000000
0.000000 0.000000 0.000000
0.000000 0.000000 0.000000
0.000000 0.000000 0.000000
0.000000 0.000000 0.000000
0.000000 0.000000 0.000000
0.000000 0.000000 0.000000
0.000000 0.000000 0.000000
0.000000 0.000000 0.000000
0.000000 0.000000 0.000000
0.000000 0.000000 0.000000
0.000000 0.000000 0.000000
0.000000 0.000000 0.000000
0.000000 0.000000 0.000000
0.000000 0.000000 0.000000
0.000000 0.000000 0.000000
0.000000 0.000000 0.000000
0.000000 0.000000 0.000000
0.000000 0.000000 0.000000
0.000000 0.000000 0.000000
0.000000 0.000000 0.000000
0.000000 0.000000 0.000000
0.000000 0.000000 0.000000
0.000000 0.000000 0.000000
0.000000 0.000000 0.000000
0.000000 0.000000 0.000000
0.000000 0.000000 0.000000
0.000000 0.000000 0.000000
0.000000 0.000000 0.000000
0.000000 0.000000 0.000000
0.000000 0.000000 0.000000
0.000000 0.000000 0.000000
0.000000 0.000000 0.000000
0.000000 0.000000 0.000000
0.000000 0.000000 0.000000
0.000000 0.000000 0.000000
0.000000 0.000000 0.000000
0.000000 0.000000 0.000000
0.000000 0.000000 0.000000
0.000000 0.000000 0.000000
0.000000 0.000000 0.000000
0.000000 0.000000 0.000000
0.000000 0.000000 0.000000
0.000000 0.000000 0.000000
0.000000 0.000000 0.000000
0.000000 0.000000 0.000000
0.000000 0.000000 0.000000
0.000000 0.000000 0.000000
0.000000 0.000000 0.000000
0.000000 0.000000 0.000000
0.000000 0.000000 0.000000
0.000000 0.000000 0.000000
0.000000 0.000000 0.000000
0.000000 0.000000 0.000000
0.000000 0.000000 0.000000
0.000000 0.000000 0.000000
0.000000 0.000000 0.000000
0.000000 0.000000 0.000000
0.000000 0.000000 0.000000
0.000000 0.000000 0.000000
0.000000 0.000000 0.000000
0.000000 0.000000 0.000000
0.000000 0.000000 0.000000
0.000000 0.000000 0.000000
0.000000 0.000000 0.000000
0.000000 0.000000 0.000000
0.000000 0.000000 0.000000
0.000000 0.000000 0.000000
0.000000 0.000000 0.000000
0.000000 0.000000 0.000000
0.000000 0.000000 0.000000
0.000000 0.000000 0.000000
0.000000 0.000000 0.000000
0.000000 0.000000 0.000000
0.000000 0.000000 0.000000
0.000000 0.000000 0.000000
0.000000 0.000000 0.000000
0.000000 0.000000 0.000000
0.000000 0.000000 0.000000
0.000000 0.000000 0.000000
0.000000 0.000000 0.000000
0.000000 0.000000 0.000000
0.000000 0.000000 0.000000
0.000000 0.000000 0.000000
0.000000 0.000000 0.000000
0.000000 0.000000 0.000000
0.000000 0.000000 0.000000
0.000000 0.000000 0.000000
0.000000 0.000000 0.000000
0.000000 0.000000 0.000000
0.000000 0.000000 0.000000
0.000000 0.000000 0.000000
0.000000 0.000000 0.000000
0.000000 0.000000 0.000000
0.000000 0.000000 0.000000
0.000000 0.000000 0.000000
0.000000 0.000000 0.000000
0.000000 0.000000 0.000000
0.000000 0.000000 0.000000
0.000000 0.000000 0.000000
0.000000 0.000000 0.000000
0.000000 0.000000 0.000000
0.000000 0.000000 0.000000
0.000000 0.000000 0.000000
0.000000 0.000000 0.000000
0.000000 0.000000 0.000000
0.000000 0.000000 0.000000
0.000000 0.000000 0.000000
0.000000 0.000000 0.000000
0.000000 0.000000 0.000000
0.000000 0.000000 0.000000
0.000000 0.000000 0.000000
0.000000 0.000000 0.000000
0.000000 0.000000 0.000000
0.000000 0.000000 0.000000
0.000000 0.000000 0.000000
0.000000 0.000000 0.000000
0.000000 0.000000 0.000000
0.000000 0.000000 0.000000
0.000000 0.000000 0.000000
0.000000 0.000000 0.000000
0.000000 0.000000 0.000000
0.000000 0.000000 0.000000
0.000000 0.000000 0.000000
0.000000 0.000000 0.000000
0.000000 0.000000 0.000000
0.000000 0.000000 0.000000
0.000000 0.000000 0.000000
0.000000 0.000000 0.000000
0.000000 0.000000 0.000000
0.000000 0.000000 0.000000
0.000000 0.000000 0.000000
0.000000 0.000000 0.000000
0.000000 0.000000 0.000000
0.000000 0.000000 0.000000
0.000000 0.000000 0.000000
0.000000 0.000000 0.000000
0.000000 0.000000 0.000000
0.000000 0.000000 0.000000
0.000000 0.000000 0.000000
0.000000 0.000000 0.000000
0.000000 0.000000 0.000000
0.000000 0.000000 0.000000
0.000000 0.000000 0.000000
0.000000 0.000000 0.000000
0.000000 0.000000 0.000000
0.000000 0.000000 0.000000
0.000000 0.000000 0.000000
0.000000 0.000000 0.000000
0.000000 0.000000 0.000000
0.000000 0.000000 0.000000
0.000000 0.000000 0.000000
0.000000 0.000000 0.000000
0.000000 0.000000 0.000000
0.000000 0.000000 0.000000
0.000000 0.000000 0.000000
0.000000 0.000000 0.000000
0.000000 0.000000 0.000000
0.000000 0.000000 0.000000
0.000000 0.000000 0.000000
0.000000 0.000000 0.000000
0.000000 0.000000 0.000000
0.000000 0.000000 0.000000
0.000000 0.000000 0.000000
0.000000 0.000000 0.000000
0.000000 0.000000 0.000000
0.000000 0.000000 0.000000
0.000000 0.000000 0.000000
0.000000 0.000000 0.000000
0.000000 0.000000 0.000000
0.000000 0.000000 0.000000
0.000000 0.000000 0.000000
0.000000 0.000000 0.000000
0.000000 0.000000 0.000000
0.000000 0.000000 0.000000
0.000000 0.000000 0.000000
0.000000 0.000000 0.000000
0.000000 0.000000 0.000000
0.000000 0.000000 0.000000
0.000000 0.000000 0.000000
0.000000 0.000000 0.000000
0.000000 0.000000 0.000000
0.000000 0.000000 0.000000
0.000000 0.000000 0.000000
0.000000 0.000000 0.000000
0.000000 0.000000 0.000000
0.000000 0.000000 0.000000
0.000000 0.000000 0.000000
0.000000 0.000000 0.000000
0.000000 0.000000 0.000000
0.000000 0.000000 0.000000
0.000000 0.000000 0.000000
0.000000 0.000000 0.000000
0.000000 0.000000 0.000000
0.000000 0.000000 0.000000
0.000000 0.000000 0.000000
0.000000 0.000000 0.000000
0.000000 0.000000 0.000000
0.000000 0.000000 0.000000
0.000000 0.000000 0.000000
0.000000 0.000000 0.000000
0.000000 0.000000 0.000000
0.000000 0.000000 0.000000
0.000000 0.000000 0.000000
0.000000 0.000000 0.000000
0.000000 0.000000 0.000000
0.000000 0.000000 0.000000
0.000000 0.000000 0.000000
0.000000 0.000000 0.000000
0.000000 0.000000 0.000000
0.000000 0.000000 0.000000
0.000000 0.000000 0.000000
0.000000 0.000000 0.000000
0.000000 0.000000 0.000000
0.000000 0.000000 0.000000
0.000000 0.000000 0.000000
0.000000 0.000000 0.000000
0.000000 0.000000 0.000000
0.000000 0.000000 0.000000
0.000000 0.000000 0.000000
0.000000 0.000000 0.000000
0.000000 0.000000 0.000000
0.000000 0.000000 0.000000
0.000000 0.000000 0.000000
0.000000 0.000000 0.000000
0.000000 0.000000 0.000000
0.000000 0.000000 0.000000
0.000000 0.000000 0.000000
0.000000 0.000000 0.000000
0.000000 0.000000 0.000000
0.000000 0.000000 0.000000
0.000000 0.000000 0.000000
0.000000 0.000000 0.000000
0.000000 0.000000 0.000000
0.000000 0.000000 0.000000
0.000000 0.000000 0.000000
0.000000 0.000000 0.000000
0.000000 0.000000 0.000000
0.000000 0.000000 0.000000
0.000000 0.000000 0.000000
0.000000 0.000000 0.000000
0.000000 0.000000 0.000000
0.000000 0.000000 0.000000
0.000000 0.000000 0.000000
0.000000 0.000000 0.000000
0.000000 0.000000 0.000000
0.000000 0.000000 0.000000
0.000000 0.000000 0.000000
0.000000 0.000000 0.000000
0.000000 0.000000 0.000000
0.000000 0.000000 0.000000
0.000000 0.000000 0.000000
0.000000 0.000000 0.000000
0.000000 0.000000 0.000000
0.000000 0.000000 0.000000
0.000000 0.000000 0.000000
0.000000 0.000000 0.000000
0.000000 0.000000 0.000000
0.000000 0.000000 0.000000
0.000000 0.000000 0.000000
0.000000 0.000000 0.000000
0.000000 0.000000 0.000000
0.000000 0.000000 0.000000
0.000000 0.000000 0.000000
0.000000 0.000000 0.000000
0.000000 0.000000 0.000000
0.000000 0.000000 0.000000
0.000000 0.000000 0.000000
0.000000 0.000000 0.000000
0.000000 0.000000 0.000000
0.000000 0.000000 0.000000
0.000000 0.000000 0.000000
0.000000 0.000000 0.000000
0.000000 0.000000 0.000000
0.000000 0.000000 0.000000
0.000000 0.000000 0.000000
0.000000 0.000000 0.000000
0.000000 0.000000 0.000000
0.000000 0.000000 0.000000
0.000000 0.000000 0.000000
0.000000 0.000000 0.000000
0.000000 0.000000 0.000000
0.000000 0.000000 0.000000
0.000000 0.000000 0.000000
0.000000 0.000000 0.000000
0.000000 0.000000 0.000000
0.000000 0.000000 0.000000
0.000000 0.000000 0.000000
0.000000 0.000000 0.000000
0.000000 0.000000 0.000000
0.000000 0.000000 0.000000
0.000000 0.000000 0.000000
0.000000 0.000000 0.000000
0.000000 0.000000 0.000000
0.000000 0.000000 0.000000
0.000000 0.000000 0.000000
0.000000 0.000000 0.000000
0.000000 0.000000 0.000000
0.000000 0.000000 0.000000
0.000000 0.000000 0.000000
0.000000 0.000000 0.000000
0.000000 0.000000 0.000000
0.000000 0.000000 0.000000
0.000000 0.000000 0.000000
0.000000 0.000000 0.000000
0.000000 0.000000 0.000000
0.000000 0.000538 0.001112
0.000000 0.002623 0.003184
0.000000 0.004708 0.005256
0.000487 0.006793 0.007328
0.002725 0.008878 0.009400
0.004963 0.010963 0.011473
0.007201 0.013048 0.013545
0.009439 0.015133 0.015617
0.011677 0.017219 0.017689
0.013915 0.019304 0.019761
0.016153 0.021389 0.021833
0.018390 0.023474 0.023906
0.020628 0.025559 0.025978
0.022866 0.027644 0.028050
0.025104 0.029729 0.030122
0.027342 0.031814 0.032194
0.029580 0.033900 0.034266
0.031818 0.035985 0.036338
0.034056 0.038070 0.038411
0.036294 0.040155 0.040483
0.038531 0.042240 0.042555
0.040769 0.044325 0.044627
0.043007 0.046410 0.046699
0.045245 0.048496 0.048771
0.047483 0.050581 0.050844
0.049721 0.052666 0.052916
0.051959 0.054751 0.054988
0.054197 0.056836 0.057060
0.056434 0.058921 0.059132
0.058672 0.061006 0.061204
0.060910 0.063091 0.063277
0.063148 0.065177 0.065349
0.065386 0.067262 0.067421
0.067624 0.069347 0.069493
0.069862 0.071432 0.071565
0.072100 0.073517 0.073637
0.074338 0.075602 0.075710
0.076575 0.077687 0.077782
0.078813 0.079772 0.079854
0.081051 0.081858 0.081926
0.083289 0.083943 0.083998
0.085527 0.086028 0.086070
0.087765 0.088113 0.088143
0.090003 0.090198 0.090215
0.092241 0.092283 0.092287
0.094479 0.094368 0.094359
0.096716 0.096453 0.096431
0.098954 0.098539 0.098503
0.101192 0.100624 0.100575
0.103430 0.102709 0.102648
0.105668 0.104794 0.104720
0.107906 0.106879 0.106792
0.110144 0.108964 0.108864
0.112382 0.111049 0.110936
0.114620 0.113135 0.113008
0.116857 0.115220 0.115081
0.119095 0.117305 0.117153
0.121333 0.119390 0.119225
0.123571 0.121475 0.121297
0.125809 0.123560 0.123369
0.128047 0.125645 0.125441
0.130285 0.127730 0.127514
0.132523 0.129816 0.129586
0.134761 0.131901 0.131658
0.136998 0.133986 0.133730
0.139236 0.136071 0.135802
0.141474 0.138156 0.137874
0.143712 0.140241 0.139947
0.145950 0.142326 0.142019
0.148188 0.144411 0.144091
0.150426 0.146497 0.146163
0.152664 0.148582 0.148235
0.154901 0.150667 0.150307
0.157139 0.152752 0.152380
0.159377 0.154837 0.154452
0.161615 0.156922 0.156524
0.163853 0.159007 0.158596
0.166091 0.161092 0.160668
0.168122 0.163178 0.162740
0.169862 0.165263 0.164812
0.171575 0.167348 0.166885
0.173261 0.168984 0.168613
0.174923 0.170593 0.170218
0.176560 0.172180 0.171800
0.178174 0.173744 0.173359
0.179764 0.175286 0.174897
0.181332 0.176807 0.176414
0.182878 0.178308 0.177911
0.184402 0.179788 0.179388
0.185906 0.181250 0.180845
0.187390 0.182692 0.182284
0.188855 0.184115 0.183704
0.190300 0.185521 0.185106
0.191727 0.186909 0.186490
0.193135 0.188280 0.187858
0.194526 0.189634 0.189209
0.195900 0.190972 0.190543
0.197257 0.192294 0.191862
0.198598 0.193600 0.193166
0.199922 0.194892 0.194454
0.201231 0.196168 0.195727
0.202525 0.197430 0.196986
0.203804 0.198677 0.198231
0.205068 0.199911 0.199462
0.206318 0.201131 0.200680
0.207554 0.202338 0.201884
0.208777 0.203532 0.203076
0.209986 0.204714 0.204254
0.211182 0.205883 0.205421
0.212365 0.207039 0.206575
0.213536 0.208184 0.207717
0.214695 0.209317 0.208848
0.215842 0.210439 0.209968
0.216977 0.211549 0.211076
0.218100 0.212648 0.212173
0.219212 0.213737 0.213259
0.220313 0.214815 0.214335
0.221404 0.215883 0.215401
0.222484 0.216940 0.216457
0.223553 0.217988 0.217502
0.224612 0.219025 0.218538
0.225661 0.220054 0.219564
0.226701 0.221072 0.220581
0.227731 0.222082 0.221589
0.228751 0.223082 0.222587
0.229762 0.224073 0.223577
0.230764 0.225056 0.224558
0.231756 0.226030 0.225530
0.232741 0.226995 0.226494
0.233716 0.227953 0.227449
0.234683 0.228902 0.228397
0.235642 0.229843 0.229336
0.236592 0.230776 0.230268
0.237534 0.231701 0.231191
0.238469 0.232619 0.232108
0.239395 0.233529 0.233016
0.240314 0.234431 0.233917
0.241225 0.235327 0.234811
0.242129 0.236215 0.235698
0.243026 0.237096 0.236578
0.243916 0.237971 0.237451
0.244798 0.238838 0.238317
0.245673 0.239699 0.239177
0.246542 0.240553 0.240029
0.247404 0.241401 0.240876
0.248259 0.242242 0.241716
0.249108 0.243077 0.242549
0.249950 0.243905 0.243377
0.250786 0.244728 0.244198
0.251615 0.245544 0.245013
0.252439 0.246354 0.245822
0.253256 0.247159 0.246626
0.254068 0.247958 0.247423
0.254873 0.248751 0.248215
0.255673 0.249538 0.249002
0.256467 0.250320 0.249782
0.257255 0.251097 0.250558
0.258038 0.251868 0.251328
0.258816 0.252633 0.252092
0.259588 0.253394 0.252852
0.260354 0.254149 0.253606
0.261116 0.254899 0.254355
0.261872 0.255645 0.255100
0.262623 0.256385 0.255839
0.263369 0.257120 0.256573
0.264110 0.257851 0.257303
0.264846 0.258576 0.258027
0.265577 0.259297 0.258747
0.266304 0.260014 0.259463
0.267025 0.260725 0.260174
0.267743 0.261433 0.260880
0.268455 0.262135 0.261582
0.269163 0.262834 0.262279
0.269866 0.263527 0.262972
0.270566 0.264217 0.263661
0.271260 0.264902 0.264346
0.271951 0.265584 0.265026
0.272637 0.266261 0.265702
0.273318 0.266934 0.266374
0.273996 0.267602 0.267042
0.274670 0.268267 0.267706
0.275339 0.268928 0.268366
0.276005 0.269585 0.269023
0.276666 0.270238 0.269675
0.277324 0.270887 0.270324
0.277978 0.271533 0.270968
0.278628 0.272175 0.271609
0.279274 0.272813 0.272247
0.279916 0.273447 0.272880
0.280555 0.274078 0.273511
0.281190 0.274705 0.274137
0.281821 0.275329 0.274760
0.282449 0.275949 0.275380
0.283074 0.276566 0.275996
0.283694 0.277180 0.276609
0.284312 0.277790 0.277218
0.284926 0.278396 0.277824
0.285536 0.279000 0.278427
0.286144 0.279600 0.279026
0.286748 0.280197 0.279623
0.287348 0.280791 0.280216
0.287946 0.281381 0.280806
0.288540 0.281969 0.281392
0.289131 0.282553 0.281976
0.289719 0.283134 0.282557
0.290304 0.283713 0.283135
0.290886 0.284288 0.283709
0.291465 0.284860 0.284281
0.292040 0.285429 0.284850
0.292613 0.285996 0.285416
0.293183 0.286560 0.285979
0.293750 0.287120 0.286539
0.294314 0.287678 0.287096
0.294875 0.288233 0.287651
0.295434 0.288786 0.288203
0.295989 0.289335 0.288752
0.296542 0.289882 0.289298
0.297092 0.290427 0.289842
0.297640 0.290968 0.290383
0.298184 0.291507 0.290921
0.298726 0.292043 0.291457
0.299266 0.292577 0.291990
0.299802 0.293108 0.292521
0.300337 0.293637 0.293049
0.300868 0.294163 0.293575
0.301397 0.294687 0.294098
0.301924 0.295208 0.294619
0.302448 0.295727 0.295137
0.302970 0.296243 0.295653
0.303489 0.296757 0.296167
0.304006 0.297269 0.296678
0.304520 0.297778 0.297187
0.305032 0.298285 0.297693
0.305542 0.298790 0.298198
0.306049 0.299292 0.298699
0.306554 0.299793 0.299199
0.307057 0.300290 0.299697
0.307558 0.300786 0.300192
0.308056 0.301279 0.300685
0.308552 0.301771 0.301176
0.309046 0.302260 0.301664
0.309537 0.302747 0.302151
0.310027 0.303232 0.302635
0.310514 0.303714 0.303117
0.310999 0.304195 0.303598
0.311482 0.304674 0.304076
0.311963 0.305150 0.304552
0.312442 0.305624 0.305026
0.312919 0.306097 0.305498
0.313394 0.306567 0.305968
0.313867 0.307036 0.306436
0.314337 0.307502 0.306902
0.314806 0.307967 0.307366
0.315273 0.308429 0.307829
0.315738 0.308890 0.308289
0.316201 0.309349 0.308747
0.316662 0.309806 0.309204
0.317121 0.310261 0.309658
0.317578 0.310714 0.310111
0.318033 0.311165 0.310562
0.318487 0.311615 0.311011
0.318939 0.312062 0.311459
0.319388 0.312508 0.311904
0.319836 0.312952 0.312348
0.320283 0.313395 0.312790
0.320727 0.313835 0.313230
0.321170 0.314274 0.313669
0.321610 0.314711 0.314105
0.322050 0.315147 0.314540
0.322487 0.315580 0.314974
0.322923 0.316012 0.315405
0.323357 0.316443 0.315835
0.323789 0.316871 0.316264
0.324219 0.317298 0.316690
0.324648 0.317724 0.317116
0.325076 0.318147 0.317539
0.325501 0.318570 0.317961
0.325925 0.318990 0.318381
0.326348 0.319409 0.318800
0.326769 0.319827 0.319217
0.327188 0.320242 0.319632
0.327605 0.320657 0.320046
0.328022 0.321069 0.320459
0.328436 0.321481 0.320870
0.328849 0.321890 0.321279
0.329260 0.322298 0.321687
0.329670 0.322705 0.322093
0.330079 0.323110 0.322498
0.330486 0.323514 0.322901
0.330891 0.323916 0.323303
0.331295 0.324317 0.323704
0.331698 0.324716 0.324103
0.332099 0.325114 0.324501
0.332498 0.325511 0.324897
0.332896 0.325906 0.325292
0.333293 0.326300 0.325685
0.333689 0.326692 0.326077
0.334083 0.327083 0.326468
0.334475 0.327472 0.326857
0.334866 0.327861 0.327245
0.335256 0.328247 0.327632
0.335644 0.328633 0.328017
0.336031 0.329017 0.328401
0.336417 0.329400 0.328783
0.336802 0.329781 0.329165
0.337185 0.330162 0.329545
0.337566 0.330541 0.329923
0.337947 0.330918 0.330301
0.338326 0.331295 0.330677
0.338704 0.331670 0.331051
0.339080 0.332043 0.331425
0.339456 0.332416 0.331797
0.339830 0.332787 0.332168
0.340202 0.333157 0.332538
0.340574 0.333526 0.332907
0.340944 0.333894 0.333274
0.341313 0.334260 0.333640
0.341681 0.334625 0.334005
0.342048 0.334989 0.334369
0.342413 0.335352 0.334732
0.342777 0.335714 0.335093
0.343140 0.336074 0.335453
0.343502 0.336434 0.335812
0.343863 0.336792 0.336170
0.344222 0.337149 0.336527
0.344581 0.337505 0.336883
0.344938 0.337859 0.337237
0.345294 0.338213 0.337591
0.345649 0.338565 0.337943
0.346003 0.338917 0.338294
0.346355 0.339267 0.338644
0.346707 0.339616 0.338993
0.347057 0.339964 0.339341
0.347406 0.340311 0.339687
0.347755 0.340657 0.340033
0.348102 0.341002 0.340378
0.348448 0.341345 0.340721
0.348793 0.341688 0.341064
0.349137 0.342030 0.341405
0.349480 0.342370 0.341745
0.349821 0.342710 0.342085
0.350162 0.343048 0.342423
0.350502 0.343386 0.342760
0.350840 0.343722 0.343096
0.351178 0.344058 0.343432
0.351515 0.344392 0.343766
0.351850 0.344725 0.344099
0.352185 0.345058 0.344431
0.352518 0.345389 0.344762
0.352851 0.345720 0.345093
0.353241 0.346107 0.345480
0.353661 0.346524 0.345897
0.354080 0.346940 0.346313
0.354498 0.347356 0.346728
0.354916 0.347771 0.347143
0.355333 0.348186 0.347557
0.355749 0.348599 0.347971
0.356165 0.349013 0.348384
0.356580 0.349425 0.348796
0.356995 0.349837 0.349208
0.357409 0.350248 0.349619
0.357822 0.350659 0.350029
0.358234 0.351069 0.350439
0.358646 0.351479 0.350848
0.359058 0.351888 0.351257
0.359469 0.352296 0.351665
0.359879 0.352704 0.352073
0.360288 0.353111 0.352479
0.360697 0.353517 0.352886
0.361105 0.353923 0.353291
0.361513 0.354328 0.353696
0.361920 0.354733 0.354101
0.362327 0.355137 0.354505
0.362733 0.355541 0.354908
0.363138 0.355943 0.355311
0.363543 0.356346 0.355713
0.363947 0.356748 0.356114
0.364351 0.357149 0.356516
0.364754 0.357550 0.356916
0.365156 0.357950 0.357316
0.365558 0.358349 0.357715
0.365959 0.358748 0.358114
0.366360 0.359147 0.358512
0.366760 0.359545 0.358910
0.367160 0.359942 0.359307
0.367559 0.360339 0.359704
0.367957 0.360735 0.360100
0.368355 0.361131 0.360495
0.368753 0.361526 0.360890
0.369149 0.361920 0.361285
0.369546 0.362315 0.361678
0.369941 0.362708 0.362072
0.370337 0.363101 0.362465
0.370731 0.363494 0.362857
0.371126 0.363886 0.363249
0.371519 0.364277 0.363640
0.371912 0.364668 0.364031
0.372305 0.365058 0.364421
0.372697 0.365448 0.364811
0.373088 0.365838 0.365200
0.373479 0.366227 0.365589
0.373870 0.366615 0.365977
0.374260 0.367003 0.366365
0.374649 0.367390 0.366752
0.375038 0.367777 0.367138
0.375427 0.368164 0.367525
0.375815 0.368550 0.367910
0.376202 0.368935 0.368296
0.376589 0.369320 0.368680
0.376975 0.369704 0.369065
0.377361 0.370088 0.369448
0.377747 0.370472 0.369832
0.378132 0.370855 0.370214
0.378516 0.371237 0.370597
0.378900 0.371619 0.370979
0.379284 0.372001 0.371360
0.379667 0.372382 0.371741
0.380049 0.372763 0.372121
0.380431 0.373143 0.372501
0.380813 0.373522 0.372881
0.381194 0.373902 0.373260
0.381575 0.374280 0.373638
0.381955 0.374659 0.374017
0.382335 0.375037 0.374394
0.382714 0.375414 0.374772
0.383093 0.375791 0.375148
0.383471 0.376167 0.375525
0.383849 0.376543 0.375901
0.384227 0.376919 0.376276
0.384604 0.377294 0.376651
0.384980 0.377669 0.377026
0.385356 0.378043 0.377400
0.385732 0.378417 0.377773
0.386107 0.378790 0.378147
0.386482 0.379163 0.378519
0.386856 0.379536 0.378892
0.387230 0.379908 0.379264
0.387603 0.380280 0.379635
0.387976 0.380651 0.380006
0.388349 0.381022 0.380377
0.388721 0.381392 0.380747
0.389093 0.381762 0.381117
0.389464 0.382132 0.381487
0.389835 0.382501 0.381856
0.390206 0.382870 0.382224
0.390576 0.383238 0.382592
0.390945 0.383606 0.382960
0.391314 0.383973 0.383327
0.391683 0.384341 0.383694
0.392052 0.384707 0.384061
0.392420 0.385074 0.384427
0.392787 0.385439 0.384793
0.393154 0.385805 0.385158
0.393521 0.386170 0.385523
0.393887 0.386535 0.385888
0.394253 0.386899 0.386252
0.394619 0.387263 0.386616
0.394984 0.387626 0.386979
0.395349 0.387990 0.387342
0.395713 0.388352 0.387704
0.396077 0.388715 0.388067
0.396440 0.389077 0.388428
0.396804 0.389438 0.388790
0.397166 0.389799 0.389151
0.397529 0.390160 0.389512
0.397891 0.390521 0.389872
0.398252 0.390881 0.390232
0.398614 0.391240 0.390591
0.398975 0.391600 0.390951
0.399335 0.391959 0.391309
0.399695 0.392317 0.391668
0.400055 0.392676 0.392026
0.400414 0.393033 0.392384
0.400773 0.393391 0.392741
0.401132 0.393748 0.393098
0.401490 0.394105 0.393455
0.401848 0.394461 0.393811
0.402205 0.394817 0.394167
0.402563 0.395173 0.394522
0.402919 0.395528 0.394877
0.403276 0.395883 0.395232
0.403632 0.396238 0.395587
0.403988 0.396592 0.395941
0.404343 0.396946 0.396295
0.404698 0.397299 0.396648
0.405053 0.397653 0.397001
0.405407 0.398005 0.397354
0.405761 0.398358 0.397706
0.406114 0.398710 0.398058
0.406468 0.399062 0.398410
0.406821 0.399413 0.398761
0.407173 0.399765 0.399112
0.407525 0.400115 0.399463
0.407877 0.400466 0.399813
0.408229 0.400816 0.400163
0.408580 0.401166 0.400513
0.408931 0.401515 0.400862
0.409281 0.401865 0.401212
0.409631 0.402213 0.401560
0.409981 0.402562 0.401909
0.410331 0.402910 0.402257
0.410680 0.403258 0.402604
0.411029 0.403605 0.402952
0.411377 0.403953 0.403299
0.411725 0.404299 0.403646
0.412073 0.404646 0.403992
0.412421 0.404992 0.404338
0.412768 0.405338 0.404684
0.413115 0.405684 0.405029
0.413462 0.406029 0.405375
0.413808 0.406374 0.405719
0.414154 0.406719 0.406064
0.414499 0.407063 0.406408
0.414845 0.407407 0.406752
0.415190 0.407751 0.407096
0.415534 0.408094 0.407439
0.415879 0.408437 0.407782
0.416223 0.408780 0.408125
0.416567 0.409123 0.408467
0.416910 0.409465 0.408809
0.417253 0.409807 0.409151
0.417596 0.410148 0.409492
0.417939 0.410490 0.409834
0.418281 0.410831 0.410174
0.418623 0.411171 0.410515
0.418964 0.411512 0.410855
0.419306 0.411852 0.411195
0.419647 0.412192 0.411535
0.419987 0.412531 0.411874
0.420328 0.412870 0.412214
0.420668 0.413209 0.412552
0.421008 0.413548 0.412891
0.421347 0.413886 0.413229
0.421687 0.414224 0.413567
0.422026 0.414562 0.413905
0.422364 0.414900 0.414242
0.422703 0.415237 0.414579
0.423041 0.415574 0.414916
0.423379 0.415911 0.415253
0.423716 0.416247 0.415589
0.424054 0.416583 0.415925
0.424391 0.416919 0.416261
0.424727 0.417254 0.416596
0.425064 0.417590 0.416932
0.425400 0.417925 0.417266
0.425736 0.418260 0.417601
0.426071 0.418594 0.417935
0.426407 0.418928 0.418270
0.426742 0.419262 0.418603
